Batman_vs_Superman_-_Rec709.3dl
# Created by Benjamin (IWLTBAP) : http://luts.iwltbap.com
# Copyright: (C) Copyright 2016 Triune Films and IWLTBAP
# Blockbuster LUTs Pack
0 128 256 384 512 640 768 896 1023
25 45 57
61 136 312
96 217 566
130 295 818
155 378 1082
183 468 1354
224 561 1624
270 649 1895
317 737 2162
67 332 127
57 339 326
88 417 572
118 497 827
142 587 1094
173 678 1368
217 768 1645
262 855 1916
314 946 2185
107 627 172
83 637 375
82 646 598
101 719 851
123 811 1123
154 901 1399
202 992 1679
254 1083 1954
311 1173 2229
130 914 215
119 927 418
94 966 665
97 968 887
108 1045 1155
127 1137 1439
170 1229 1721
233 1327 2006
292 1419 2287
162 1208 260
139 1216 467
109 1271 718
112 1299 968
105 1304 1198
121 1383 1482
140 1472 1767
187 1569 2056
252 1670 2346
199 1520 275
165 1507 527
129 1564 779
130 1643 1057
122 1652 1294
123 1655 1534
140 1735 1821
161 1831 2112
181 1930 2403
248 1827 323
212 1835 575
154 1858 843
151 1944 1125
154 2032 1398
140 2023 1644
141 2024 1882
160 2118 2187
189 2204 2467
298 2146 389
248 2166 635
182 2153 915
176 2240 1193
181 2353 1489
167 2409 1765
162 2397 2012
162 2398 2241
201 2481 2532
345 2456 459
302 2465 701
211 2451 984
195 2517 1258
197 2619 1541
190 2730 1877
188 2756 2116
176 2742 2353
176 2740 2570
357 90 59
263 147 317
273 224 569
285 302 833
315 387 1101
340 477 1369
380 566 1635
433 654 1903
481 741 2168
248 340 128
283 426 389
280 519 665
303 607 934
336 698 1206
378 790 1486
430 876 1757
486 962 2025
534 1053 2300
281 632 172
289 735 436
257 758 692
285 834 955
317 923 1230
365 1015 1514
421 1099 1788
480 1187 2060
527 1279 2339
304 930 208
322 1049 475
268 1075 737
273 1089 995
288 1166 1269
330 1263 1561
390 1353 1846
460 1446 2128
508 1543 2413
351 1235 236
369 1351 501
291 1378 789
299 1437 1070
292 1439 1319
315 1521 1611
347 1609 1897
409 1708 2189
464 1811 2480
395 1540 286
441 1662 545
351 1695 838
322 1757 1136
318 1814 1424
320 1810 1670
344 1894 1966
358 1982 2252
371 2076 2540
471 1853 349
502 1990 610
417 2002 883
334 2059 1203
351 2174 1511
349 2194 1790
337 2188 2028
358 2273 2326
396 2348 2592
518 2180 413
584 2319 680
473 2323 946
354 2367 1275
380 2455 1563
389 2560 1901
387 2555 2151
386 2548 2373
419 2619 2645
599 2499 474
650 2677 715
538 2678 975
373 2696 1304
393 2751 1622
409 2845 1951
407 2894 2243
360 2883 2476
354 2868 2683
725 151 56
651 195 352
586 248 573
577 314 839
534 397 1123
514 492 1405
548 582 1666
603 671 1929
651 757 2192
645 425 101
734 480 365
620 536 657
545 617 949
516 714 1240
552 810 1521
605 901 1795
662 991 2067
705 1080 2341
556 642 158
611 748 425
554 837 745
498 934 1061
527 1032 1356
583 1127 1646
639 1217 1926
693 1308 2202
733 1392 2472
559 935 217
608 1061 477
547 1162 772
456 1202 1100
492 1283 1392
553 1380 1688
617 1469 1974
674 1559 2255
710 1640 2521
585 1247 268
656 1376 531
631 1487 818
506 1545 1138
485 1562 1437
516 1641 1731
570 1734 2024
633 1830 2315
689 1915 2584
644 1566 321
745 1702 596
734 1823 871
557 1873 1196
523 1946 1535
520 1941 1792
546 2015 2084
560 2099 2368
628 2183 2634
708 1896 376
822 2046 664
826 2168 936
623 2187 1245
544 2260 1572
558 2328 1914
537 2313 2149
567 2381 2423
605 2445 2678
770 2242 433
896 2388 721
904 2503 1002
718 2490 1286
580 2549 1629
596 2651 1982
589 2677 2255
592 2662 2473
617 2713 2727
851 2576 478
949 2764 721
926 2902 982
767 2876 1258
587 2896 1644
588 2934 1995
570 2997 2335
540 2985 2566
564 2966 2768
1128 214 38
1099 232 306
974 317 596
950 355 837
965 435 1115
971 511 1409
932 583 1707
904 678 1973
887 773 2236
1090 518 63
1234 538 295
1143 587 648
1039 662 932
1025 740 1228
997 818 1538
949 909 1825
912 1006 2110
882 1095 2392
966 725 136
1155 841 350
1202 908 693
1054 971 1028
992 1045 1348
936 1139 1668
901 1245 1980
877 1341 2276
911 1425 2543
928 955 164
1038 1087 421
1079 1210 733
984 1298 1130
912 1389 1494
883 1502 1835
852 1598 2144
896 1689 2420
934 1762 2673
996 1295 192
1115 1439 423
1123 1558 809
997 1646 1161
789 1700 1561
777 1780 1886
806 1874 2190
867 1961 2468
931 2031 2717
1040 1641 236
1136 1794 536
1165 1909 907
1048 2007 1230
841 2072 1601
723 2090 1939
751 2152 2230
811 2232 2510
906 2305 2769
1022 1983 315
1114 2145 625
1191 2262 979
1141 2364 1299
932 2384 1629
775 2464 2035
757 2449 2282
790 2499 2550
826 2558 2799
1083 2340 356
1188 2497 687
1243 2615 1021
1192 2725 1339
986 2701 1659
844 2752 2028
768 2795 2366
774 2772 2580
810 2813 2827
1176 2693 393
1286 2873 704
1282 3021 944
1185 3125 1277
979 3066 1596
803 3067 2034
726 3086 2397
757 3084 2655
796 3057 2852
1569 292 52
1568 299 297
1500 367 545
1407 434 820
1413 472 1081
1405 558 1391
1429 641 1696
1460 721 2001
1480 791 2309
1596 597 38
1710 598 275
1711 634 584
1561 732 902
1536 782 1186
1511 878 1525
1530 964 1845
1550 1039 2180
1399 1078 2558
1513 855 97
1758 932 259
1786 961 617
1691 1028 987
1586 1114 1321
1556 1206 1667
1560 1285 2023
1416 1343 2394
1229 1426 2631
1392 1050 150
1603 1186 342
1757 1324 669
1753 1400 1082
1589 1471 1457
1553 1557 1832
1433 1632 2183
1301 1718 2491
1157 1789 2757
1390 1321 161
1542 1472 413
1632 1617 746
1658 1753 1124
1549 1857 1593
1454 1949 1987
1399 2043 2343
1357 2125 2648
1236 2169 2892
1497 1707 203
1645 1879 503
1731 2028 821
1720 2156 1194
1567 2249 1636
1332 2276 2065
1350 2343 2398
1315 2411 2693
1209 2441 2924
1595 2088 253
1733 2275 574
1782 2416 939
1739 2530 1290
1605 2623 1686
1260 2615 2074
1153 2624 2431
1143 2664 2716
1091 2692 2947
1649 2465 292
1771 2638 671
1801 2766 1000
1733 2889 1317
1592 2985 1703
1251 2934 2061
1056 2952 2495
977 2913 2726
996 2925 2959
1641 2808 378
1742 2986 691
1736 3118 955
1688 3235 1318
1614 3320 1667
1216 3260 1991
1021 3231 2446
934 3209 2780
962 3166 2967
2021 375 115
2032 369 336
1997 433 577
1906 503 818
1884 549 1061
1910 576 1312
1898 663 1627
1919 759 1964
1921 846 2323
2113 668 72
2157 674 354
2222 701 621
2112 774 891
2007 864 1159
2035 899 1428
2007 1000 1793
1998 1096 2177
2030 1157 2557
2075 961 99
2282 1008 278
2287 1024 649
2259 1058 948
2132 1180 1266
2117 1239 1583
2051 1348 2006
2079 1417 2400
1979 1462 2766
2002 1187 139
2241 1321 344
2391 1414 628
2355 1468 1032
2248 1528 1408
2127 1624 1814
2103 1718 2209
2026 1783 2598
1812 1831 2916
1918 1414 169
2095 1577 446
2234 1732 767
2346 1892 1109
2321 1981 1552
2143 2069 1987
2118 2147 2375
1985 2210 2730
1826 2255 3017
1918 1723 204
2068 1902 494
2167 2069 839
2238 2224 1171
2260 2384 1606
2158 2510 2072
2104 2586 2477
2080 2651 2832
1964 2679 3116
2008 2169 244
2167 2355 540
2263 2512 930
2328 2641 1264
2339 2770 1626
2192 2872 2086
1898 2882 2524
1944 2939 2873
1864 2951 3140
2125 2563 295
2286 2747 617
2351 2882 1007
2347 3003 1338
2329 3110 1725
2229 3203 2131
1729 3186 2505
1721 3185 2896
1626 3172 3152
2201 2926 319
2321 3091 716
2371 3216 1007
2369 3323 1368
2366 3419 1761
2265 3500 2133
1683 3467 2478
1469 3441 2914
1341 3356 3126
2462 449 154
2479 436 369
2442 497 613
2386 560 856
2287 629 1085
2316 668 1342
2335 697 1601
2339 780 1936
2324 882 2323
2562 740 119
2594 746 376
2653 742 614
2603 821 908
2488 901 1174
2456 974 1446
2471 1012 1759
2424 1126 2176
2442 1210 2556
2573 1053 114
2713 1072 323
2732 1068 644
2739 1095 946
2663 1180 1231
2562 1319 1601
2538 1364 1992
2520 1461 2395
2533 1527 2773
2541 1317 143
2727 1415 313
2849 1470 593
2835 1514 1018
2805 1531 1323
2652 1704 1827
2594 1762 2200
2600 1846 2593
2558 1918 2947
2433 1536 197
2658 1711 380
2819 1861 730
2919 1989 1040
2916 2057 1466
2776 2127 1964
2660 2219 2364
2651 2294 2743
2598 2355 3055
2412 1818 223
2571 2005 495
2682 2178 881
2791 2343 1199
2893 2516 1570
2874 2601 2036
2694 2675 2482
2701 2746 2844
2671 2789 3150
2407 2164 239
2569 2361 487
2671 2529 900
2737 2682 1277
2806 2823 1615
2822 2964 2033
2725 3058 2519
2763 3127 2896
2762 3165 3200
2507 2640 286
2655 2806 581
2743 2946 1005
2813 3074 1347
2873 3186 1660
2843 3283 2123
2788 3359 2542
2711 3377 2899
2707 3401 3209
2603 2997 327
2748 3153 673
2825 3281 1027
2860 3389 1388
2863 3478 1809
2852 3562 2211
2868 3647 2589
2689 3654 2900
2579 3616 3230
2866 513 175
2878 495 381
2834 532 614
2818 591 867
2750 662 1102
2681 732 1356
2720 768 1645
2716 798 1955
2699 899 2352
2950 805 140
2969 806 400
3000 786 609
3011 835 893
2943 916 1167
2854 1019 1471
2857 1079 1835
2830 1122 2189
2823 1220 2587
2980 1139 141
3072 1146 344
3097 1127 627
3133 1109 914
3081 1204 1245
3001 1346 1633
2938 1452 2061
2909 1481 2410
2922 1552 2780
2962 1429 146
3110 1520 312
3195 1555 599
3229 1557 994
3208 1549 1320
3116 1711 1791
3014 1869 2255
2993 1884 2593
3000 1956 2948
2920 1689 165
3091 1849 346
3205 1967 666
3314 2057 984
3335 2095 1415
3242 2109 1835
3128 2305 2405
3077 2339 2737
3079 2402 3066
2844 1933 219
3026 2118 419
3177 2301 803
3289 2463 1119
3390 2596 1421
3366 2656 1954
3238 2712 2482
3141 2789 2839
3150 2832 3150
2860 2261 231
2999 2438 466
3109 2616 943
3191 2769 1291
3291 2915 1600
3351 3050 2023
3303 3107 2498
3181 3164 2896
3199 3201 3202
2867 2632 276
3011 2798 541
3110 2941 915
3169 3070 1313
3233 3193 1663
3277 3303 2038
3261 3400 2487
3244 3479 2909
3262 3522 3226
2939 3053 331
3069 3188 660
3157 3307 1028
3222 3419 1382
3266 3518 1783
3278 3598 2180
3285 3676 2600
3309 3748 2948
3233 3736 3204
3206 571 190
3219 553 405
3203 572 626
3192 609 874
3143 671 1112
3074 747 1351
3046 806 1667
3063 855 2051
3044 889 2383
3259 866 158
3285 871 406
3305 842 636
3321 845 885
3292 946 1198
3235 1038 1524
3175 1157 1894
3176 1201 2290
3159 1226 2615
3287 1229 128
3345 1222 345
3373 1203 630
3415 1173 927
3396 1255 1283
3350 1386 1690
3292 1516 2123
3261 1570 2481
3246 1578 2794
3271 1552 148
3371 1617 317
3441 1636 594
3501 1637 1004
3494 1633 1382
3455 1757 1791
3406 1904 2291
3349 1992 2643
3322 1988 2954
3249 1839 170
3365 1975 372
3467 2062 636
3565 2122 981
3590 2176 1470
3558 2183 1867
3513 2328 2404
3425 2444 2772
3399 2429 3068
3218 2090 230
3350 2276 410
3458 2426 755
3571 2561 1073
3648 2657 1431
3640 2727 1994
3591 2736 2423
3499 2845 2870
3463 2849 3151
3201 2353 242
3315 2531 483
3430 2713 875
3537 2873 1192
3594 2998 1572
3633 3106 2039
3629 3152 2504
3561 3182 2926
3509 3214 3209
3212 2686 293
3314 2847 574
3396 2989 978
3472 3121 1342
3517 3233 1712
3562 3356 2120
3592 3460 2536
3620 3510 2913
3542 3536 3231
3229 3041 329
3318 3167 610
3385 3268 895
3461 3387 1263
3500 3493 1686
3527 3590 2094
3547 3681 2522
3589 3760 2918
3610 3820 3227
