Batman_vs_Superman_-_Rec709.3dl
# Created by Benjamin (IWLTBAP) : http://luts.iwltbap.com
# Copyright: (C) Copyright 2016 Triune Films and IWLTBAP
# Blockbuster LUTs Pack
0 256 512 768 1023
25 45 57
96 217 566
155 378 1082
224 561 1624
317 737 2162
107 627 172
82 646 598
123 811 1123
202 992 1679
311 1173 2229
162 1208 260
109 1271 718
105 1304 1198
140 1472 1767
252 1670 2346
248 1827 323
154 1858 843
154 2032 1398
141 2024 1882
189 2204 2467
345 2456 459
211 2451 984
197 2619 1541
188 2756 2116
176 2740 2570
725 151 56
586 248 573
534 397 1123
548 582 1666
651 757 2192
556 642 158
554 837 745
527 1032 1356
639 1217 1926
733 1392 2472
585 1247 268
631 1487 818
485 1562 1437
570 1734 2024
689 1915 2584
708 1896 376
826 2168 936
544 2260 1572
537 2313 2149
605 2445 2678
851 2576 478
926 2902 982
587 2896 1644
570 2997 2335
564 2966 2768
1569 292 52
1500 367 545
1413 472 1081
1429 641 1696
1480 791 2309
1513 855 97
1786 961 617
1586 1114 1321
1560 1285 2023
1229 1426 2631
1390 1321 161
1632 1617 746
1549 1857 1593
1399 2043 2343
1236 2169 2892
1595 2088 253
1782 2416 939
1605 2623 1686
1153 2624 2431
1091 2692 2947
1641 2808 378
1736 3118 955
1614 3320 1667
1021 3231 2446
962 3166 2967
2462 449 154
2442 497 613
2287 629 1085
2335 697 1601
2324 882 2323
2573 1053 114
2732 1068 644
2663 1180 1231
2538 1364 1992
2533 1527 2773
2433 1536 197
2819 1861 730
2916 2057 1466
2660 2219 2364
2598 2355 3055
2407 2164 239
2671 2529 900
2806 2823 1615
2725 3058 2519
2762 3165 3200
2603 2997 327
2825 3281 1027
2863 3478 1809
2868 3647 2589
2579 3616 3230
3206 571 190
3203 572 626
3143 671 1112
3046 806 1667
3044 889 2383
3287 1229 128
3373 1203 630
3396 1255 1283
3292 1516 2123
3246 1578 2794
3249 1839 170
3467 2062 636
3590 2176 1470
3513 2328 2404
3399 2429 3068
3201 2353 242
3430 2713 875
3594 2998 1572
3629 3152 2504
3509 3214 3209
3229 3041 329
3385 3268 895
3500 3493 1686
3547 3681 2522
3610 3820 3227
