Batman_vs_Superman_-_Rec709.3dl
# Created by Benjamin (IWLTBAP) : http://luts.iwltbap.com
# Copyright: (C) Copyright 2016 Triune Films and IWLTBAP
# Blockbuster LUTs Pack
0 64 128 192 256 320 384 448 512 576 640 704 768 832 896 960 1023
25 45 57
47 93 187
61 136 312
77 176 442
96 217 566
115 257 690
130 295 818
144 334 949
155 378 1082
166 419 1214
183 468 1354
201 514 1489
224 561 1624
246 605 1761
270 649 1895
295 694 2030
317 737 2162
48 184 93
46 189 191
59 233 315
76 274 443
94 314 567
110 354 692
125 395 821
138 437 954
150 483 1089
161 525 1222
178 573 1362
197 619 1499
221 666 1637
244 709 1773
268 752 1908
294 799 2043
316 842 2174
67 332 127
66 335 220
57 339 326
72 377 449
88 417 572
105 456 697
118 497 827
131 540 957
142 587 1094
154 630 1228
173 678 1368
194 723 1506
217 768 1645
239 812 1781
262 855 1916
290 902 2052
314 946 2185
90 479 149
81 479 245
71 487 358
72 489 462
83 525 584
97 565 707
110 608 838
123 651 970
134 697 1108
145 738 1240
165 786 1379
186 830 1517
209 873 1655
232 918 1791
259 964 1928
289 1009 2065
312 1052 2198
107 627 172
101 624 263
83 637 375
79 641 495
82 646 598
93 678 721
101 719 851
113 764 984
123 811 1123
134 853 1257
154 901 1399
177 948 1539
202 992 1679
226 1037 1816
254 1083 1954
286 1130 2093
311 1173 2229
120 772 193
116 769 286
102 782 394
87 801 517
88 799 634
91 803 740
99 838 867
106 880 999
111 926 1137
122 968 1273
141 1018 1419
162 1066 1559
189 1110 1699
214 1157 1840
245 1205 1981
281 1253 2122
305 1298 2260
130 914 215
126 912 309
119 927 418
102 949 537
94 966 665
96 962 779
97 968 887
104 1003 1017
108 1045 1155
114 1086 1291
127 1137 1439
146 1183 1578
170 1229 1721
197 1278 1864
233 1327 2006
270 1376 2149
292 1419 2287
146 1060 238
133 1058 336
129 1073 440
114 1096 562
98 1122 693
99 1131 813
101 1126 929
101 1133 1040
105 1170 1174
111 1207 1312
121 1257 1458
134 1304 1599
149 1350 1742
176 1398 1886
216 1448 2030
253 1497 2174
276 1544 2318
162 1208 260
147 1207 368
139 1216 467
125 1242 590
109 1271 718
111 1299 854
112 1299 968
108 1296 1084
105 1304 1198
111 1337 1336
121 1383 1482
132 1427 1623
140 1472 1767
154 1519 1911
187 1569 2056
226 1621 2202
252 1670 2346
177 1358 268
159 1356 393
150 1357 493
137 1384 616
118 1414 742
118 1450 881
122 1475 1010
121 1472 1127
114 1469 1242
112 1475 1361
121 1516 1508
130 1555 1649
140 1600 1793
150 1648 1936
161 1696 2081
184 1749 2230
217 1799 2374
199 1520 275
181 1520 406
165 1507 527
153 1530 646
129 1564 779
128 1601 914
130 1643 1057
127 1658 1174
122 1652 1294
121 1649 1413
123 1655 1534
130 1694 1679
140 1735 1821
150 1781 1965
161 1831 2112
168 1883 2261
181 1930 2403
228 1671 300
213 1681 412
188 1662 554
172 1672 674
144 1709 813
137 1744 945
140 1794 1090
140 1836 1226
137 1840 1340
130 1834 1465
130 1830 1585
131 1837 1704
140 1882 1856
150 1924 2001
161 1970 2147
168 2019 2293
178 2066 2435
248 1827 323
227 1838 430
212 1835 575
190 1819 705
154 1858 843
143 1895 982
151 1944 1125
158 1998 1268
154 2032 1398
146 2029 1519
140 2023 1644
140 2020 1765
141 2024 1882
149 2073 2039
160 2118 2187
176 2163 2329
189 2204 2467
265 1985 353
239 1997 465
226 2008 600
205 1974 741
164 2005 877
152 2046 1019
161 2092 1158
171 2150 1306
167 2204 1452
158 2224 1581
152 2220 1699
149 2213 1826
149 2210 1945
150 2213 2061
160 2264 2221
180 2307 2367
200 2343 2501
298 2146 389
274 2157 502
248 2166 635
222 2143 776
182 2153 915
172 2196 1059
176 2240 1193
185 2295 1339
181 2353 1489
173 2400 1640
167 2409 1765
163 2404 1886
162 2397 2012
162 2395 2128
162 2398 2241
181 2448 2397
201 2481 2532
325 2305 427
312 2311 538
280 2320 669
247 2310 808
200 2302 952
192 2340 1096
193 2383 1227
193 2432 1367
194 2492 1519
189 2548 1673
180 2588 1838
176 2590 1945
176 2582 2072
176 2576 2191
176 2573 2303
176 2575 2413
191 2619 2558
345 2456 459
329 2460 571
302 2465 701
270 2455 842
211 2451 984
202 2473 1127
195 2517 1258
195 2561 1392
197 2619 1541
199 2675 1691
190 2730 1877
188 2755 2009
188 2756 2116
187 2748 2237
176 2742 2353
176 2741 2464
176 2740 2570
173 61 58
132 98 190
147 139 311
160 178 439
171 220 570
190 260 695
205 298 824
221 337 955
235 381 1089
245 423 1220
260 471 1359
278 516 1493
301 561 1626
325 605 1761
350 649 1895
376 694 2029
399 737 2162
129 188 95
149 233 224
165 281 353
174 323 486
188 366 615
203 406 743
218 450 875
233 493 1009
246 537 1143
260 583 1282
278 629 1419
300 675 1555
326 718 1691
352 761 1825
378 804 1959
405 852 2095
430 899 2233
147 336 128
170 382 254
157 389 366
166 427 493
183 469 619
197 509 746
212 554 880
226 598 1014
240 644 1151
257 692 1290
278 737 1429
299 780 1566
324 824 1703
350 866 1839
376 911 1973
406 958 2109
429 1006 2248
170 483 150
181 531 282
164 539 391
162 544 506
175 581 631
188 622 757
202 666 890
216 708 1025
230 753 1161
248 800 1298
269 843 1436
292 887 1576
319 930 1714
344 974 1850
373 1018 1984
403 1064 2122
426 1111 2262
187 631 171
200 684 301
177 692 406
169 700 535
171 703 645
180 737 771
191 782 904
203 826 1042
215 870 1180
236 918 1319
261 963 1460
285 1007 1600
313 1050 1738
339 1094 1874
370 1138 2010
399 1185 2149
420 1232 2289
199 777 189
211 836 321
193 837 426
176 855 551
176 862 681
178 865 790
186 903 921
192 945 1059
199 988 1196
220 1037 1340
245 1083 1482
272 1128 1622
299 1173 1762
327 1220 1902
361 1265 2042
392 1312 2182
414 1358 2322
211 924 206
222 988 340
209 983 449
190 1003 573
179 1028 707
182 1029 831
184 1034 945
189 1069 1078
193 1109 1214
205 1158 1361
225 1206 1504
251 1251 1646
277 1298 1788
311 1345 1930
348 1390 2070
380 1438 2213
402 1485 2354
230 1076 216
238 1138 356
220 1129 473
199 1150 598
184 1178 729
186 1199 863
188 1196 984
186 1201 1097
191 1238 1237
203 1283 1383
215 1329 1525
230 1374 1669
254 1420 1811
290 1468 1955
329 1516 2097
361 1566 2243
385 1616 2389
246 1226 229
260 1288 365
236 1284 501
216 1296 625
196 1325 755
199 1359 895
202 1373 1023
196 1369 1143
194 1375 1260
204 1415 1408
215 1457 1551
228 1501 1694
242 1546 1837
263 1595 1983
298 1643 2126
332 1696 2274
357 1748 2420
264 1376 245
285 1439 374
261 1448 518
234 1442 652
208 1473 786
211 1511 923
214 1551 1066
210 1556 1191
206 1550 1311
206 1554 1433
216 1593 1579
229 1634 1722
242 1678 1865
254 1725 2010
268 1774 2153
281 1828 2303
312 1881 2450
293 1531 271
315 1591 399
290 1605 532
257 1592 675
224 1620 820
223 1657 954
223 1705 1101
220 1737 1234
217 1736 1360
216 1730 1482
218 1735 1604
229 1778 1754
242 1821 1899
254 1866 2043
265 1913 2187
258 1964 2334
273 2013 2482
326 1682 296
344 1746 427
323 1758 550
291 1757 696
244 1769 849
234 1807 988
238 1856 1133
242 1907 1277
239 1929 1411
230 1924 1538
229 1920 1661
231 1924 1781
242 1968 1934
253 2011 2080
264 2054 2223
264 2103 2367
280 2151 2512
349 1838 324
356 1907 457
339 1918 579
317 1926 723
260 1931 877
240 1958 1026
246 2004 1166
254 2063 1315
253 2113 1463
244 2121 1593
244 2114 1720
243 2108 1842
240 2111 1960
247 2161 2116
259 2203 2262
278 2244 2402
294 2287 2541
376 1998 355
379 2071 490
360 2080 613
340 2088 755
283 2092 908
244 2112 1063
247 2153 1200
264 2211 1349
268 2270 1500
262 2308 1658
261 2308 1776
256 2301 1906
248 2295 2023
248 2298 2140
261 2345 2295
283 2386 2436
306 2421 2569
405 2161 390
424 2233 527
405 2241 648
362 2245 787
308 2246 940
264 2264 1096
265 2299 1236
278 2350 1379
281 2410 1530
282 2466 1697
279 2491 1840
275 2490 1962
275 2481 2087
275 2477 2201
275 2478 2313
293 2525 2462
312 2559 2597
428 2323 426
469 2393 565
443 2400 684
390 2399 822
334 2392 972
289 2415 1131
288 2440 1271
291 2486 1409
293 2544 1559
297 2603 1718
290 2654 1898
289 2668 2016
289 2664 2141
288 2656 2259
288 2653 2370
288 2653 2478
293 2696 2622
479 2475 462
503 2561 596
467 2571 710
421 2569 844
358 2558 994
304 2575 1149
289 2596 1301
294 2641 1444
297 2689 1591
303 2740 1742
302 2793 1922
303 2829 2080
304 2833 2187
291 2828 2304
266 2821 2420
266 2817 2529
266 2813 2632
357 90 59
307 117 215
263 147 317
268 185 439
273 224 569
279 264 700
285 302 833
300 342 966
315 387 1101
325 429 1231
340 477 1369
356 521 1505
380 566 1635
405 609 1768
433 654 1903
459 699 2037
481 741 2168
301 233 94
333 256 220
282 288 354
282 328 480
288 369 616
286 412 752
296 457 889
311 501 1022
326 545 1156
341 591 1293
359 637 1430
380 681 1566
408 723 1701
435 768 1835
462 812 1968
491 859 2102
515 905 2241
248 340 128
276 387 254
283 426 389
286 471 526
280 519 665
287 562 800
303 607 934
321 652 1070
336 698 1206
358 747 1349
378 790 1486
402 833 1622
430 876 1757
459 918 1892
486 962 2025
512 1008 2161
534 1053 2300
266 484 152
279 535 284
288 576 414
264 591 544
266 633 678
280 673 807
298 717 941
314 760 1078
330 806 1214
351 855 1356
373 899 1496
398 943 1634
426 985 1770
456 1027 1906
485 1072 2041
511 1119 2180
532 1166 2320
281 632 172
293 687 300
289 735 436
262 751 568
257 758 692
269 791 820
285 834 955
300 877 1093
317 923 1230
341 971 1374
365 1015 1514
392 1058 1652
421 1099 1788
451 1142 1923
480 1187 2060
505 1233 2200
527 1279 2339
290 781 189
300 836 317
301 891 457
272 905 578
263 917 720
264 920 837
275 956 971
286 998 1110
301 1044 1251
326 1093 1396
352 1138 1537
379 1183 1677
408 1226 1816
440 1271 1956
472 1316 2094
499 1363 2236
520 1408 2375
304 930 208
321 992 334
322 1049 475
286 1059 601
268 1075 737
270 1086 876
273 1089 995
279 1125 1130
288 1166 1269
305 1217 1418
330 1263 1561
359 1308 1704
390 1353 1846
425 1399 1987
460 1446 2128
487 1494 2271
508 1543 2413
328 1082 224
349 1145 350
342 1201 491
302 1208 622
277 1226 759
280 1255 903
280 1259 1035
279 1262 1151
287 1300 1293
300 1344 1441
312 1389 1585
334 1432 1728
366 1479 1871
402 1527 2015
441 1575 2157
467 1626 2305
490 1676 2449
351 1235 236
371 1299 364
369 1351 501
332 1361 642
291 1378 789
294 1405 925
299 1437 1070
293 1435 1198
292 1439 1319
302 1480 1468
315 1521 1611
330 1564 1754
347 1609 1897
375 1658 2044
409 1708 2189
436 1759 2337
464 1811 2480
367 1386 256
395 1454 386
402 1505 519
369 1519 661
311 1541 821
308 1560 957
311 1606 1105
306 1627 1248
303 1621 1373
305 1624 1495
317 1662 1642
331 1702 1784
344 1746 1928
357 1793 2074
369 1842 2220
381 1892 2367
410 1943 2511
395 1540 286
426 1606 415
441 1662 545
404 1675 679
351 1695 838
320 1716 992
322 1757 1136
320 1805 1286
318 1814 1424
317 1806 1548
320 1810 1670
331 1852 1821
344 1894 1966
357 1937 2110
358 1982 2252
350 2030 2397
371 2076 2540
434 1691 315
465 1763 448
480 1827 576
441 1836 702
387 1850 858
333 1878 1026
335 1906 1167
341 1963 1317
342 2004 1472
332 2004 1603
332 1996 1728
333 1997 1848
342 2042 2002
353 2084 2147
363 2124 2288
363 2169 2430
381 2213 2566
471 1853 349
490 1926 479
502 1990 610
473 1998 732
417 2002 883
342 2037 1056
334 2059 1203
344 2114 1351
351 2174 1511
347 2199 1660
349 2194 1790
346 2187 1911
337 2188 2028
343 2234 2183
358 2273 2326
376 2310 2461
396 2348 2592
500 2015 381
517 2090 512
543 2157 646
510 2163 763
444 2164 915
360 2191 1083
330 2216 1241
350 2258 1382
366 2320 1536
368 2372 1713
370 2384 1845
364 2377 1975
351 2371 2092
348 2371 2206
369 2415 2355
390 2451 2491
409 2483 2618
518 2180 413
549 2255 545
584 2319 680
546 2325 798
473 2323 946
396 2337 1110
354 2367 1275
365 2396 1413
380 2455 1563
387 2516 1735
389 2560 1901
387 2563 2027
387 2555 2151
386 2548 2263
386 2548 2373
405 2590 2518
419 2619 2645
544 2343 443
594 2418 581
622 2480 715
582 2488 832
506 2479 978
428 2481 1140
378 2511 1309
385 2538 1449
392 2587 1589
399 2646 1752
400 2705 1941
402 2732 2076
401 2732 2199
382 2722 2316
376 2717 2426
381 2714 2531
384 2750 2671
599 2499 474
656 2589 607
650 2677 715
596 2687 835
538 2678 975
456 2677 1132
373 2696 1304
383 2711 1471
393 2751 1622
402 2797 1782
409 2845 1951
405 2886 2127
407 2894 2243
387 2891 2362
360 2883 2476
353 2875 2583
354 2868 2683
538 121 68
518 129 211
433 179 337
422 197 443
414 230 570
404 267 700
401 308 837
395 349 977
396 394 1117
407 435 1246
422 483 1383
436 527 1519
462 574 1649
490 618 1780
517 662 1914
543 707 2049
565 749 2180
508 273 80
532 283 219
488 308 370
438 337 483
424 374 613
411 416 751
399 463 896
393 507 1037
405 551 1170
423 598 1307
442 644 1444
464 690 1580
493 733 1715
520 777 1847
547 821 1980
577 867 2114
