lib/luts/Andromeda.cube
LUT_3D_SIZE 16
0.130873 0.201146 0.245426
0.147476 0.204596 0.251901
0.193697 0.199010 0.260473
0.254200 0.208036 0.251997
0.334507 0.208805 0.261416
0.416852 0.203910 0.252541
0.510558 0.206063 0.249385
0.595126 0.208970 0.265786
0.673016 0.225044 0.276282
0.749228 0.233506 0.275743
0.815044 0.256958 0.285780
0.873266 0.285662 0.317239
0.916051 0.320517 0.345531
0.966663 0.361579 0.379251
0.996039 0.420388 0.436364
0.996696 0.483830 0.486223
0.151891 0.209098 0.248735
0.159006 0.211310 0.253433
0.214553 0.211360 0.248807
0.278969 0.213568 0.257235
0.352507 0.224594 0.246388
0.440687 0.227122 0.260110
0.516788 0.230865 0.256695
0.606608 0.230868 0.265196
0.679748 0.238949 0.268173
0.756887 0.253081 0.283756
0.820797 0.276040 0.301149
0.874481 0.301851 0.326291
0.925351 0.341989 0.356370
0.971306 0.376939 0.389043
0.999191 0.429984 0.437008
0.997709 0.486471 0.496067
0.185116 0.236871 0.247791
0.176903 0.230453 0.263847
0.196273 0.238703 0.245009
0.295739 0.255048 0.261881
0.377652 0.255734 0.247906
0.455092 0.259526 0.259525
0.545349 0.263191 0.265780
0.622141 0.270965 0.268582
0.694415 0.273676 0.279604
0.763492 0.293598 0.298135
0.827160 0.307884 0.312850
0.879312 0.333285 0.333367
0.926487 0.364439 0.368560
0.965610 0.398426 0.400817
0.995747 0.445139 0.446744
0.999373 0.499496 0.499052
0.242032 0.267388 0.265271
0.232074 0.263952 0.264182
0.215928 0.268145 0.267498
0.264407 0.297110 0.267286
0.398482 0.312289 0.250272
0.496924 0.311841 0.269096
0.566531 0.308252 0.258332
0.646456 0.308777 0.261660
0.716666 0.321745 0.292021
0.780525 0.332254 0.303943
0.836314 0.348080 0.321483
0.885838 0.363139 0.341010
0.934884 0.385819 0.366602
0.974133 0.420150 0.403273
0.996963 0.459960 0.440275
0.995097 0.511599 0.492424
0.316784 0.313699 0.277872
0.307454 0.316773 0.274933
0.294159 0.315322 0.279282
0.272065 0.329147 0.280740
0.352279 0.364316 0.276050
0.493887 0.384889 0.270926
0.592415 0.367321 0.254469
0.667953 0.363652 0.267289
0.731800 0.365483 0.285334
0.793891 0.375927 0.301421
0.846499 0.382669 0.314955
0.898373 0.394721 0.337839
0.942698 0.423029 0.378516
0.976760 0.452192 0.408177
0.998269 0.492925 0.457985
0.999270 0.531471 0.494716
0.398491 0.368458 0.290266
0.391928 0.378861 0.288300
0.387152 0.380227 0.305764
0.371350 0.384319 0.301645
0.350441 0.402398 0.314051
0.430168 0.444988 0.296728
0.581082 0.473934 0.273420
0.690451 0.443287 0.261750
0.760018 0.425887 0.265057
0.814601 0.426148 0.286916
0.863375 0.433587 0.320720
0.906525 0.444894 0.342407
0.945356 0.460587 0.375359
0.985183 0.483354 0.406700
0.999266 0.513545 0.441871
0.991626 0.559507 0.505216
0.481128 0.441728 0.315507
0.485213 0.441310 0.314985
0.474092 0.449178 0.315507
0.461422 0.450418 0.322618
0.439509 0.459837 0.331413
0.420359 0.476006 0.340639
0.521486 0.532011 0.327927
0.669147 0.548567 0.294036
0.760528 0.519846 0.277379
0.829116 0.490051 0.280096
0.877419 0.486786 0.310636
0.914755 0.495558 0.341609
0.955231 0.498740 0.367196
0.985044 0.520240 0.407946
0.998602 0.547957 0.458218
0.999540 0.585473 0.509125
0.567762 0.504642 0.338647
0.563718 0.509493 0.346999
0.555413 0.518561 0.344323
0.542519 0.520343 0.346506
0.534846 0.528731 0.354037
0.511575 0.543253 0.375306
0.506384 0.557050 0.381887
0.605679 0.611675 0.364068
0.736343 0.628200 0.324327
0.820321 0.599822 0.307258
0.890594 0.551643 0.307843
0.924820 0.546723 0.331598
0.961048 0.555519 0.373194
0.995272 0.565515 0.417833
0.998663 0.589731 0.460313
0.998531 0.628892 0.528003
0.648481 0.578394 0.376042
0.639620 0.573641 0.380830
0.632543 0.577838 0.387141
0.625630 0.592905 0.386461
0.617363 0.590925 0.402381
0.592941 0.602650 0.399713
0.578421 0.610058 0.409515
0.569319 0.628004 0.417196
0.679607 0.684637 0.403625
0.795847 0.694848 0.372454
0.871275 0.672972 0.364932
0.930084 0.623413 0.351572
0.970255 0.603696 0.375052
0.996256 0.611871 0.427163
0.999610 0.632852 0.472521
0.998616 0.667124 0.550375
0.712715 0.638184 0.418183
0.709935 0.644874 0.427507
0.704663 0.645734 0.424531
0.699908 0.648995 0.431568
0.692036 0.655159 0.438226
0.681420 0.662407 0.434754
0.656138 0.674612 0.446659
0.640061 0.683274 0.467374
0.642176 0.706443 0.481706
0.741080 0.748287 0.463476
0.849885 0.761680 0.440357
0.910291 0.726934 0.415459
0.960251 0.689976 0.412781
0.992899 0.663679 0.426503
0.997114 0.675794 0.486209
0.999772 0.693015 0.537954
0.777258 0.711788 0.470952
0.777780 0.706444 0.475979
0.766136 0.707904 0.467198
0.766124 0.711926 0.490774
0.757572 0.716835 0.489822
0.752555 0.721858 0.499798
0.737494 0.731351 0.501996
0.718468 0.740606 0.513619
0.696336 0.748248 0.520207
0.704157 0.769382 0.538564
0.797711 0.801488 0.530566
0.881429 0.813666 0.503768
0.942537 0.793047 0.507570
0.990525 0.759592 0.515388
0.998246 0.735577 0.521634
0.999855 0.743737 0.574688
0.833784 0.763405 0.536484
0.831347 0.765113 0.543164
0.831445 0.765415 0.534348
0.825030 0.769033 0.546176
0.819801 0.771709 0.549111
0.810784 0.778503 0.558678
0.801294 0.788172 0.568283
0.781013 0.794288 0.582406
0.772797 0.798181 0.596125
0.757010 0.806836 0.604486
0.762610 0.829331 0.626270
0.845160 0.853718 0.615843
0.918525 0.857204 0.601457
0.963259 0.845757 0.599889
0.995523 0.824755 0.611627
0.996936 0.809326 0.621166
0.879779 0.822443 0.614855
0.876175 0.815174 0.610152
0.878541 0.818340 0.619509
0.877571 0.820335 0.616051
0.866221 0.824382 0.623685
0.859376 0.828754 0.632248
0.856973 0.835508 0.641731
0.845221 0.838110 0.653750
0.838290 0.842788 0.664151
0.815970 0.850366 0.669247
0.801231 0.854952 0.683093
0.820001 0.870292 0.701988
0.883690 0.888436 0.698223
0.935955 0.894248 0.687401
0.979356 0.888222 0.691415
0.999665 0.880077 0.703055
0.912444 0.861340 0.690634
0.914052 0.864998 0.692940
0.921935 0.861548 0.695734
0.914269 0.862812 0.702924
0.905661 0.868229 0.700010
0.903355 0.872245 0.701710
0.900171 0.875811 0.715453
0.890118 0.880261 0.730481
0.884017 0.884794 0.735873
0.874903 0.888618 0.743571
0.866193 0.888216 0.753151
0.859023 0.898473 0.770365
0.872941 0.912230 0.780526
0.914349 0.923839 0.773845
0.956071 0.931641 0.774744
0.993683 0.931790 0.775327
0.940843 0.905363 0.772195
0.947996 0.901103 0.772182
0.942710 0.904660 0.774425
0.939317 0.906956 0.778019
0.942566 0.904396 0.775089
0.932961 0.908605 0.784408
0.931413 0.910499 0.787075
0.925484 0.913573 0.793349
0.921252 0.916174 0.796172
0.915868 0.918289 0.808312
0.907055 0.923440 0.816759
0.901145 0.925571 0.821918
0.896494 0.930458 0.839787
0.915047 0.938139 0.840480
0.949369 0.945213 0.841531
0.979735 0.954389 0.836353
0.969095 0.933730 0.842162
0.965563 0.936731 0.837658
0.961941 0.939095 0.837130
0.959782 0.939382 0.841527
0.961405 0.939335 0.843116
0.956116 0.939718 0.850197
0.956135 0.939830 0.850305
0.954166 0.940845 0.854679
0.950007 0.943402 0.859060
0.946695 0.949376 0.867725
0.948330 0.945674 0.866721
0.940163 0.951157 0.874281
0.930088 0.954195 0.883528
0.936544 0.964696 0.888118
0.953584 0.965782 0.885061
0.972072 0.969340 0.888826
0.143192 0.203344 0.260529
0.151469 0.203299 0.254076
0.199638 0.194975 0.259186
0.246383 0.207353 0.255016
0.328423 0.208788 0.263258
0.418671 0.212709 0.268131
0.503763 0.219853 0.267935
0.594853 0.220990 0.278879
0.676237 0.232826 0.282335
0.744610 0.249195 0.298720
0.817230 0.270917 0.311714
0.868136 0.293636 0.326528
0.920457 0.329208 0.357856
0.962706 0.371655 0.389747
0.996997 0.431933 0.443709
0.995117 0.487166 0.497798
0.142032 0.207823 0.252156
0.164017 0.214858 0.261466
0.206802 0.216709 0.258581
0.266310 0.223416 0.261272
0.348992 0.227267 0.268157
0.426998 0.228852 0.267734
0.515838 0.234571 0.269713
0.604652 0.241005 0.282104
0.684482 0.253312 0.287928
0.752321 0.267129 0.295780
0.816761 0.288616 0.315775
0.871865 0.317979 0.336075
0.920989 0.349351 0.366993
0.967589 0.390194 0.405630
0.995871 0.443643 0.450068
0.996135 0.498369 0.503442
0.178177 0.230135 0.259162
0.192411 0.237144 0.260903
0.206958 0.248181 0.265022
0.290838 0.252237 0.261682
0.373132 0.251218 0.267021
0.453285 0.255025 0.270662
0.534539 0.266235 0.278283
0.613392 0.273284 0.286034
0.690479 0.285910 0.299923
0.760817 0.301716 0.310115
0.822508 0.323114 0.334812
0.871917 0.340024 0.345241
0.917690 0.364047 0.371014
0.955516 0.399970 0.403077
0.990771 0.442598 0.444339
0.999290 0.496192 0.492389
0.235134 0.265218 0.266313
0.245001 0.270673 0.276875
0.230571 0.275941 0.279139
0.268239 0.297538 0.268609
0.397819 0.314133 0.267802
0.485705 0.306288 0.264682
0.561436 0.307359 0.271674
0.638536 0.317498 0.287004
0.704530 0.329153 0.306077
0.773397 0.334333 0.309473
0.835416 0.355245 0.343175
0.882400 0.374860 0.360872
0.925002 0.399055 0.384909
0.967248 0.431487 0.416515
0.994391 0.470656 0.455906
0.999426 0.516902 0.503677
0.320898 0.316607 0.283299
0.316482 0.321626 0.284875
0.308285 0.321273 0.289489
0.292863 0.330810 0.293273
0.354372 0.369800 0.284317
0.490419 0.383882 0.271915
0.590837 0.372704 0.269668
0.664564 0.368738 0.277382
0.728515 0.376718 0.293849
0.792783 0.382713 0.314899
0.846267 0.391580 0.332992
0.894461 0.409296 0.361436
0.939811 0.430918 0.387735
0.978458 0.457282 0.418574
0.997354 0.497932 0.466784
0.996783 0.545718 0.511299
0.404182 0.374350 0.300681
0.405318 0.380116 0.304405
0.398385 0.385921 0.315041
0.376363 0.394817 0.306090
0.359031 0.407111 0.313170
0.434491 0.452199 0.298963
0.586525 0.473518 0.286366
0.690408 0.442217 0.278287
0.755083 0.431674 0.284335
0.813732 0.428021 0.312304
0.860114 0.433873 0.320517
0.900685 0.444111 0.353824
0.936620 0.456738 0.381964
0.974097 0.474958 0.404518
0.995169 0.514880 0.452589
0.998458 0.556965 0.508705
0.492598 0.446153 0.327753
0.489378 0.449290 0.326286
0.481945 0.453201 0.326880
0.471685 0.458336 0.332683
0.445008 0.464874 0.340350
0.427374 0.480974 0.350152
0.531779 0.531481 0.335220
0.667012 0.552150 0.309081
0.760383 0.519603 0.289519
0.828697 0.493643 0.299625
0.867288 0.492799 0.321078
0.910514 0.495123 0.346413
0.946972 0.501341 0.380062
0.982944 0.520481 0.421828
0.997776 0.547638 0.462454
0.998277 0.585244 0.511367
0.576680 0.510038 0.353704
0.571546 0.516786 0.351024
0.560371 0.517548 0.355309
0.547822 0.523896 0.360616
0.539535 0.531756 0.368078
0.518676 0.535962 0.374985
0.504510 0.559974 0.385214
0.609945 0.609374 0.372259
0.737537 0.629561 0.338102
0.824990 0.593925 0.320590
0.885117 0.554695 0.319279
0.928829 0.549392 0.346712
0.959032 0.558836 0.384883
0.993425 0.571855 0.433508
0.999487 0.599348 0.481793
0.997702 0.630700 0.529432
0.641766 0.578010 0.381919
0.644275 0.578873 0.395769
0.636128 0.581088 0.385646
0.630709 0.588526 0.402682
0.621992 0.594099 0.405355
0.606993 0.609636 0.409288
0.580547 0.609392 0.423467
0.578366 0.630924 0.426233
0.683390 0.684467 0.411458
0.794945 0.694382 0.381752
0.867326 0.668067 0.360233
0.923866 0.621610 0.359305
0.961969 0.599735 0.380670
0.989202 0.605074 0.421020
0.998879 0.626214 0.475380
0.999212 0.662742 0.543005
0.711139 0.643510 0.424694
0.714352 0.644450 0.428476
0.712512 0.646276 0.436194
0.704636 0.648686 0.435744
0.696249 0.658239 0.442299
0.683090 0.666260 0.453316
0.663039 0.676248 0.463246
0.643910 0.680557 0.468678
0.641058 0.703523 0.484556
0.738701 0.746455 0.463064
0.841762 0.750814 0.434431
0.901082 0.723298 0.419600
0.955499 0.684179 0.414825
0.991054 0.656785 0.432364
0.999244 0.666840 0.480993
0.999054 0.693212 0.539561
0.778916 0.701617 0.475089
0.778504 0.706214 0.481234
0.780877 0.709295 0.486345
0.768251 0.711115 0.482024
0.763290 0.718589 0.491856
0.754413 0.723820 0.499036
0.738452 0.734019 0.513439
0.729734 0.737850 0.525340
0.699954 0.748947 0.535149
0.705446 0.771378 0.549899
0.789552 0.805489 0.540209
0.885173 0.813896 0.518897
0.942233 0.792711 0.506979
0.985226 0.761456 0.515996
0.999467 0.737285 0.531414
0.999990 0.753494 0.588173
0.835785 0.762511 0.544846
0.830654 0.767982 0.546335
0.831254 0.764855 0.545609
0.823512 0.771024 0.547867
0.819510 0.775321 0.559543
0.814633 0.781370 0.569744
0.801866 0.788256 0.574711
0.790818 0.793767 0.585121
0.774417 0.799639 0.596752
0.758349 0.806175 0.614902
0.765091 0.824133 0.623652
0.841922 0.848759 0.611206
0.911798 0.852992 0.588247
0.959327 0.841426 0.594277
0.994717 0.820207 0.604759
0.997448 0.810217 0.622816
0.877993 0.814772 0.618318
0.878524 0.816626 0.618967
0.878482 0.821045 0.620355
0.872724 0.822007 0.620644
0.868077 0.825348 0.629956
0.864685 0.829631 0.635382
0.854988 0.831843 0.642985
0.846744 0.835795 0.655431
0.831790 0.841904 0.660788
0.817001 0.845669 0.668567
0.804859 0.847658 0.684486
0.816175 0.865341 0.695414
0.873881 0.884282 0.684482
0.933694 0.892066 0.676858
0.976576 0.884612 0.681641
0.998682 0.873686 0.695962
0.915055 0.863463 0.694146
0.913088 0.865285 0.696729
0.914494 0.864642 0.701510
0.911812 0.867144 0.699709
0.906826 0.866250 0.710218
0.906845 0.872195 0.711219
0.898500 0.875383 0.714895
0.891051 0.878999 0.724799
0.883062 0.883404 0.734097
0.874144 0.888457 0.746419
0.864913 0.891810 0.757660
0.860116 0.896071 0.774547
0.870968 0.908632 0.787226
0.913204 0.923153 0.777023
0.957799 0.929434 0.772282
0.991831 0.927798 0.780715
0.944440 0.902950 0.772616
0.946705 0.900940 0.771371
0.944971 0.902838 0.774811
0.942283 0.904599 0.773429
0.938415 0.905034 0.780231
0.938949 0.911203 0.785420
0.933396 0.911827 0.789325
0.928703 0.913805 0.798088
0.922332 0.918034 0.801310
0.914609 0.917861 0.807965
0.906018 0.925238 0.815057
0.905688 0.925090 0.824527
0.899396 0.929251 0.832722
0.912307 0.939877 0.838917
0.945411 0.947840 0.835284
0.974130 0.955058 0.838241
0.966513 0.929021 0.834373
0.967795 0.936115 0.840723
0.968416 0.933286 0.844398
0.965901 0.937279 0.845297
0.961567 0.940794 0.843741
0.962352 0.940343 0.846029
0.956177 0.940709 0.848070
0.952945 0.943719 0.852306
0.951165 0.942139 0.858245
0.945057 0.945491 0.863467
0.943360 0.948518 0.866651
0.936659 0.947528 0.871087
0.930246 0.951576 0.875725
0.933460 0.958021 0.888258
0.948305 0.963705 0.883414
0.971544 0.968354 0.882882
0.135636 0.201979 0.269095
0.144815 0.204816 0.265033
0.189598 0.197652 0.267926
0.255780 0.205228 0.281651
0.336195 0.206471 0.277727
0.408475 0.215833 0.287838
0.502262 0.228840 0.287578
0.591247 0.234154 0.297031
0.669000 0.253783 0.301289
0.744270 0.264713 0.317418
0.812164 0.284443 0.330943
0.869705 0.315610 0.354096
0.915169 0.350152 0.379420
0.964141 0.396714 0.420244
0.994413 0.445418 0.464942
0.997241 0.507954 0.516788
0.132167 0.223631 0.265161
0.161556 0.221422 0.270202
0.202672 0.216253 0.273830
0.267132 0.221220 0.277648
0.337383 0.231175 0.276576
0.417446 0.233087 0.286400
0.509027 0.243868 0.295427
0.595209 0.255399 0.298824
0.678566 0.269129 0.312153
0.747007 0.283941 0.321711
0.815127 0.305505 0.337449
0.871935 0.330171 0.360342
0.918686 0.362342 0.387790
0.964977 0.404602 0.423870
0.995380 0.451494 0.464128
0.999399 0.512504 0.516409
0.179945 0.230744 0.281671
0.178658 0.241350 0.269071
0.212123 0.249752 0.276166
0.285814 0.248857 0.287132
0.359206 0.257659 0.282897
0.445728 0.272367 0.289952
0.528964 0.272372 0.293257
0.607877 0.284597 0.303746
0.682613 0.296118 0.317421
0.750223 0.312732 0.329764
0.811738 0.325494 0.344898
0.860258 0.343980 0.358885
0.905094 0.370529 0.381407
0.944638 0.402074 0.410140
0.983966 0.441129 0.448084
0.998628 0.495404 0.493336
0.213401 0.263270 0.277673
0.239198 0.275283 0.279367
0.250685 0.280559 0.284419
0.286156 0.303210 0.284984
0.394689 0.305614 0.288928
0.474118 0.307896 0.286138
0.554225 0.317325 0.295496
0.629480 0.326626 0.311773
0.699671 0.337210 0.318256
0.765430 0.349176 0.339395
0.825124 0.370516 0.361386
0.878253 0.384735 0.375733
0.921030 0.411177 0.406235
0.965626 0.442007 0.432973
0.993838 0.479849 0.467718
0.992830 0.530589 0.516826
0.301774 0.324646 0.291250
0.319725 0.328041 0.299384
0.334049 0.334366 0.302132
0.309980 0.340684 0.298088
0.363691 0.371184 0.300389
0.497699 0.378308 0.294109
0.585726 0.371935 0.289802
0.658433 0.373648 0.304899
0.724104 0.380255 0.319884
0.786654 0.392073 0.340950
0.843184 0.404792 0.358406
0.893005 0.419686 0.377562
0.934800 0.445638 0.406940
0.974860 0.470816 0.439678
0.998307 0.508491 0.479200
0.998001 0.556803 0.531880
0.406091 0.384593 0.328174
0.412975 0.387099 0.317398
0.415603 0.390745 0.320658
0.395471 0.395665 0.312427
0.374980 0.410268 0.330228
0.443950 0.458412 0.324381
0.588326 0.465099 0.304534
0.689117 0.439801 0.300252
0.748939 0.436781 0.312096
0.803139 0.444103 0.335935
0.850626 0.443309 0.348353
0.891234 0.446042 0.362126
0.926275 0.464091 0.400754
0.962165 0.484376 0.429055
0.993461 0.514683 0.467222
0.999430 0.564616 0.518557
0.484252 0.448285 0.338220
0.493191 0.455388 0.340451
0.497868 0.454556 0.343252
0.482968 0.464693 0.347669
0.460788 0.470634 0.355965
0.446153 0.483460 0.364404
0.535291 0.531558 0.354356
0.672639 0.547987 0.326747
0.756183 0.518411 0.314419
0.822733 0.496760 0.322442
0.866174 0.491862 0.336890
0.908222 0.501089 0.375945
0.944886 0.510351 0.402662
0.976439 0.526707 0.432450
0.993878 0.554143 0.474269
0.999585 0.588272 0.524537
0.566004 0.517602 0.368726
0.579291 0.513534 0.374098
0.572975 0.517026 0.379479
0.567396 0.528372 0.381315
0.554504 0.534319 0.377673
0.531227 0.545061 0.398022
0.521854 0.561035 0.394916
0.618261 0.617709 0.384362
0.745252 0.624514 0.350319
0.822503 0.593229 0.339005
0.884366 0.564428 0.345478
0.927590 0.557634 0.375943
0.960849 0.564970 0.413612
0.988964 0.583879 0.454987
0.998282 0.608885 0.497445
0.997892 0.641052 0.545263
0.643963 0.580040 0.409866
0.646536 0.581516 0.401217
0.646150 0.585451 0.409468
0.640091 0.589792 0.415256
0.628163 0.596298 0.415924
0.614825 0.608757 0.422601
0.590098 0.617939 0.433076
0.584808 0.637649 0.442067
0.691906 0.684160 0.427560
0.801379 0.690494 0.399973
0.864247 0.664183 0.381151
0.923274 0.616807 0.373982
0.961488 0.601071 0.395484
0.989269 0.608611 0.437690
0.998930 0.625821 0.484520
0.997997 0.664195 0.539295
0.712590 0.638583 0.444817
0.718783 0.644613 0.442476
0.714970 0.650007 0.450037
0.707964 0.653249 0.451596
0.703817 0.659885 0.458765
0.689514 0.665220 0.462421
0.670903 0.676871 0.474624
0.648686 0.683462 0.486375
0.647708 0.705857 0.492667
0.743569 0.743566 0.476240
0.843500 0.744831 0.450732
0.896115 0.725275 0.430241
0.955172 0.681975 0.432445
0.990197 0.659624 0.447616
0.998420 0.670194 0.496356
0.999379 0.693908 0.545502
0.776591 0.706190 0.480133
0.783340 0.709864 0.490900
0.776093 0.715850 0.490403
0.772737 0.714303 0.492352
0.765389 0.721801 0.511585
0.760032 0.728151 0.509900
0.741150 0.738087 0.524899
0.729763 0.745436 0.534168
0.710963 0.749006 0.541352
0.709337 0.774726 0.563394
0.797450 0.806111 0.546524
0.884272 0.819549 0.525488
0.941725 0.790947 0.520075
0.988928 0.758195 0.532843
0.999321 0.740886 0.543184
0.995762 0.759396 0.591879
0.835605 0.763111 0.555518
0.836019 0.767329 0.556227
0.831779 0.767502 0.562141
0.832190 0.769304 0.561928
0.821136 0.774377 0.564732
0.817604 0.781038 0.574490
0.806338 0.788506 0.584267
0.793464 0.795501 0.597408
0.776277 0.801415 0.607089
0.763675 0.808616 0.617071
0.768130 0.825993 0.632488
0.844962 0.850103 0.621005
0.908369 0.854833 0.601754
0.963438 0.837957 0.598318
0.992661 0.820648 0.614565
0.999616 0.808768 0.638074
0.872410 0.811338 0.617229
0.880422 0.817293 0.625632
0.880442 0.817305 0.623397
0.876224 0.820190 0.636118
0.868498 0.824907 0.637587
0.863179 0.830168 0.647441
0.859295 0.837552 0.650242
0.846219 0.838471 0.653066
0.834666 0.843595 0.671155
0.818140 0.847739 0.673981
0.806515 0.849764 0.688077
0.819749 0.867197 0.698040
0.879290 0.882929 0.686445
0.933974 0.894438 0.684496
0.976439 0.886997 0.687991
0.999004 0.874732 0.702733
0.917332 0.865215 0.700134
0.914326 0.863535 0.704185
0.917658 0.867045 0.711893
0.915696 0.864032 0.707381
0.907934 0.870008 0.712519
0.906210 0.872327 0.717807
0.900429 0.876505 0.727506
0.889000 0.880328 0.731258
0.885109 0.884361 0.739767
0.877736 0.886776 0.752303
0.877257 0.890616 0.764717
0.859744 0.897602 0.776931
0.870656 0.911431 0.789040
0.918647 0.922418 0.780818
0.955052 0.930375 0.775549
0.989997 0.927181 0.789556
0.945855 0.901796 0.776542
0.943924 0.904334 0.776226
0.942232 0.904712 0.778026
0.942800 0.904605 0.778319
0.940123 0.909421 0.784859
0.937538 0.907026 0.786376
0.935279 0.911069 0.788337
0.928263 0.914813 0.794681
0.919390 0.918463 0.806782
0.918280 0.919158 0.812228
0.909485 0.922869 0.821324
0.906820 0.926267 0.830384
0.900331 0.929646 0.835745
0.914886 0.937994 0.846746
0.946565 0.948157 0.837645
0.978157 0.955810 0.837967
0.961909 0.937570 0.835940
0.967761 0.933250 0.843090
0.965703 0.936836 0.844814
0.968634 0.934678 0.844345
0.964349 0.938025 0.845832
0.961932 0.939907 0.845510
0.956603 0.939347 0.845947
0.956025 0.942473 0.858606
0.954374 0.945117 0.862518
0.946509 0.945822 0.863032
0.944463 0.948518 0.865712
0.933032 0.950287 0.875789
0.930768 0.952359 0.881394
0.934396 0.957855 0.885470
0.951130 0.964089 0.883674
0.970112 0.971625 0.889224
0.131713 0.214717 0.286140
0.133747 0.210495 0.280415
0.159180 0.209606 0.285815
0.236024 0.207892 0.292525
0.343397 0.208284 0.307033
0.423323 0.202996 0.306605
0.506271 0.216941 0.297948
0.581980 0.242284 0.319776
0.660682 0.265037 0.333448
0.738186 0.287048 0.340927
0.802634 0.311507 0.364191
0.863048 0.341363 0.386165
0.911197 0.376833 0.415721
0.958826 0.413674 0.442845
0.992997 0.472813 0.491751
0.999420 0.527610 0.540116
0.136924 0.229331 0.285567
0.152360 0.231861 0.282838
0.186880 0.229304 0.290572
0.253265 0.222585 0.299599
0.350472 0.221951 0.300690
0.430704 0.228954 0.307835
0.514747 0.245392 0.312141
0.591747 0.268175 0.331302
0.667512 0.289186 0.341327
0.740741 0.306601 0.354510
0.805868 0.325365 0.369681
0.864760 0.352719 0.390769
0.917717 0.385030 0.416150
0.959600 0.427276 0.452310
0.993073 0.476119 0.492422
0.993998 0.532940 0.540268
0.160210 0.245531 0.301053
0.179501 0.253208 0.286235
0.218250 0.254542 0.301507
0.275909 0.251880 0.303555
0.358885 0.256157 0.313444
0.440669 0.270617 0.311043
0.518362 0.285928 0.324240
0.600918 0.301510 0.336018
0.675277 0.317853 0.347135
0.750643 0.332657 0.356344
0.814007 0.354967 0.380214
0.866273 0.373203 0.397081
0.914664 0.401772 0.421720
0.953968 0.438721 0.448963
0.987950 0.481386 0.488948
0.998676 0.533702 0.541432
0.203966 0.271720 0.283617
0.221931 0.278752 0.289540
0.251959 0.288643 0.305528
0.303800 0.304353 0.315806
0.384030 0.305879 0.314668
0.457913 0.318630 0.315600
0.541242 0.327626 0.333473
0.621742 0.339106 0.343583
0.691711 0.355237 0.356997
0.763086 0.370796 0.376743
0.823774 0.387025 0.390505
0.875403 0.407725 0.409762
0.920902 0.435954 0.437998
0.959999 0.470131 0.468989
0.992110 0.504740 0.500810
0.997878 0.552674 0.544568
0.268606 0.323657 0.298008
0.288059 0.330114 0.315013
0.323886 0.343042 0.328193
0.346720 0.351283 0.318583
0.387085 0.370531 0.327815
0.499568 0.379333 0.326517
0.577128 0.375806 0.323644
0.651430 0.383411 0.347349
0.715769 0.396133 0.361524
0.778953 0.407098 0.374311
0.836755 0.423958 0.394564
0.889216 0.442568 0.418124
0.929868 0.464436 0.438827
0.970455 0.493074 0.471719
0.995324 0.532248 0.510974
0.998821 0.578715 0.559514
0.375595 0.389227 0.336136
0.386778 0.392933 0.348465
0.412757 0.401370 0.341533
0.425307 0.407764 0.340117
0.402206 0.413413 0.349339
0.459107 0.461931 0.348336
0.596683 0.465088 0.337277
0.681960 0.442951 0.340924
0.742445 0.441285 0.349017
0.801319 0.453619 0.369206
0.848291 0.458005 0.389146
0.897795 0.474935 0.410811
0.937571 0.492424 0.434881
0.971673 0.512917 0.472946
0.998509 0.548604 0.508112
0.999516 0.596778 0.556642
0.460530 0.460195 0.366973
0.479880 0.459592 0.365260
0.501732 0.461022 0.366097
0.507949 0.471143 0.377360
0.485895 0.481067 0.375663
0.465855 0.491718 0.379231
0.550751 0.533338 0.378630
0.681545 0.545497 0.358656
0.757885 0.519856 0.352127
0.819777 0.508267 0.364464
0.863481 0.508077 0.382835
0.907173 0.518215 0.415079
0.941973 0.528750 0.438553
0.977686 0.549404 0.472459
0.997103 0.575591 0.509014
0.999518 0.609054 0.554930
0.548976 0.519540 0.396489
0.565559 0.523754 0.391220
0.580893 0.529381 0.394146
0.578347 0.534906 0.402441
0.566554 0.543973 0.408651
0.551897 0.547150 0.417322
0.536727 0.569385 0.425536
0.626445 0.615846 0.406359
