lib/luts/Andromeda.cube
LUT_3D_SIZE 6
0.130873 0.201146 0.245426
0.254200 0.208036 0.251997
0.510558 0.206063 0.249385
0.749228 0.233506 0.275743
0.916051 0.320517 0.345531
0.996696 0.483830 0.486223
0.242032 0.267388 0.265271
0.264407 0.297110 0.267286
0.566531 0.308252 0.258332
0.780525 0.332254 0.303943
0.934884 0.385819 0.366602
0.995097 0.511599 0.492424
0.481128 0.441728 0.315507
0.461422 0.450418 0.322618
0.521486 0.532011 0.327927
0.829116 0.490051 0.280096
0.955231 0.498740 0.367196
0.999540 0.585473 0.509125
0.712715 0.638184 0.418183
0.699908 0.648995 0.431568
0.656138 0.674612 0.446659
0.741080 0.748287 0.463476
0.960251 0.689976 0.412781
0.999772 0.693015 0.537954
0.879779 0.822443 0.614855
0.877571 0.820335 0.616051
0.856973 0.835508 0.641731
0.815970 0.850366 0.669247
0.883690 0.888436 0.698223
0.999665 0.880077 0.703055
0.969095 0.933730 0.842162
0.959782 0.939382 0.841527
0.956135 0.939830 0.850305
0.946695 0.949376 0.867725
0.930088 0.954195 0.883528
0.972072 0.969340 0.888826
0.131713 0.214717 0.286140
0.236024 0.207892 0.292525
0.506271 0.216941 0.297948
0.738186 0.287048 0.340927
0.911197 0.376833 0.415721
0.999420 0.527610 0.540116
0.203966 0.271720 0.283617
0.303800 0.304353 0.315806
0.541242 0.327626 0.333473
0.763086 0.370796 0.376743
0.920902 0.435954 0.437998
0.997878 0.552674 0.544568
0.460530 0.460195 0.366973
0.507949 0.471143 0.377360
0.550751 0.533338 0.378630
0.819777 0.508267 0.364464
0.941973 0.528750 0.438553
0.999518 0.609054 0.554930
0.704618 0.644994 0.456569
0.719769 0.658353 0.468525
0.685229 0.683064 0.493121
0.751042 0.746487 0.500581
0.958951 0.685329 0.452571
0.998691 0.713155 0.584605
0.875486 0.820167 0.638436
0.881292 0.822512 0.647873
0.858571 0.836463 0.664565
0.828091 0.851302 0.687132
0.882691 0.886037 0.703436
0.999420 0.879262 0.711071
0.965970 0.933002 0.840392
0.965623 0.938262 0.845748
0.962868 0.939230 0.855345
0.947183 0.946761 0.866196
0.932612 0.954772 0.887048
0.972076 0.969360 0.889324
0.051064 0.291366 0.390109
0.106573 0.260802 0.417199
0.501513 0.218185 0.444487
0.757631 0.222639 0.432696
0.910271 0.392721 0.489408
0.999449 0.607555 0.642964
0.087237 0.358392 0.411644
0.252142 0.367265 0.435392
0.539549 0.332340 0.456139
0.760137 0.369682 0.462736
0.905668 0.488972 0.534026
0.998579 0.635915 0.649757
0.340436 0.443731 0.397203
0.421457 0.473714 0.426193
0.598076 0.538665 0.495932
0.786611 0.557108 0.521177
0.919340 0.597344 0.571513
0.999028 0.679638 0.663892
0.617045 0.634792 0.513683
0.670280 0.664884 0.541736
0.734163 0.699013 0.582127
0.770578 0.744595 0.587676
0.946819 0.708665 0.582470
0.999572 0.750926 0.675521
0.820594 0.808109 0.652848
0.849572 0.821686 0.680368
0.880096 0.838061 0.710445
0.847204 0.850528 0.732293
0.889161 0.883614 0.742056
0.998278 0.880691 0.756710
0.944556 0.934477 0.834073
0.953577 0.936039 0.851100
0.966674 0.938937 0.863222
0.953987 0.946020 0.869098
0.936667 0.954073 0.886387
0.972567 0.966784 0.889944
0.078794 0.405277 0.579376
0.079792 0.387859 0.599399
0.364319 0.339732 0.621671
0.729816 0.271635 0.629504
0.927405 0.294679 0.594723
0.994151 0.561931 0.672684
0.085645 0.460136 0.589413
0.089054 0.461942 0.603204
0.426286 0.427307 0.635760
0.738056 0.382774 0.635271
0.919660 0.416043 0.614658
0.998601 0.610775 0.696326
0.194322 0.567757 0.574271
0.341955 0.582413 0.595460
0.563894 0.600403 0.647739
0.771717 0.570432 0.659516
0.911536 0.614541 0.671975
0.995132 0.721715 0.750008
0.465821 0.592444 0.515229
0.516430 0.613099 0.541885
0.635153 0.665210 0.610686
0.795491 0.743854 0.703009
0.913573 0.754953 0.721727
0.993104 0.800634 0.775467
0.644418 0.743555 0.599602
0.700131 0.767865 0.642945
0.809690 0.814669 0.723364
0.879808 0.857833 0.780149
0.898598 0.885545 0.795493
1.000020 0.876903 0.806897
0.898673 0.926431 0.834577
0.912747 0.929457 0.844719
0.939729 0.936549 0.859921
0.963026 0.945511 0.887467
0.948072 0.954070 0.899939
0.968612 0.970580 0.910504
0.121792 0.530225 0.792903
0.121081 0.519546 0.795772
0.132114 0.475584 0.809645
0.605092 0.457121 0.822477
0.889034 0.393492 0.809470
0.997269 0.508352 0.778075
0.124419 0.569340 0.785320
0.125351 0.565795 0.793512
0.313710 0.554908 0.809633
0.629005 0.520345 0.818146
0.887486 0.469423 0.806811
0.995508 0.561571 0.776604
0.131572 0.655012 0.771956
0.134123 0.657402 0.785868
0.502784 0.679971 0.809695
0.691196 0.654137 0.818647
0.889408 0.619577 0.814890
0.998525 0.675006 0.798183
0.170039 0.748711 0.741691
0.342230 0.757057 0.757305
0.564280 0.768728 0.779628
0.770257 0.788246 0.825116
0.896962 0.762597 0.830397
0.988433 0.810028 0.849311
0.485865 0.731390 0.628929
0.525900 0.742066 0.641060
0.629921 0.761781 0.680376
0.768175 0.805565 0.758514
0.915425 0.887865 0.863810
0.982189 0.903861 0.886551
0.721964 0.896099 0.739332
0.753579 0.904831 0.764808
0.821029 0.914332 0.804814
0.908210 0.934584 0.873675
0.961499 0.956479 0.920942
0.965047 0.969219 0.933952
0.157805 0.633352 0.933679
0.158329 0.638137 0.933713
0.326786 0.664882 0.930532
0.626337 0.677599 0.938676
0.792232 0.648344 0.941992
0.981269 0.658968 0.943356
0.159524 0.659177 0.926903
0.159616 0.660679 0.926636
0.400828 0.689202 0.929687
0.655482 0.717708 0.936149
0.803135 0.682268 0.942567
0.979762 0.690873 0.947912
0.165964 0.715352 0.928007
0.165723 0.714139 0.927454
0.490733 0.761011 0.926674
0.739688 0.790277 0.931455
0.829406 0.758244 0.935923
0.976868 0.761595 0.948463
0.174556 0.801759 0.917302
0.174732 0.801709 0.918167
0.329451 0.796865 0.922553
0.761631 0.849123 0.930686
0.865309 0.843936 0.938441
0.974612 0.841834 0.952841
0.462714 0.920805 0.908216
0.530373 0.916097 0.920312
0.639361 0.912203 0.924866
0.760774 0.907513 0.931923
0.900135 0.920794 0.947776
0.971369 0.909305 0.953752
0.737848 0.942565 0.882920
0.747584 0.947727 0.878419
0.774431 0.946332 0.891950
0.820802 0.946920 0.896355
0.901222 0.953643 0.923781
0.974770 0.964802 0.962174
