lib/luts/Centurus.CUBE
LUT_3D_SIZE 16
0.116717 0.116717 0.130307
0.116638 0.116638 0.125150
0.116612 0.116612 0.123206
0.130765 0.116741 0.119931
0.170203 0.122592 0.121241
0.277104 0.136450 0.125669
0.471363 0.157504 0.133577
0.611677 0.179193 0.146427
0.720760 0.202080 0.162068
0.800798 0.218658 0.175849
0.847791 0.228503 0.185459
0.868310 0.229222 0.188587
0.887484 0.232461 0.192700
0.899197 0.232627 0.195066
0.906121 0.232303 0.196272
0.908938 0.231139 0.196661
0.116887 0.117680 0.140234
0.116805 0.117039 0.135138
0.116705 0.116793 0.129067
0.130501 0.119422 0.125608
0.176037 0.127129 0.124652
0.287505 0.140615 0.128233
0.474542 0.162051 0.135406
0.608035 0.184172 0.147634
0.722729 0.207730 0.163847
0.801320 0.223867 0.176975
0.849910 0.234610 0.186766
0.870748 0.235431 0.190077
0.889534 0.239049 0.194302
0.901803 0.238846 0.196689
0.908913 0.238595 0.197920
0.912334 0.237963 0.198475
0.117221 0.127105 0.154173
0.117111 0.126039 0.149050
0.117008 0.125821 0.143135
0.125814 0.127739 0.134860
0.180110 0.133822 0.130069
0.296799 0.145658 0.131514
0.473530 0.166778 0.136950
0.605713 0.189580 0.149223
0.724155 0.213541 0.165645
0.801837 0.230520 0.178584
0.852650 0.242320 0.188588
0.874135 0.243730 0.192200
0.891993 0.246808 0.196195
0.904430 0.245768 0.198480
0.911470 0.245353 0.199553
0.914815 0.244979 0.200168
0.118097 0.144788 0.189125
0.117878 0.143808 0.179488
0.117692 0.143377 0.168095
0.120251 0.146979 0.150991
0.171629 0.148637 0.143749
0.307473 0.158987 0.139617
0.474857 0.175037 0.140842
0.606376 0.196163 0.151510
0.724572 0.220208 0.167804
0.801711 0.238451 0.180067
0.854463 0.250239 0.190359
0.878253 0.253946 0.194906
0.894600 0.255853 0.198494
0.906453 0.254463 0.200523
0.913783 0.252311 0.200665
0.917106 0.251952 0.201274
0.122456 0.190373 0.226423
0.122810 0.190702 0.218362
0.123402 0.190037 0.202992
0.124371 0.178505 0.173291
0.156023 0.172352 0.163939
0.307299 0.190737 0.157794
0.497236 0.205114 0.153533
0.622060 0.216136 0.158957
0.725019 0.232960 0.171103
0.802973 0.250239 0.182901
0.856126 0.259423 0.192544
0.882174 0.265733 0.198477
0.898386 0.266566 0.201738
0.909677 0.264950 0.203352
0.916168 0.262183 0.203087
0.919675 0.260555 0.202875
0.132136 0.281753 0.279668
0.132266 0.272760 0.263298
0.132568 0.256351 0.235921
0.133107 0.225006 0.191676
0.145653 0.210673 0.169107
0.271442 0.271474 0.228505
0.513440 0.275451 0.185284
0.654115 0.274821 0.179807
0.743438 0.280252 0.185300
0.817116 0.287645 0.195210
0.865712 0.288591 0.201464
0.889064 0.286051 0.205183
0.903420 0.284051 0.207293
0.914790 0.282234 0.208490
0.921446 0.279875 0.208335
0.925194 0.278174 0.208047
0.143846 0.360289 0.311090
0.144389 0.349324 0.291900
0.144987 0.334089 0.267294
0.146340 0.304840 0.225968
0.149694 0.290871 0.195038
0.213480 0.339902 0.245438
0.489365 0.420834 0.303634
0.664086 0.393814 0.233285
0.762095 0.375071 0.216129
0.832238 0.365782 0.218324
0.881479 0.359871 0.222834
0.905805 0.343852 0.222593
0.917685 0.333035 0.222120
0.926434 0.330006 0.222232
0.933187 0.330408 0.222796
0.938043 0.330229 0.222968
0.158442 0.402474 0.289913
0.158623 0.398429 0.283390
0.159008 0.392823 0.276041
0.159912 0.384617 0.263207
0.162743 0.374575 0.236800
0.171845 0.382677 0.228808
0.445214 0.506265 0.436700
0.639931 0.540732 0.381835
0.768486 0.507944 0.297976
0.848331 0.481338 0.266809
0.899139 0.460829 0.258943
0.923765 0.441556 0.254795
0.937713 0.426548 0.252333
0.944769 0.417477 0.250774
0.951590 0.416878 0.250957
0.958766 0.417541 0.250797
0.218666 0.484823 0.318086
0.217931 0.482331 0.316004
0.215518 0.478256 0.311566
0.212516 0.473208 0.305141
0.214002 0.471437 0.295887
0.209258 0.461329 0.276764
0.368455 0.532859 0.396455
0.613089 0.636987 0.513545
0.747569 0.623635 0.427748
0.849367 0.585893 0.340201
0.905941 0.559623 0.306498
0.939775 0.537525 0.295965
0.954313 0.525010 0.291141
0.960491 0.519550 0.288518
0.965857 0.516675 0.285875
0.972132 0.513937 0.283200
0.282725 0.552820 0.351716
0.286193 0.553713 0.354038
0.289094 0.553956 0.355464
0.289783 0.552177 0.354648
0.292799 0.550780 0.353055
0.302951 0.551643 0.353763
0.341958 0.566563 0.374727
0.634934 0.678179 0.588368
0.741767 0.719185 0.505548
0.829123 0.685215 0.426631
0.900688 0.652006 0.359413
0.941731 0.630284 0.338746
0.959513 0.614515 0.330071
0.967139 0.606026 0.324385
0.972663 0.601897 0.319737
0.977592 0.597472 0.314446
0.307114 0.580766 0.360850
0.312595 0.583619 0.365009
0.318882 0.587202 0.369322
0.325770 0.590708 0.373034
0.337223 0.597886 0.380405
0.358439 0.610354 0.393051
0.392284 0.626207 0.413331
0.630817 0.710480 0.586553
0.742439 0.792605 0.524603
0.827677 0.763830 0.466394
0.879802 0.732524 0.399732
0.931623 0.707215 0.374044
0.954174 0.692536 0.364906
0.965622 0.683590 0.359163
0.973239 0.676195 0.353399
0.978546 0.670475 0.347303
0.326451 0.601338 0.366970
0.332007 0.604385 0.371914
0.337765 0.607393 0.376252
0.343955 0.610629 0.380724
0.356373 0.619031 0.389647
0.385333 0.637784 0.409531
0.454775 0.672643 0.458688
0.646235 0.734731 0.593866
0.748276 0.828728 0.513000
0.837968 0.824595 0.456888
0.877411 0.794828 0.422050
0.914707 0.771161 0.397817
0.945624 0.753912 0.388003
0.961988 0.745304 0.383655
0.971698 0.738482 0.379679
0.978074 0.733706 0.375621
0.342094 0.618063 0.368715
0.349668 0.622674 0.376765
0.356802 0.626994 0.383858
0.364081 0.631175 0.389912
0.378301 0.640969 0.400819
0.413068 0.663034 0.427131
0.514831 0.705800 0.502536
0.679954 0.754887 0.612792
0.748598 0.847583 0.497949
0.838387 0.856237 0.452720
0.885121 0.835598 0.423560
0.910289 0.814751 0.407277
0.934684 0.796999 0.399417
0.957595 0.788320 0.397430
0.968869 0.783580 0.396299
0.978294 0.779879 0.395890
0.357264 0.633318 0.371744
0.366694 0.639936 0.381818
0.375750 0.645948 0.391226
0.385012 0.652210 0.399723
0.399061 0.662013 0.410918
0.440625 0.686437 0.442106
0.580245 0.737284 0.549902
0.704419 0.765605 0.607163
0.750449 0.858733 0.491963
0.838259 0.872172 0.448897
0.888604 0.863746 0.427934
0.915310 0.846497 0.416737
0.938829 0.829734 0.411340
0.956636 0.819508 0.408529
0.968912 0.817864 0.410017
0.978585 0.811916 0.408769
0.372417 0.650066 0.375944
0.382714 0.657151 0.386520
0.392661 0.663625 0.396367
0.403576 0.671192 0.405558
0.420479 0.681535 0.419272
0.501066 0.714869 0.484205
0.654158 0.767089 0.599837
0.720350 0.783752 0.586351
0.752906 0.866133 0.486798
0.832881 0.885317 0.447591
0.890664 0.883888 0.434158
0.919396 0.869278 0.424054
0.944779 0.852954 0.420942
0.957851 0.842006 0.417544
0.968859 0.841511 0.419666
0.979145 0.838939 0.420760
0.389755 0.660926 0.383336
0.402127 0.669423 0.395358
0.414678 0.677827 0.407238
0.429070 0.686168 0.419455
0.452117 0.698069 0.438338
0.561457 0.740352 0.525246
0.690189 0.777987 0.610218
0.726926 0.808098 0.551974
0.755833 0.878950 0.469295
0.828166 0.895062 0.444134
0.890851 0.898780 0.437234
0.923450 0.886193 0.432280
0.950694 0.872896 0.430939
0.964349 0.864532 0.429458
0.973211 0.861229 0.430049
0.981046 0.861013 0.433286
0.116775 0.116775 0.133897
0.116708 0.116708 0.129213
0.116653 0.116653 0.126421
0.131143 0.116770 0.123896
0.178585 0.122912 0.124655
0.291797 0.137203 0.128175
0.493885 0.159171 0.137313
0.623397 0.179813 0.149404
0.726535 0.202215 0.164356
0.805297 0.218069 0.177746
0.851521 0.227653 0.187427
0.872838 0.229731 0.190788
0.889736 0.231976 0.194353
0.899167 0.231101 0.196143
0.905253 0.229771 0.197282
0.907976 0.228086 0.197494
0.116991 0.117696 0.144978
0.116837 0.116978 0.137193
0.116738 0.116886 0.131995
0.129704 0.119593 0.129292
0.181391 0.127340 0.127848
0.300884 0.141292 0.130604
0.490193 0.163108 0.138460
0.619588 0.184077 0.150240
0.728894 0.208218 0.166229
0.806064 0.223345 0.178867
0.853837 0.233939 0.188913
0.875226 0.235996 0.192381
0.892091 0.238506 0.195981
0.902326 0.237652 0.197960
0.909115 0.236639 0.199161
0.911813 0.235443 0.199579
0.117350 0.127541 0.160495
0.117190 0.125960 0.153247
0.117043 0.125650 0.145054
0.124606 0.127652 0.138905
0.182101 0.133977 0.134052
0.309668 0.146181 0.134070
0.486710 0.167655 0.139955
0.616672 0.189654 0.151715
0.730650 0.214218 0.168070
0.806906 0.230180 0.180614
0.856680 0.240996 0.190509
0.877896 0.242970 0.194085
0.893900 0.245288 0.197656
0.904572 0.244121 0.199636
0.911241 0.243256 0.200865
0.914327 0.242552 0.201435
0.118314 0.144576 0.199720
0.118074 0.143958 0.188456
0.117762 0.143057 0.174857
0.119707 0.146086 0.156812
0.169514 0.148642 0.148366
0.311347 0.159374 0.143152
0.485096 0.175667 0.143978
0.616187 0.196911 0.154036
0.730921 0.220891 0.170006
0.807482 0.238521 0.182429
0.859495 0.249740 0.192669
0.880840 0.252375 0.196505
0.895645 0.253734 0.199711
0.906326 0.251885 0.201526
0.913623 0.250422 0.202684
0.916711 0.249996 0.203325
0.120731 0.183629 0.253081
0.121244 0.185916 0.242104
0.122303 0.188573 0.223714
0.123423 0.186843 0.196314
0.153487 0.179292 0.174598
0.304686 0.191182 0.163505
0.504512 0.205535 0.156628
0.631443 0.217640 0.161778
0.731544 0.233859 0.173721
0.808592 0.249442 0.184929
0.861511 0.259232 0.195150
0.883649 0.263595 0.199741
0.898225 0.263839 0.202552
0.908339 0.261690 0.204089
0.915728 0.259545 0.204930
0.919382 0.257900 0.204905
0.130570 0.281383 0.306352
0.130902 0.282223 0.299724
0.131785 0.281829 0.283892
0.132437 0.252397 0.230993
0.140777 0.210943 0.172673
0.265041 0.272765 0.242638
0.513453 0.277771 0.193244
0.655978 0.275749 0.183279
0.746673 0.280683 0.188019
0.820301 0.286923 0.197142
0.869053 0.288299 0.203956
0.888982 0.284477 0.206670
0.902674 0.282326 0.208592
0.913591 0.279412 0.209479
0.921016 0.277476 0.210239
0.924738 0.275633 0.210003
0.143234 0.384514 0.354091
0.143397 0.376384 0.338407
0.143929 0.362070 0.313171
0.145244 0.329834 0.260409
0.148789 0.292304 0.204597
0.199200 0.331677 0.240393
0.483647 0.423554 0.322961
0.663028 0.396299 0.246081
0.763579 0.377130 0.221211
0.832891 0.366384 0.221257
0.883458 0.360183 0.225851
0.906502 0.343346 0.225114
0.917347 0.332405 0.224356
0.925317 0.327467 0.224083
0.932417 0.327362 0.224647
0.937367 0.327151 0.224881
0.157670 0.419667 0.316907
0.157783 0.414754 0.309494
0.157757 0.408251 0.299719
0.158204 0.395803 0.282093
0.161600 0.376627 0.248359
0.166388 0.377240 0.229633
0.430044 0.501838 0.433639
0.635923 0.543013 0.402211
0.766715 0.510580 0.316143
0.847552 0.484088 0.276739
0.900214 0.461975 0.263592
0.926991 0.440886 0.258377
0.938507 0.425774 0.255639
0.945182 0.415955 0.253822
0.950244 0.412545 0.253158
0.957176 0.412651 0.253066
0.216172 0.483049 0.325526
0.216117 0.480426 0.322983
0.215043 0.477279 0.319505
0.212509 0.472363 0.313053
0.213027 0.469908 0.303114
0.209544 0.461701 0.284582
0.356682 0.527443 0.393011
0.611393 0.633813 0.534440
0.743801 0.627067 0.450674
0.847196 0.589971 0.362236
0.907170 0.561502 0.315882
0.943411 0.537856 0.301940
0.955240 0.524611 0.296409
0.961564 0.518960 0.293740
0.965828 0.515917 0.291054
0.971639 0.513149 0.288360
0.282220 0.552966 0.359048
0.285569 0.553680 0.360883
0.288095 0.553661 0.362181
0.288822 0.551757 0.361447
0.291762 0.550257 0.359738
0.300663 0.550272 0.359288
0.336613 0.562991 0.377350
0.625995 0.676258 0.592014
0.738621 0.722401 0.528566
0.829384 0.690854 0.456006
0.901061 0.655443 0.382374
0.944100 0.630956 0.347711
0.961776 0.615652 0.338492
0.968276 0.607723 0.332504
0.973370 0.603413 0.327547
0.978691 0.599491 0.322836
0.305189 0.578997 0.366720
0.310842 0.581871 0.371454
0.316771 0.585017 0.375624
0.323031 0.588369 0.378599
0.335334 0.596643 0.385907
0.358709 0.612203 0.399758
0.398046 0.631448 0.423950
0.624224 0.714919 0.592341
0.741742 0.793568 0.552941
0.829014 0.768622 0.498911
0.882188 0.736450 0.429790
0.935809 0.710967 0.389975
0.958923 0.695571 0.376519
0.968316 0.687367 0.370387
0.974535 0.680761 0.364224
0.980420 0.674437 0.357407
0.320695 0.597002 0.371236
0.326531 0.600330 0.376358
0.332594 0.603612 0.380805
0.339296 0.607599 0.385148
0.352539 0.616836 0.394153
0.381668 0.636884 0.414573
0.448502 0.670452 0.460963
0.639357 0.738356 0.600853
0.752419 0.832096 0.545863
0.840020 0.830411 0.490766
0.881972 0.800187 0.450699
0.920730 0.774640 0.418224
0.951402 0.757271 0.401449
0.966580 0.749428 0.397357
0.974862 0.744519 0.392985
0.981152 0.739234 0.388762
0.338793 0.616264 0.373855
0.345580 0.620160 0.380536
0.352264 0.623980 0.386693
0.359336 0.628176 0.392523
0.372901 0.637484 0.403629
0.408258 0.660290 0.430729
0.502804 0.704299 0.499454
0.672949 0.759405 0.622096
0.756696 0.845860 0.540186
0.841145 0.860665 0.482334
0.890174 0.841871 0.450011
0.918516 0.819023 0.425902
0.942206 0.801513 0.414123
0.961810 0.792873 0.411140
0.972899 0.788645 0.409881
0.981418 0.785724 0.409841
0.353837 0.631399 0.376839
0.363109 0.637738 0.386650
0.372136 0.643955 0.395907
0.381756 0.650737 0.404670
0.396455 0.660750 0.416440
0.438108 0.685496 0.448521
0.568052 0.737103 0.547377
0.710979 0.777397 0.636435
0.762641 0.858010 0.534212
0.843069 0.876670 0.477352
0.896848 0.867412 0.449125
0.924767 0.851165 0.435121
0.944948 0.835059 0.427823
0.962731 0.825728 0.424795
0.973253 0.822427 0.424422
0.981985 0.818433 0.423223
0.368406 0.646806 0.379985
0.378950 0.654216 0.390814
0.388790 0.660765 0.400918
0.399444 0.668436 0.410777
0.414983 0.679272 0.423202
0.485464 0.712847 0.477967
0.640027 0.767803 0.598036
0.731491 0.788228 0.622814
0.765902 0.867310 0.526116
0.843167 0.889396 0.476320
0.900069 0.885586 0.454110
0.929174 0.871850 0.443990
0.952390 0.857128 0.437889
0.964978 0.849644 0.434942
0.974089 0.848440 0.435684
0.982458 0.844775 0.434676
0.382247 0.661609 0.383718
0.392897 0.669077 0.394855
0.403993 0.676937 0.405836
0.416150 0.685441 0.416293
0.438749 0.697817 0.434763
0.546880 0.739483 0.521384
0.694411 0.788302 0.630543
0.743337 0.810241 0.599686
0.770903 0.881177 0.511672
0.842645 0.902189 0.467498
0.903505 0.903867 0.457249
0.936600 0.890037 0.450194
0.958423 0.879939 0.447881
0.969095 0.873674 0.446288
0.976407 0.870788 0.446785
0.983857 0.869279 0.448002
0.116842 0.116842 0.137959
0.116772 0.116772 0.133491
0.116717 0.116717 0.130318
0.128504 0.116731 0.129609
0.185591 0.123383 0.129032
0.317289 0.138719 0.132105
0.508468 0.159838 0.140143
0.633481 0.180660 0.152363
0.732760 0.202395 0.166558
0.809603 0.216786 0.179546
0.854433 0.226524 0.189306
0.873491 0.229188 0.192452
0.888243 0.230950 0.195303
0.896639 0.229236 0.196910
0.902955 0.227684 0.198103
0.906326 0.226312 0.198700
0.117100 0.117990 0.151867
0.116954 0.117083 0.143594
0.116836 0.117029 0.136724
0.127156 0.119731 0.134186
0.185391 0.127621 0.132292
0.321709 0.142578 0.134880
0.503703 0.164008 0.141545
0.629974 0.184482 0.152994
0.734469 0.208241 0.168189
0.810755 0.222769 0.180850
0.856391 0.233491 0.191014
0.875354 0.235453 0.194021
0.890873 0.237444 0.197078
0.900668 0.235776 0.198788
0.907172 0.234295 0.199978
0.909769 0.232760 0.200500
0.117568 0.128050 0.171660
0.117361 0.126448 0.161514
0.117097 0.125458 0.148876
0.123199 0.127787 0.143255
0.180134 0.133769 0.138629
0.317610 0.147164 0.138432
0.497335 0.168540 0.143245
0.627581 0.189645 0.154263
0.736891 0.214936 0.170347
0.811800 0.229508 0.182540
0.858691 0.240277 0.192453
0.877497 0.242251 0.195772
0.892882 0.244307 0.198852
0.903171 0.242864 0.200705
0.910236 0.241606 0.201978
0.913446 0.240155 0.202568
0.118644 0.144072 0.214808
0.118355 0.143680 0.201359
0.117977 0.143292 0.184679
0.119612 0.144438 0.164028
0.166318 0.148738 0.154269
0.314278 0.160164 0.148161
0.494948 0.176566 0.147308
0.627231 0.197076 0.156618
0.737424 0.221972 0.172458
0.812908 0.238479 0.184772
0.860811 0.248191 0.194283
0.880048 0.250058 0.197677
0.894874 0.251673 0.200704
0.905171 0.250067 0.202514
0.912595 0.248746 0.203914
0.916145 0.247773 0.204659
0.120292 0.179164 0.278913
0.120138 0.179380 0.269942
0.120551 0.182081 0.250541
0.122142 0.185889 0.218188
0.149783 0.186401 0.191343
0.299031 0.191954 0.171893
0.509538 0.205813 0.161380
0.640362 0.219060 0.164853
0.737615 0.234769 0.176157
0.813362 0.249209 0.187192
0.862077 0.257693 0.196635
0.883001 0.260811 0.200704
0.897125 0.261203 0.203329
0.907107 0.258832 0.204821
0.914646 0.256837 0.206070
0.918690 0.255791 0.206795
0.128201 0.274284 0.339033
0.128585 0.275106 0.331908
0.129435 0.277335 0.319449
0.131266 0.279893 0.288293
0.134669 0.230348 0.197851
0.260162 0.268313 0.257913
0.511241 0.280161 0.205195
0.655260 0.277257 0.188277
0.747266 0.281257 0.190865
0.820879 0.286411 0.198928
0.868863 0.287000 0.205752
0.888237 0.282155 0.208063
0.901755 0.279879 0.209611
0.912398 0.276392 0.210365
0.919651 0.274246 0.211283
0.923996 0.272731 0.211911
0.142918 0.408200 0.395623
0.142996 0.402276 0.384918
0.143006 0.393299 0.369197
0.144026 0.363703 0.315235
0.145945 0.309786 0.233303
0.183088 0.320514 0.233223
0.475063 0.426987 0.345469
0.661060 0.400442 0.264605
0.764087 0.380145 0.229994
0.833577 0.367573 0.225104
0.883505 0.360453 0.229050
0.906898 0.343896 0.228305
0.917037 0.331820 0.226704
0.924877 0.326526 0.226380
0.931401 0.324482 0.226626
0.936556 0.323879 0.226992
0.157343 0.440305 0.348061
0.157424 0.436576 0.342064
0.157453 0.431254 0.334200
0.157360 0.417209 0.314132
0.158882 0.389069 0.271036
0.162578 0.372882 0.233346
0.411968 0.495853 0.428672
0.630638 0.545524 0.424775
0.764311 0.514131 0.339889
0.846500 0.486685 0.290773
0.900083 0.463626 0.269193
0.928283 0.441768 0.262527
0.939006 0.425373 0.259049
0.945940 0.415362 0.257372
0.950446 0.410961 0.256279
0.955687 0.407733 0.255144
0.211780 0.485978 0.339540
0.211630 0.483040 0.336972
0.210993 0.478978 0.332318
0.210419 0.473109 0.324931
0.211580 0.467804 0.311356
0.210529 0.462402 0.294601
0.339863 0.519528 0.386953
0.610008 0.630923 0.556386
0.740362 0.630936 0.474316
0.844099 0.596613 0.392599
0.907840 0.564880 0.330539
0.943972 0.539621 0.309061
0.955896 0.524756 0.301740
0.962000 0.517802 0.298439
0.966411 0.515164 0.296383
0.971785 0.511624 0.293681
0.278466 0.550171 0.366106
0.282213 0.551427 0.367570
0.285279 0.551774 0.368447
0.286557 0.550249 0.368156
0.290528 0.549425 0.367390
0.297397 0.548397 0.364808
0.329359 0.558936 0.379400
0.615750 0.677255 0.594092
0.733903 0.724643 0.551972
0.827362 0.695424 0.486836
0.901189 0.660607 0.411507
0.946013 0.633180 0.361754
0.963294 0.617479 0.349199
0.969424 0.610286 0.342921
0.974732 0.605145 0.337387
0.979782 0.600498 0.332042
0.305443 0.578780 0.375657
0.310847 0.581268 0.379697
0.316650 0.584478 0.383647
0.322481 0.587646 0.386412
0.334120 0.595405 0.393077
0.355183 0.609006 0.404626
0.395878 0.630362 0.429959
0.607862 0.713224 0.587341
0.740493 0.791868 0.583022
0.828763 0.772603 0.529601
0.884371 0.744119 0.469213
0.937375 0.716941 0.418374
0.961763 0.697474 0.391983
0.971090 0.690172 0.383781
0.976105 0.684333 0.377109
0.982273 0.677806 0.369801
0.319234 0.596241 0.378592
0.325411 0.599461 0.384131
0.331344 0.602277 0.388762
0.337787 0.606011 0.393061
0.350148 0.614882 0.401074
0.378071 0.634670 0.419632
0.443904 0.668671 0.464994
0.621624 0.736685 0.595050
0.758192 0.829085 0.583210
0.841332 0.834574 0.528226
0.884854 0.803952 0.489653
0.925145 0.779913 0.446826
0.955451 0.760926 0.419658
0.970504 0.753093 0.413522
0.977644 0.748713 0.406922
0.984066 0.744260 0.402304
0.334594 0.613115 0.379852
0.341679 0.617459 0.386947
0.348434 0.621433 0.393051
0.355659 0.625860 0.398436
0.368732 0.635297 0.408476
0.402822 0.657838 0.434069
0.494146 0.702575 0.500221
0.662402 0.760935 0.624622
0.765763 0.841178 0.583389
0.842515 0.863581 0.524115
0.894419 0.845996 0.482380
0.922844 0.826444 0.462408
0.949095 0.809065 0.440662
0.967452 0.797679 0.428991
0.976714 0.793933 0.424252
0.985013 0.790653 0.423643
0.351367 0.630621 0.382689
0.359078 0.635462 0.390588
0.366982 0.640462 0.398408
0.376421 0.647279 0.406974
0.390941 0.657434 0.419221
0.433779 0.683087 0.453266
0.555511 0.735858 0.544670
0.709878 0.785790 0.654125
0.773155 0.854335 0.579048
0.844378 0.880647 0.518621
0.901093 0.871932 0.484354
0.931050 0.855716 0.465213
0.952134 0.841784 0.452125
0.966453 0.831923 0.445548
0.976834 0.829441 0.441431
0.985670 0.825448 0.438779
0.364300 0.643776 0.385234
0.374745 0.651214 0.395796
0.384495 0.658033 0.405535
0.395032 0.665971 0.415371
0.410979 0.677526 0.429141
0.471017 0.709846 0.473674
0.626632 0.768488 0.595831
0.739256 0.796881 0.655086
0.778168 0.865459 0.571765
0.846183 0.893235 0.513580
0.904715 0.889072 0.487445
0.937129 0.876152 0.469289
0.957572 0.865249 0.463940
0.969657 0.858620 0.460798
0.977322 0.854586 0.458570
0.985685 0.850875 0.456194
0.379272 0.659403 0.389940
0.389910 0.666983 0.401064
0.400446 0.674499 0.411969
0.412204 0.683255 0.422509
0.430955 0.695736 0.437084
0.529119 0.737692 0.514728
0.691000 0.794958 0.640017
0.756735 0.811563 0.640102
0.785051 0.879565 0.561156
0.849614 0.906031 0.511700
0.910527 0.906002 0.487966
0.943027 0.894660 0.478324
0.962563 0.885578 0.475912
0.973672 0.880989 0.476631
0.979255 0.879041 0.477869
0.986073 0.876246 0.478394
0.116932 0.116932 0.143117
0.116848 0.116848 0.138175
0.116802 0.116802 0.135358
0.120848 0.116836 0.137167
0.181462 0.123483 0.136649
0.337058 0.140390 0.139636
0.519977 0.160840 0.144861
0.644788 0.181874 0.155821
0.739841 0.202372 0.168942
0.813090 0.215628 0.181328
0.854219 0.225755 0.190873
0.872846 0.228725 0.194129
0.886756 0.229930 0.196456
0.894634 0.227756 0.197913
0.900769 0.225942 0.199126
0.904379 0.224645 0.199857
0.117227 0.117642 0.157986
0.117065 0.117138 0.149792
0.116936 0.117156 0.143371
0.120547 0.119950 0.141684
0.177827 0.127466 0.140313
0.328939 0.143890 0.142084
0.516537 0.164844 0.146364
0.642165 0.185573 0.156686
0.741050 0.208470 0.170575
0.813759 0.221681 0.182572
0.855940 0.232562 0.192641
0.874899 0.234732 0.195797
0.889734 0.236151 0.198225
0.898816 0.234231 0.199824
0.904703 0.232198 0.200957
0.907444 0.230704 0.201632
0.118077 0.128099 0.194477
0.117679 0.126659 0.177215
0.117308 0.124895 0.159613
0.120204 0.128048 0.150787
0.171886 0.133742 0.146152
0.321524 0.148667 0.145711
0.511994 0.169742 0.148527
0.641446 0.190475 0.158136
0.742797 0.215198 0.172617
0.814403 0.228603 0.184214
0.858177 0.239364 0.194127
0.877010 0.241698 0.197707
0.891849 0.243121 0.200115
0.901922 0.241313 0.201783
0.908364 0.239149 0.202886
0.911332 0.237504 0.203571
0.119264 0.143907 0.243789
0.118897 0.143474 0.226533
0.118376 0.143189 0.202901
0.118832 0.143751 0.173916
0.161697 0.148997 0.163662
0.312160 0.161223 0.155925
0.506047 0.177914 0.152887
0.642952 0.197576 0.160868
0.743599 0.222833 0.175003
0.814977 0.237615 0.186497
0.860419 0.246940 0.195820
0.879662 0.249363 0.199712
0.893781 0.250517 0.202081
0.904051 0.248883 0.203882
0.911154 0.246911 0.205061
0.914343 0.245331 0.205730
0.120612 0.177654 0.305313
0.120518 0.177456 0.296464
0.120261 0.177734 0.278600
0.120350 0.179786 0.245980
0.146494 0.185739 0.207656
0.289817 0.193465 0.185302
0.508983 0.208156 0.169967
0.649340 0.220544 0.170047
0.742365 0.236111 0.179070
0.815128 0.249510 0.189369
0.862027 0.256384 0.198351
0.882561 0.258354 0.202041
0.896097 0.258758 0.204393
0.906130 0.256787 0.205988
0.913308 0.254647 0.207185
0.917061 0.253435 0.208010
0.123618 0.254351 0.394464
0.124275 0.257639 0.387403
0.125597 0.263578 0.371773
0.127979 0.271123 0.336442
0.131272 0.274973 0.278035
0.244706 0.273510 0.268882
0.505937 0.283497 0.224530
0.653470 0.280282 0.198045
0.746820 0.282574 0.195888
0.820969 0.286768 0.201534
0.868835 0.285827 0.207832
0.888228 0.279665 0.209577
0.900787 0.277136 0.210851
0.911102 0.273674 0.211649
0.918006 0.270961 0.212455
0.922167 0.269241 0.213048
0.142505 0.422395 0.436017
0.142626 0.422100 0.431378
0.142641 0.420057 0.423609
0.142928 0.405090 0.389741
0.144468 0.354356 0.299865
0.164908 0.313833 0.233054
0.462445 0.429076 0.376769
0.657910 0.407805 0.292248
0.763044 0.385400 0.248617
0.833557 0.370842 0.233779
0.883143 0.360336 0.233255
0.906955 0.344896 0.232210
0.916271 0.331322 0.229423
0.924023 0.325614 0.228919
0.930574 0.322947 0.229155
0.935249 0.320907 0.229292
0.157726 0.465267 0.387344
0.157665 0.463159 0.383346
0.157534 0.459144 0.376768
0.157421 0.447705 0.360092
0.157506 0.415454 0.311149
0.161175 0.374248 0.248175
0.383941 0.484362 0.418021
0.622465 0.549669 0.454135
