lib/luts/Centurus.CUBE
LUT_3D_SIZE 6
0.116717 0.116717 0.130307
0.130765 0.116741 0.119931
0.471363 0.157504 0.133577
0.800798 0.218658 0.175849
0.887484 0.232461 0.192700
0.908938 0.231139 0.196661
0.118097 0.144788 0.189125
0.120251 0.146979 0.150991
0.474857 0.175037 0.140842
0.801711 0.238451 0.180067
0.894600 0.255853 0.198494
0.917106 0.251952 0.201274
0.143846 0.360289 0.311090
0.146340 0.304840 0.225968
0.489365 0.420834 0.303634
0.832238 0.365782 0.218324
0.917685 0.333035 0.222120
0.938043 0.330229 0.222968
0.282725 0.552820 0.351716
0.289783 0.552177 0.354648
0.341958 0.566563 0.374727
0.829123 0.685215 0.426631
0.959513 0.614515 0.330071
0.977592 0.597472 0.314446
0.342094 0.618063 0.368715
0.364081 0.631175 0.389912
0.514831 0.705800 0.502536
0.838387 0.856237 0.452720
0.934684 0.796999 0.399417
0.978294 0.779879 0.395890
0.389755 0.660926 0.383336
0.429070 0.686168 0.419455
0.690189 0.777987 0.610218
0.828166 0.895062 0.444134
0.950694 0.872896 0.430939
0.981046 0.861013 0.433286
0.116932 0.116932 0.143117
0.120848 0.116836 0.137167
0.519977 0.160840 0.144861
0.813090 0.215628 0.181328
0.886756 0.229930 0.196456
0.904379 0.224645 0.199857
0.119264 0.143907 0.243789
0.118832 0.143751 0.173916
0.506047 0.177914 0.152887
0.814977 0.237615 0.186497
0.893781 0.250517 0.202081
0.914343 0.245331 0.205730
0.142505 0.422395 0.436017
0.142928 0.405090 0.389741
0.462445 0.429076 0.376769
0.833557 0.370842 0.233779
0.916271 0.331322 0.229423
0.935249 0.320907 0.229292
0.275028 0.547856 0.375159
0.282705 0.547147 0.376490
0.318192 0.553394 0.380343
0.824379 0.702134 0.521244
0.965472 0.620886 0.364950
0.980989 0.604497 0.347348
0.332332 0.612096 0.388572
0.354107 0.624731 0.408138
0.487322 0.700384 0.504180
0.843627 0.866817 0.566082
0.954587 0.819713 0.485922
0.987438 0.798555 0.443289
0.373787 0.655105 0.395318
0.405354 0.678739 0.426440
0.675421 0.796479 0.638200
0.852872 0.910376 0.560516
0.964197 0.896352 0.525892
0.988162 0.885357 0.523038
0.117382 0.117382 0.165698
0.120020 0.118298 0.167012
0.490361 0.164186 0.183263
0.814833 0.221598 0.202516
0.880875 0.226623 0.208114
0.896669 0.220043 0.210750
0.120439 0.139851 0.341727
0.119558 0.145469 0.258534
0.471031 0.185879 0.213011
0.814350 0.245887 0.215987
0.887072 0.246122 0.216891
0.904983 0.239551 0.219711
0.138378 0.397132 0.536579
0.138171 0.395282 0.534527
0.415007 0.447147 0.490462
0.824819 0.402677 0.340439
0.909489 0.326898 0.264611
0.927667 0.311401 0.259284
0.261563 0.595212 0.474429
0.268455 0.584659 0.466521
0.291633 0.552563 0.427077
0.807627 0.728742 0.641260
0.958802 0.660618 0.518676
0.982730 0.630463 0.460610
0.326516 0.607696 0.434697
0.348482 0.619637 0.447942
0.444257 0.680398 0.510935
0.836701 0.881197 0.705136
0.955906 0.860378 0.663472
0.992652 0.843873 0.624970
0.356655 0.647436 0.429270
0.393416 0.673306 0.460057
0.608334 0.785710 0.620916
0.862920 0.915069 0.732776
0.969682 0.930331 0.693551
0.993896 0.926459 0.699853
0.119035 0.122121 0.242106
0.137436 0.126218 0.243744
0.471098 0.167523 0.280413
0.793563 0.223404 0.269887
0.865846 0.218360 0.249037
0.881752 0.209308 0.248749
0.120636 0.145315 0.408663
0.120584 0.151612 0.371244
0.436852 0.193850 0.345783
0.790317 0.262585 0.314900
0.872210 0.249163 0.277420
0.890158 0.232724 0.269651
0.137156 0.357068 0.647939
0.137065 0.351754 0.651108
0.345672 0.447595 0.595113
0.793540 0.466391 0.512914
0.892046 0.363400 0.390940
0.905097 0.320120 0.359871
0.242573 0.719440 0.706527
0.246368 0.713701 0.709003
0.267713 0.686582 0.668641
0.789605 0.758009 0.762208
0.945849 0.716577 0.689966
0.966115 0.687972 0.656162
0.298354 0.686623 0.586673
0.319186 0.686155 0.584609
0.399431 0.692692 0.578268
0.830694 0.867745 0.825032
0.945578 0.892300 0.815467
0.988344 0.886143 0.799290
0.350611 0.663286 0.513020
0.387335 0.675373 0.521255
0.539560 0.756850 0.620688
0.870792 0.911922 0.857422
0.961920 0.955691 0.840684
0.994768 0.954790 0.845726
0.126342 0.129045 0.346950
0.172866 0.134098 0.342935
0.504394 0.173020 0.366108
0.761238 0.227043 0.384881
0.826553 0.209344 0.350471
0.853147 0.199989 0.328831
0.122201 0.160843 0.459606
0.141091 0.162436 0.433810
0.476300 0.204821 0.432050
0.762631 0.275535 0.430882
0.835328 0.248234 0.385756
0.855182 0.217634 0.356438
0.138695 0.347777 0.674163
0.138992 0.345980 0.678704
0.380517 0.465427 0.648008
0.767734 0.499864 0.614679
0.864927 0.386877 0.512517
0.883364 0.325867 0.462619
0.227408 0.702135 0.772166
0.226279 0.684668 0.775475
0.236824 0.658420 0.775560
0.762029 0.760719 0.836503
0.924145 0.738054 0.801251
0.946768 0.712214 0.781695
0.285265 0.748167 0.704980
0.302762 0.750302 0.709001
0.372249 0.768047 0.715808
0.743376 0.872431 0.857216
0.934593 0.908853 0.917758
0.975898 0.906222 0.916382
0.334531 0.721592 0.609307
0.364491 0.730011 0.618266
0.458837 0.761005 0.647248
0.822997 0.893282 0.853188
0.957693 0.963470 0.942973
0.991009 0.972694 0.941815
0.144525 0.133962 0.406468
0.219796 0.137719 0.394364
0.528602 0.176272 0.407583
0.751654 0.228082 0.432065
0.815508 0.208859 0.400407
0.836245 0.195669 0.395398
0.132562 0.168949 0.482032
0.175692 0.177205 0.470429
0.505332 0.210434 0.468142
0.759295 0.283059 0.475795
0.827397 0.253198 0.440379
0.844028 0.217488 0.424349
0.140175 0.350150 0.691011
0.140344 0.360414 0.688343
0.414645 0.480271 0.674980
0.766658 0.506232 0.650264
0.863358 0.408474 0.572101
0.875866 0.351700 0.546004
0.216889 0.673096 0.800174
0.217419 0.654480 0.805113
0.224638 0.619285 0.806819
0.735874 0.740528 0.866285
0.910932 0.750950 0.859207
0.940313 0.734390 0.851391
0.270659 0.771815 0.788969
0.286867 0.771895 0.791885
0.351008 0.796545 0.814067
0.692498 0.872164 0.911803
0.927408 0.908155 0.956807
0.972161 0.911726 0.956211
0.319719 0.771907 0.710681
0.346974 0.778910 0.716619
0.437638 0.809843 0.736417
0.771453 0.912424 0.888229
0.941379 0.971781 0.971428
0.990358 0.980459 0.984028
