lib/luts/Holmberg.CUBE
LUT_3D_SIZE 16
0.077423 0.102661 0.094086
0.079864 0.099970 0.094086
0.093262 0.101728 0.097565
0.093274 0.101740 0.097565
0.101789 0.105047 0.099206
0.123474 0.098358 0.106659
0.155158 0.103454 0.099206
0.192389 0.102661 0.096662
0.248486 0.109204 0.100110
0.317401 0.099206 0.092468
0.390808 0.085785 0.090057
0.472345 0.073932 0.096747
0.564704 0.035779 0.089154
0.661822 0.000000 0.075653
0.763147 0.000000 0.074738
0.867325 0.000000 0.056205
0.078162 0.109314 0.094940
0.077821 0.105678 0.091927
0.085865 0.100818 0.104211
0.088168 0.107273 0.102305
0.109259 0.102661 0.092468
0.128540 0.109314 0.094086
0.166180 0.105580 0.096991
0.208954 0.110135 0.098358
0.261659 0.108648 0.091861
0.323952 0.105141 0.091644
0.400781 0.095898 0.092468
0.482286 0.081495 0.092751
0.574347 0.052917 0.089209
0.670007 0.006339 0.079968
0.770417 0.000000 0.071509
0.859436 0.000000 0.052127
0.084088 0.111755 0.104260
0.083289 0.107562 0.098358
0.091590 0.108356 0.101728
0.103389 0.111799 0.099164
0.116543 0.113547 0.100691
0.137604 0.116791 0.100055
0.176718 0.119318 0.098358
0.216671 0.123947 0.094426
0.273914 0.118506 0.094989
0.342017 0.120704 0.097457
0.413720 0.113452 0.087482
0.495947 0.102484 0.090831
0.581749 0.083611 0.084076
0.674648 0.043468 0.071515
0.771749 0.004224 0.064868
0.872188 0.000000 0.055350
0.080658 0.125171 0.110931
0.082961 0.125278 0.101740
0.092501 0.125171 0.103411
0.107983 0.128442 0.101315
0.130108 0.132655 0.101789
0.164197 0.136682 0.100055
0.200722 0.141651 0.094075
0.250144 0.143412 0.098358
0.308801 0.144787 0.097086
0.373034 0.144305 0.098387
0.452790 0.143481 0.090850
0.522789 0.130254 0.077591
0.610025 0.121778 0.085770
0.703754 0.106753 0.074731
0.793729 0.084147 0.055363
0.894641 0.072333 0.048550
0.088379 0.145172 0.118409
0.095898 0.151761 0.110060
0.110504 0.153727 0.110404
0.122571 0.160883 0.107507
0.144405 0.166705 0.108222
0.176606 0.170898 0.103400
0.222022 0.172506 0.097560
0.278682 0.180749 0.100586
0.341148 0.182454 0.095872
0.408850 0.184430 0.098923
0.473907 0.184125 0.080652
0.554170 0.181582 0.078253
0.641654 0.178084 0.069923
0.735901 0.168304 0.063924
0.823501 0.168168 0.053744
0.913956 0.165844 0.028996
0.098358 0.189789 0.135986
0.096747 0.200647 0.113391
0.114246 0.199835 0.120123
0.134302 0.206421 0.126843
0.165076 0.216412 0.119232
0.202209 0.218842 0.115204
0.256739 0.227826 0.110931
0.305170 0.231201 0.094086
0.370563 0.237775 0.087482
0.440625 0.232794 0.079864
0.517029 0.239349 0.077423
0.584211 0.241162 0.066376
0.676184 0.236194 0.060425
0.750311 0.239349 0.053693
0.837903 0.242725 0.040942
0.915574 0.239382 0.008996
0.118481 0.269782 0.158344
0.120650 0.272571 0.148234
0.135921 0.276337 0.150907
0.161590 0.283217 0.145198
0.198203 0.287023 0.141021
0.236042 0.294403 0.129376
0.291257 0.302501 0.120069
0.351686 0.302741 0.113423
0.421897 0.305865 0.100227
0.487731 0.305866 0.089898
0.551044 0.305865 0.075586
0.631859 0.310858 0.054711
0.709283 0.313251 0.034195
0.782368 0.318034 0.016162
0.861166 0.323956 0.008218
0.927640 0.331331 0.000106
0.142578 0.353363 0.189893
0.148461 0.352631 0.185755
0.170076 0.363568 0.180160
0.194031 0.363991 0.181646
0.236791 0.370581 0.170862
0.274780 0.377093 0.166718
0.329728 0.383629 0.150142
0.397505 0.389331 0.138063
0.458483 0.388550 0.119270
0.527036 0.389229 0.104331
0.597821 0.391687 0.086682
0.668169 0.394206 0.069769
0.744737 0.401561 0.035659
0.826741 0.405572 0.013365
0.899674 0.415368 0.000000
0.969323 0.423508 0.000000
0.192322 0.435004 0.226233
0.203075 0.440842 0.234328
0.220439 0.446283 0.226185
0.244960 0.452327 0.226101
0.275582 0.458485 0.220459
0.320697 0.461768 0.213068
0.369783 0.464020 0.198156
0.430813 0.470593 0.185746
0.495463 0.473219 0.163209
0.562329 0.471479 0.145108
0.627032 0.473077 0.126825
0.691916 0.477215 0.105067
0.763153 0.477997 0.082324
0.835108 0.488276 0.055254
0.906121 0.496716 0.031591
0.982073 0.511250 0.028936
0.264838 0.538788 0.288696
0.273937 0.544501 0.291913
0.291433 0.551079 0.297711
0.310917 0.550173 0.289590
0.341953 0.550969 0.282196
0.379511 0.555865 0.275665
0.430085 0.559943 0.260907
0.480338 0.567855 0.251715
0.537952 0.568065 0.230355
0.599281 0.569341 0.208628
0.660846 0.564716 0.193255
0.718937 0.560791 0.169976
0.779657 0.561458 0.145892
0.850848 0.563891 0.135930
0.910686 0.570897 0.119324
0.980445 0.582527 0.119327
0.350128 0.638245 0.362427
0.369000 0.639069 0.374688
0.376245 0.639893 0.378601
0.402344 0.646484 0.372174
0.426697 0.655255 0.372907
0.464142 0.646484 0.366333
0.498224 0.650360 0.348517
0.535633 0.654480 0.334626
0.584076 0.660925 0.314984
0.649554 0.660162 0.305816
0.706757 0.666565 0.280579
0.758313 0.653656 0.256647
0.816303 0.651148 0.239349
0.880426 0.657575 0.232812
0.935071 0.671429 0.226959
0.999695 0.686647 0.243467
0.449548 0.713379 0.456824
0.458385 0.715855 0.456320
0.468324 0.723809 0.459360
0.482864 0.722797 0.461438
0.504722 0.725451 0.456042
0.529895 0.731897 0.449548
0.558704 0.729099 0.440624
0.594690 0.730220 0.425905
0.633519 0.732333 0.412035
0.680270 0.734228 0.396570
0.728681 0.736725 0.376196
0.789180 0.735978 0.361303
0.831553 0.733433 0.340350
0.884153 0.730298 0.326992
0.942996 0.739052 0.326340
0.999860 0.755209 0.344289
0.556696 0.790588 0.541180
0.568020 0.792208 0.558977
0.570775 0.790954 0.552858
0.580065 0.800135 0.561505
0.601283 0.801802 0.559275
0.613971 0.800128 0.555853
0.635856 0.801794 0.544433
0.660822 0.798590 0.535183
0.691528 0.802563 0.524186
0.728698 0.802783 0.504804
0.774438 0.805786 0.498975
0.810665 0.804248 0.473933
0.847888 0.808352 0.449225
0.887736 0.796136 0.425135
0.932832 0.796239 0.416522
0.990877 0.806623 0.422742
0.660211 0.854810 0.644745
0.668834 0.861902 0.656772
0.682640 0.861219 0.657634
0.691442 0.856333 0.662087
0.698827 0.866083 0.665753
0.710889 0.864526 0.656000
0.727375 0.869267 0.650591
0.744800 0.864450 0.647260
0.768516 0.870043 0.638361
0.792165 0.869265 0.633441
0.822724 0.876544 0.622095
0.852620 0.874170 0.604871
0.890972 0.878114 0.597126
0.927006 0.879306 0.583725
0.959857 0.875720 0.566329
0.999901 0.877315 0.575211
0.758453 0.908502 0.743091
0.767262 0.914075 0.747188
0.773965 0.915454 0.742301
0.772043 0.912501 0.747112
0.783955 0.914990 0.744950
0.792231 0.916650 0.743921
0.800192 0.918189 0.744679
0.812251 0.920794 0.740707
0.835555 0.917419 0.735898
0.849406 0.921471 0.722472
0.874151 0.923792 0.723017
0.895752 0.922247 0.715726
0.915005 0.926380 0.711715
0.947067 0.926221 0.698840
0.980201 0.932794 0.692148
0.999994 0.930978 0.690805
0.843550 0.959625 0.835297
0.856338 0.954957 0.835262
0.858620 0.958856 0.830568
0.858659 0.958863 0.830577
0.863539 0.959642 0.823288
0.863554 0.959657 0.823272
0.877187 0.963747 0.825030
0.898730 0.963761 0.819427
0.901981 0.966950 0.822469
0.909192 0.965270 0.820927
0.923766 0.971681 0.827286
0.936617 0.971679 0.818556
0.959596 0.970238 0.812039
0.978999 0.976506 0.811982
0.994974 0.981381 0.805502
1.000000 0.983658 0.803191
0.081451 0.101783 0.100818
0.084137 0.103725 0.103210
0.084961 0.101720 0.105885
0.095011 0.100507 0.105885
0.104248 0.100818 0.102661
0.130975 0.099970 0.114356
0.159458 0.102353 0.103970
0.204000 0.105885 0.110082
0.260185 0.102661 0.106207
0.323096 0.096747 0.105914
0.397382 0.084948 0.101641
0.471531 0.068282 0.097821
0.562322 0.037535 0.100848
0.657494 0.000000 0.089154
0.763971 0.000000 0.081514
0.869052 0.000000 0.082428
0.077325 0.109314 0.100782
0.081517 0.104286 0.105002
0.086922 0.101123 0.102090
0.096048 0.105737 0.101759
0.112151 0.109314 0.103997
0.131143 0.109314 0.097484
0.170845 0.109039 0.100733
0.215759 0.107795 0.102373
0.271207 0.111989 0.105521
0.328560 0.102612 0.097945
0.401275 0.096464 0.100574
0.485164 0.080261 0.100005
0.572034 0.045731 0.098387
0.663634 0.001667 0.094450
0.762826 0.000000 0.084126
0.869132 0.000000 0.082840
0.080756 0.110921 0.107562
0.080935 0.111227 0.102560
0.094544 0.114408 0.103647
0.100514 0.116567 0.104991
0.121680 0.114246 0.104247
0.151782 0.113452 0.105077
0.186613 0.115880 0.106809
0.228087 0.119568 0.101208
0.283643 0.120465 0.099571
0.346388 0.115880 0.101740
0.417042 0.109991 0.101648
0.486345 0.094662 0.095621
0.565888 0.076470 0.091565
0.648465 0.048781 0.085318
0.752643 0.000971 0.080445
0.855289 0.000000 0.072368
0.087482 0.129236 0.110941
0.086501 0.131007 0.111765
0.093449 0.131439 0.112806
0.111670 0.132446 0.108583
0.134809 0.135697 0.107310
0.166904 0.137479 0.104378
0.202049 0.143883 0.103077
0.250038 0.145883 0.101614
0.311764 0.147342 0.100136
0.376224 0.144321 0.099970
0.452362 0.138475 0.100229
0.526154 0.125848 0.096363
0.606162 0.117093 0.087482
0.698938 0.101047 0.082970
0.791069 0.084793 0.078488
0.885499 0.061731 0.059317
0.090013 0.150006 0.115033
0.098369 0.159868 0.119445
0.103235 0.161083 0.120179
0.120699 0.168219 0.119480
0.145998 0.167020 0.112583
0.185785 0.169150 0.115160
0.234007 0.175514 0.109540
0.286832 0.179819 0.104692
0.340359 0.186400 0.096425
0.409915 0.185479 0.094974
0.479650 0.181694 0.089898
0.555330 0.178070 0.088277
0.640323 0.174888 0.088265
0.733482 0.165865 0.081002
0.821323 0.162978 0.062466
0.908337 0.167584 0.061247
0.099970 0.198242 0.131714
0.101648 0.201666 0.139310
0.115072 0.208098 0.135967
0.144437 0.210004 0.135015
0.167505 0.216412 0.128433
0.206421 0.225427 0.126727
0.256983 0.225911 0.113884
0.311713 0.235413 0.106714
0.369210 0.237880 0.095023
0.442969 0.233630 0.096747
0.512054 0.234576 0.085785
0.572237 0.236697 0.080958
0.649579 0.228717 0.073974
0.725923 0.225402 0.069664
0.817040 0.231140 0.057025
0.917148 0.241157 0.044448
0.117883 0.272088 0.160520
0.126465 0.274172 0.158431
0.139648 0.279926 0.162105
0.162787 0.284913 0.153774
0.191226 0.286481 0.151503
0.240814 0.293602 0.144872
0.292024 0.300430 0.133769
0.351780 0.304063 0.124812
0.416416 0.304219 0.112936
0.481062 0.306462 0.103768
0.552888 0.307709 0.086389
0.624138 0.309905 0.072137
0.700573 0.312254 0.060501
0.772024 0.312361 0.050791
0.852517 0.318749 0.045071
0.928035 0.324730 0.036649
0.152606 0.353393 0.200641
0.156193 0.355023 0.197636
0.174986 0.357596 0.195041
0.197930 0.364154 0.197699
0.231182 0.369881 0.187087
0.275562 0.373803 0.178363
0.330010 0.382025 0.166252
0.393838 0.385621 0.152497
0.455955 0.387541 0.137111
0.523568 0.386851 0.127766
0.596289 0.388521 0.108426
0.671594 0.392871 0.093957
0.746796 0.400492 0.066073
0.819627 0.403026 0.038404
0.895509 0.410854 0.012483
0.965263 0.429949 0.022061
0.196848 0.431856 0.239772
0.203238 0.439083 0.246388
0.217666 0.445972 0.236983
0.248120 0.444853 0.238258
0.273962 0.453839 0.231568
0.313232 0.461768 0.222954
0.370727 0.461785 0.210057
0.430925 0.467450 0.198164
0.501140 0.473661 0.183215
0.558047 0.467355 0.164134
0.622156 0.466309 0.137045
0.682503 0.468859 0.120962
0.745739 0.465063 0.100593
0.812720 0.468002 0.079449
0.890446 0.480747 0.049031
0.961420 0.498195 0.046997
0.266510 0.531501 0.301031
0.275951 0.538249 0.304819
0.292204 0.538793 0.302381
0.313308 0.543493 0.302544
0.339193 0.549123 0.295617
0.378695 0.552566 0.288752
0.422244 0.554303 0.272594
0.477325 0.557423 0.262145
0.535672 0.560748 0.242614
0.598186 0.563153 0.225505
0.656031 0.559125 0.206414
0.709500 0.552965 0.176824
0.774455 0.553235 0.166170
0.836273 0.553437 0.141699
0.899176 0.565328 0.127662
0.968490 0.579277 0.122578
0.357513 0.625324 0.371344
0.369542 0.636779 0.385471
0.369713 0.635886 0.382019
0.399724 0.641688 0.370980
0.429236 0.645514 0.375470
0.458453 0.643927 0.367285
0.489656 0.651437 0.357196
0.534851 0.652841 0.345958
0.588013 0.656904 0.330332
0.643877 0.657576 0.313212
0.701178 0.664838 0.291901
0.752849 0.656018 0.277456
0.814667 0.647253 0.253415
0.873155 0.657472 0.246771
0.932642 0.667345 0.241929
0.989289 0.678679 0.239328
0.447401 0.709494 0.460417
0.458595 0.713042 0.465946
0.471904 0.711635 0.464638
0.479340 0.718035 0.463954
0.503661 0.722903 0.460023
0.526755 0.727022 0.457644
0.554715 0.724432 0.444515
0.588788 0.728046 0.432349
0.636790 0.731649 0.425706
0.674035 0.732416 0.407755
0.723226 0.729819 0.378038
0.773293 0.729681 0.357912
0.818963 0.715955 0.332362
0.869349 0.713439 0.319288
0.924486 0.731907 0.311283
0.985106 0.745357 0.335283
0.542812 0.780136 0.548462
0.561797 0.788736 0.558884
0.570785 0.787668 0.559520
0.575331 0.791588 0.559792
0.594644 0.797798 0.557294
0.609268 0.792944 0.550910
0.628325 0.792944 0.539856
0.655922 0.794546 0.536369
0.684363 0.795956 0.526449
0.720291 0.796136 0.505121
0.754330 0.796941 0.486058
0.797797 0.794563 0.461734
0.849384 0.788994 0.442370
0.884398 0.783446 0.413699
0.927403 0.786733 0.404796
0.982970 0.797838 0.420955
0.661116 0.855576 0.667264
0.669092 0.857527 0.663469
0.677743 0.863453 0.654951
0.684937 0.863930 0.655157
0.692429 0.862952 0.665812
0.706279 0.862720 0.658616
0.723814 0.862403 0.653827
0.743104 0.863332 0.649734
0.763488 0.867896 0.637809
0.789772 0.867518 0.631842
0.817968 0.870746 0.616527
0.849328 0.873368 0.611797
0.886010 0.873150 0.597273
0.924504 0.873259 0.583791
0.955804 0.872864 0.572238
0.999895 0.878758 0.576339
0.759216 0.906141 0.747188
0.762401 0.909416 0.751050
0.761698 0.910800 0.742426
0.768183 0.912537 0.743147
0.779328 0.913306 0.747454
0.791468 0.914075 0.748747
0.805039 0.916646 0.747431
0.813664 0.917015 0.744809
0.829888 0.919727 0.738131
0.847316 0.918723 0.729994
0.866931 0.919775 0.718202
0.899023 0.922726 0.714326
0.919639 0.923901 0.704310
0.942255 0.926868 0.694451
0.976962 0.930499 0.688993
0.999889 0.927840 0.677917
0.846564 0.951735 0.820956
0.844057 0.957324 0.817841
0.848980 0.960567 0.824096
0.855338 0.956667 0.825519
0.860969 0.961404 0.828120
0.865093 0.961394 0.829668
0.869948 0.959096 0.825022
0.884288 0.964489 0.820973
0.893126 0.963635 0.820100
0.901985 0.969330 0.815295
0.923805 0.963744 0.818566
0.930790 0.966826 0.808302
0.948669 0.971663 0.807276
0.972597 0.970858 0.804145
0.991875 0.976480 0.800791
1.000000 0.982877 0.800802
0.079852 0.104260 0.113489
0.081451 0.106659 0.106659
0.081451 0.106659 0.106659
0.088330 0.108356 0.110939
0.105625 0.110931 0.108703
0.127747 0.110120 0.116791
0.162592 0.110931 0.113420
0.206388 0.106718 0.117223
0.262511 0.100004 0.117596
0.329465 0.097565 0.118274
0.399139 0.090057 0.112646
0.481271 0.066405 0.116728
0.566304 0.032056 0.118021
0.656809 0.000000 0.116791
0.764691 0.000000 0.113130
0.857098 0.000000 0.101017
0.083237 0.111798 0.110941
0.079832 0.109525 0.104255
0.088274 0.102581 0.110432
0.094189 0.108433 0.115094
0.110686 0.112598 0.113450
0.133482 0.111786 0.105945
0.173347 0.110931 0.111183
0.218701 0.109763 0.117596
0.271588 0.110832 0.117509
0.337007 0.104144 0.116006
0.410493 0.093347 0.115072
0.486118 0.079876 0.116423
0.570058 0.050765 0.117715
0.660342 0.002453 0.109925
0.762700 0.000000 0.107167
0.861757 0.000000 0.107604
0.078621 0.115626 0.107994
0.079419 0.117096 0.112917
0.098013 0.116571 0.120342
0.104332 0.115870 0.114306
0.127241 0.117115 0.116369
0.154325 0.121341 0.114673
0.189898 0.120134 0.114612
0.236897 0.121904 0.118684
0.286796 0.120489 0.113452
0.350829 0.118199 0.115845
0.413353 0.107196 0.112262
0.477569 0.098018 0.113013
0.548072 0.078269 0.109270
0.630164 0.046544 0.107520
0.726646 0.002045 0.106093
0.824275 0.000000 0.098283
0.089991 0.130176 0.121722
0.092428 0.134515 0.124701
0.101740 0.133856 0.126802
0.113973 0.138002 0.122310
0.142601 0.139444 0.118444
0.170053 0.141730 0.119291
0.212909 0.143409 0.117386
0.267472 0.143347 0.117571
0.321947 0.145585 0.117690
0.383485 0.142611 0.113254
0.450441 0.135095 0.115149
0.528692 0.128547 0.109935
0.606850 0.115150 0.106745
0.694036 0.097265 0.100879
0.786441 0.074704 0.098121
0.879517 0.050314 0.097530
0.098325 0.155170 0.135695
0.101676 0.159859 0.136147
0.105209 0.169662 0.143093
0.120675 0.170299 0.130360
0.153796 0.177451 0.130423
0.188257 0.179223 0.125916
0.237707 0.178326 0.122127
0.298361 0.187265 0.122823
0.354738 0.185604 0.112519
0.417698 0.185713 0.115959
0.485542 0.182903 0.111166
0.563631 0.178796 0.108943
0.641920 0.170533 0.110264
0.731606 0.161684 0.101478
0.819244 0.158517 0.096066
0.909755 0.158497 0.086299
0.108356 0.207233 0.154267
0.109232 0.206482 0.155089
0.125090 0.209777 0.160064
0.140143 0.217096 0.147626
0.167595 0.223785 0.144108
0.212237 0.232855 0.143518
0.264018 0.234499 0.136829
0.328086 0.236194 0.126715
0.380322 0.239356 0.114351
0.447912 0.237187 0.110694
0.510492 0.236987 0.107562
0.574526 0.228672 0.104181
0.643550 0.223322 0.099640
0.707653 0.217129 0.095826
0.800180 0.224196 0.082582
0.897143 0.230237 0.077332
0.128427 0.274804 0.184839
0.134301 0.282478 0.189540
0.143421 0.285396 0.186556
0.165218 0.289397 0.180353
0.197927 0.296742 0.183113
0.247703 0.301033 0.168362
0.304376 0.306464 0.162395
0.361145 0.308814 0.152070
0.422032 0.309807 0.136051
0.490199 0.308472 0.126123
0.552521 0.305975 0.110941
0.622442 0.303445 0.096817
0.697056 0.304287 0.089167
0.770421 0.310011 0.091495
0.841234 0.311010 0.085323
0.916461 0.321436 0.080689
0.155487 0.361592 0.225576
0.162584 0.355782 0.226301
0.180163 0.364694 0.223082
0.211065 0.371004 0.228421
0.237282 0.374990 0.214320
0.287086 0.382814 0.217686
0.341584 0.390560 0.200734
0.408504 0.394494 0.188435
0.462894 0.392218 0.165512
0.530012 0.392419 0.156378
0.602850 0.391796 0.140984
0.675807 0.394623 0.120532
0.753578 0.396241 0.100922
0.822253 0.402836 0.080705
0.894337 0.413317 0.076489
0.962842 0.427124 0.089868
0.209735 0.440608 0.265718
0.213110 0.446245 0.264031
0.226898 0.450278 0.257853
0.256381 0.458897 0.266076
0.287075 0.457666 0.259839
0.326369 0.465752 0.252549
0.375568 0.467117 0.237647
0.430922 0.473051 0.224646
0.501661 0.476012 0.210048
0.559563 0.475455 0.194109
0.618066 0.471467 0.175874
0.685419 0.469862 0.153324
0.746360 0.467817 0.127126
0.816627 0.468622 0.109927
0.885862 0.477161 0.093421
0.963724 0.497407 0.090768
0.269993 0.531952 0.317005
0.285344 0.537050 0.325501
0.302817 0.543448 0.328362
0.319879 0.546323 0.322589
0.351471 0.550611 0.321148
0.386770 0.551936 0.308368
0.427577 0.561590 0.302750
0.475940 0.564032 0.291312
0.534276 0.564936 0.271238
0.593091 0.562427 0.255482
0.650401 0.551351 0.230081
0.706585 0.549110 0.206841
0.767861 0.549856 0.188600
0.825516 0.551495 0.167998
0.892185 0.556340 0.154839
0.956782 0.572341 0.148982
0.359125 0.632666 0.397528
0.379480 0.639893 0.402393
0.384764 0.640361 0.401318
0.402392 0.644794 0.393350
0.433367 0.651124 0.400566
0.464941 0.652789 0.396649
0.497500 0.654492 0.381915
0.541256 0.662542 0.370975
0.588988 0.662483 0.355054
0.649580 0.663142 0.343711
0.707624 0.666565 0.325525
0.760045 0.657646 0.302649
0.816542 0.653136 0.284109
0.876486 0.662483 0.273975
0.934826 0.667926 0.274724
0.991804 0.689822 0.280475
0.456127 0.710833 0.484466
0.468199 0.714213 0.488664
0.480511 0.718973 0.491023
0.489488 0.724797 0.488363
0.511592 0.723847 0.483677
0.533114 0.726257 0.474791
0.557969 0.728330 0.468295
0.595536 0.732311 0.457665
0.636079 0.728648 0.442438
0.681160 0.736515 0.429124
0.728540 0.736620 0.408107
0.779229 0.734810 0.384086
0.823140 0.722575 0.357113
0.873343 0.716177 0.343195
0.926445 0.731282 0.345393
0.990838 0.748616 0.358967
0.543899 0.779143 0.553038
0.561714 0.788940 0.570325
0.568007 0.788321 0.572289
0.587385 0.791306 0.571916
0.600142 0.794815 0.570612
0.615970 0.791746 0.562594
0.637810 0.798537 0.557758
0.660279 0.796340 0.546652
0.687503 0.799293 0.538181
0.721113 0.798113 0.518861
0.757482 0.793667 0.496280
0.797825 0.791598 0.473285
0.833561 0.790680 0.445894
0.875948 0.782782 0.425577
0.926388 0.783008 0.417458
0.982013 0.796012 0.434781
0.674641 0.857207 0.668148
0.677580 0.857454 0.671414
0.683493 0.860067 0.671464
0.687791 0.864121 0.668624
0.700754 0.864526 0.675064
0.711694 0.864526 0.673829
0.726415 0.862953 0.665848
0.744359 0.866430 0.661750
0.760011 0.870121 0.650353
0.793552 0.868350 0.644762
0.821868 0.870953 0.635109
0.851265 0.875665 0.622257
0.887740 0.874506 0.611723
0.927952 0.875662 0.599962
0.961234 0.875659 0.589513
0.993369 0.877323 0.580176
0.769629 0.909769 0.748634
0.757168 0.910232 0.748266
0.769992 0.913835 0.748277
0.774508 0.914887 0.756178
0.785259 0.913203 0.753303
0.792782 0.915881 0.753205
0.798034 0.917419 0.753155
0.814235 0.917563 0.749277
0.835230 0.918086 0.744889
0.851647 0.922653 0.737148
0.866931 0.922836 0.730028
0.892476 0.924009 0.725762
0.921783 0.923305 0.717763
0.945413 0.930860 0.704556
0.974769 0.932255 0.696618
0.999605 0.925537 0.688566
0.847396 0.955040 0.832238
0.849011 0.955770 0.828959
0.853013 0.959676 0.830511
0.856347 0.956579 0.836074
0.863539 0.962201 0.831683
0.874682 0.961380 0.836066
0.871556 0.962191 0.832976
0.889273 0.960905 0.826033
0.895537 0.965302 0.822548
0.906334 0.963951 0.819644
0.920450 0.967804 0.824859
0.936629 0.968568 0.818432
0.956147 0.966560 0.808874
0.974156 0.969364 0.810341
0.991737 0.976520 0.810330
1.000000 0.986902 0.811065
0.073120 0.107562 0.116693
0.073357 0.107433 0.114408
0.079046 0.110939 0.120966
0.088330 0.111211 0.121271
0.102591 0.114301 0.123386
0.124267 0.120172 0.130127
0.160159 0.117597 0.131322
0.208118 0.120172 0.138471
0.264949 0.116327 0.147211
0.328064 0.109240 0.143481
0.402295 0.096662 0.159308
0.489143 0.077969 0.153422
0.579233 0.039228 0.155151
0.664116 0.000469 0.148009
0.767267 0.000000 0.140966
0.860175 0.000000 0.154325
0.072648 0.109795 0.117597
0.073842 0.116041 0.124641
0.085099 0.114698 0.122251
0.099828 0.115855 0.122088
0.113360 0.116132 0.124359
0.132192 0.119386 0.130875
0.167938 0.123003 0.142533
0.218304 0.125924 0.145651
0.274720 0.123013 0.151436
0.341758 0.110069 0.152083
0.413064 0.097076 0.147472
0.493477 0.084213 0.148475
0.576904 0.051427 0.148712
0.667508 0.003534 0.141037
0.770492 0.000000 0.148588
0.865505 0.000000 0.147549
0.068906 0.123407 0.137641
0.076086 0.125751 0.130299
0.091283 0.121856 0.133551
0.103794 0.125232 0.133112
0.120120 0.128482 0.135722
0.150073 0.129275 0.140130
0.188342 0.132635 0.145775
0.233791 0.129632 0.149164
0.291238 0.130069 0.145951
0.363482 0.121646 0.148363
0.437345 0.113452 0.149264
0.505547 0.097526 0.147759
0.582966 0.079483 0.144829
0.671094 0.038734 0.145507
0.756257 0.000190 0.138340
0.862591 0.000000 0.143407
0.081883 0.137839 0.137970
0.085023 0.140706 0.139727
0.098004 0.143507 0.143416
0.119018 0.141475 0.149261
0.144404 0.145153 0.147439
0.173484 0.154307 0.149861
0.223571 0.152184 0.147973
0.275797 0.147941 0.148805
0.330319 0.147494 0.147792
0.403610 0.150558 0.150092
0.462634 0.143148 0.146781
0.547078 0.131617 0.152376
0.625693 0.111304 0.144794
0.709872 0.093353 0.144515
0.797348 0.074074 0.141786
0.887878 0.052898 0.134307
0.105860 0.167553 0.159266
0.113459 0.166684 0.157991
0.122464 0.176540 0.167403
0.129222 0.180461 0.158694
0.155887 0.188282 0.162611
0.203162 0.186505 0.157602
0.254288 0.185820 0.149242
0.310848 0.189338 0.151028
0.371434 0.189443 0.148970
0.431429 0.189125 0.147362
0.503192 0.182532 0.144305
0.584503 0.176453 0.149085
0.664588 0.169197 0.143481
0.752006 0.161705 0.139731
0.825014 0.157911 0.139577
0.918004 0.154219 0.131850
0.118427 0.213819 0.180817
0.128335 0.217833 0.184256
0.131030 0.221350 0.189066
0.145519 0.229163 0.183656
0.177527 0.238537 0.186649
0.225415 0.242780 0.180011
0.279770 0.243680 0.170014
0.344444 0.245142 0.157602
0.402342 0.243139 0.149246
0.469899 0.243561 0.144287
0.533081 0.240204 0.144305
0.605858 0.236089 0.141149
0.676958 0.233674 0.140924
0.749862 0.227717 0.139279
0.840393 0.228772 0.131813
0.926032 0.240173 0.134317
0.145119 0.291920 0.225302
0.149867 0.294464 0.227231
0.160553 0.298548 0.230644
0.182965 0.304688 0.225111
0.214240 0.307828 0.223937
0.255105 0.311188 0.208331
0.312683 0.321402 0.202171
0.375473 0.322415 0.190577
0.439223 0.321996 0.174196
0.510384 0.319946 0.166486
0.579882 0.318139 0.151225
0.647239 0.316316 0.141577
0.716609 0.311948 0.135300
0.784938 0.316087 0.138715
0.856410 0.317521 0.141034
0.931274 0.326348 0.138372
0.170069 0.369761 0.265697
0.189932 0.370686 0.268032
0.198586 0.379874 0.263098
0.225104 0.384041 0.262349
0.255082 0.388626 0.265192
0.293634 0.395059 0.249358
0.348538 0.401670 0.238666
0.413762 0.405966 0.224987
