lib/luts/Holmberg.CUBE
LUT_3D_SIZE 6
0.077423 0.102661 0.094086
0.093274 0.101740 0.097565
0.155158 0.103454 0.099206
0.317401 0.099206 0.092468
0.564704 0.035779 0.089154
0.867325 0.000000 0.056205
0.080658 0.125171 0.110931
0.107983 0.128442 0.101315
0.200722 0.141651 0.094075
0.373034 0.144305 0.098387
0.610025 0.121778 0.085770
0.894641 0.072333 0.048550
0.118481 0.269782 0.158344
0.161590 0.283217 0.145198
0.291257 0.302501 0.120069
0.487731 0.305866 0.089898
0.709283 0.313251 0.034195
0.927640 0.331331 0.000106
0.264838 0.538788 0.288696
0.310917 0.550173 0.289590
0.430085 0.559943 0.260907
0.599281 0.569341 0.208628
0.779657 0.561458 0.145892
0.980445 0.582527 0.119327
0.556696 0.790588 0.541180
0.580065 0.800135 0.561505
0.635856 0.801794 0.544433
0.728698 0.802783 0.504804
0.847888 0.808352 0.449225
0.990877 0.806623 0.422742
0.843550 0.959625 0.835297
0.858659 0.958863 0.830577
0.877187 0.963747 0.825030
0.909192 0.965270 0.820927
0.959596 0.970238 0.812039
1.000000 0.983658 0.803191
0.073120 0.107562 0.116693
0.088330 0.111211 0.121271
0.160159 0.117597 0.131322
0.328064 0.109240 0.143481
0.579233 0.039228 0.155151
0.860175 0.000000 0.154325
0.081883 0.137839 0.137970
0.119018 0.141475 0.149261
0.223571 0.152184 0.147973
0.403610 0.150558 0.150092
0.625693 0.111304 0.144794
0.887878 0.052898 0.134307
0.145119 0.291920 0.225302
0.182965 0.304688 0.225111
0.312683 0.321402 0.202171
0.510384 0.319946 0.166486
0.716609 0.311948 0.135300
0.931274 0.326348 0.138372
0.298519 0.547834 0.367295
0.335357 0.560761 0.366447
0.441319 0.569730 0.344911
0.609523 0.575585 0.301752
0.784449 0.560969 0.241534
0.979687 0.580916 0.202354
0.573585 0.789703 0.600342
0.598604 0.795796 0.598756
0.647147 0.802009 0.589548
0.729304 0.803554 0.552359
0.844858 0.800669 0.493910
0.983741 0.808154 0.471392
0.856991 0.951714 0.835341
0.859072 0.959310 0.839398
0.876369 0.965257 0.839428
0.906094 0.966905 0.824152
0.951721 0.978199 0.812084
1.000000 0.980599 0.817694
0.000000 0.135162 0.252655
0.048823 0.131752 0.250566
0.175857 0.167371 0.224720
0.329729 0.183239 0.282196
0.545313 0.197278 0.332865
0.828825 0.171080 0.381952
0.000000 0.204673 0.312272
0.046304 0.193768 0.301919
0.221183 0.221868 0.277297
0.381114 0.235122 0.325746
0.590531 0.245833 0.360479
0.858844 0.175147 0.356085
0.101074 0.349890 0.364700
0.190854 0.360085 0.387125
0.346371 0.378347 0.405640
0.532758 0.365524 0.388235
0.723787 0.343618 0.371108
0.927013 0.338224 0.355637
0.400745 0.565531 0.514517
0.430187 0.578614 0.530623
0.491229 0.601155 0.526585
0.626798 0.606852 0.488125
0.795349 0.583527 0.424691
0.971721 0.586643 0.377929
0.609159 0.786581 0.677794
0.632628 0.797677 0.681803
0.670092 0.803704 0.675169
0.736371 0.810567 0.654273
0.844588 0.805832 0.604915
0.982243 0.813799 0.576073
0.845795 0.954964 0.851550
0.860993 0.957544 0.859395
0.880581 0.964781 0.855693
0.908441 0.968592 0.852320
0.950954 0.969374 0.836998
1.000000 0.983646 0.836887
0.000000 0.212182 0.496637
0.000000 0.203955 0.495856
0.173369 0.225347 0.468303
0.358880 0.296451 0.429686
0.553417 0.314811 0.505206
0.796056 0.373754 0.588256
0.000000 0.296159 0.539630
0.000000 0.276326 0.533620
0.206936 0.274767 0.507134
0.402178 0.346619 0.472790
0.574320 0.358160 0.523402
0.810551 0.406342 0.597091
0.000000 0.460931 0.601907
0.000000 0.459766 0.607507
0.301109 0.437819 0.603386
0.502068 0.471840 0.555429
0.656047 0.479615 0.593061
0.840201 0.495757 0.630905
0.356576 0.616502 0.645498
0.418824 0.630262 0.660164
0.514726 0.638357 0.669989
0.645050 0.651808 0.686048
0.781398 0.621174 0.652239
0.945666 0.596826 0.619157
0.676996 0.777511 0.757081
0.694120 0.796885 0.774408
0.718096 0.806090 0.774843
0.763480 0.822076 0.772382
0.845910 0.820785 0.733724
0.978056 0.827966 0.715263
0.865901 0.959625 0.885366
0.870026 0.960571 0.890889
0.891548 0.962975 0.892547
0.913341 0.970662 0.885611
0.946884 0.978734 0.878111
1.000000 0.987748 0.873046
0.000000 0.363244 0.760040
0.000000 0.350110 0.754413
0.016832 0.338665 0.734283
0.462660 0.401596 0.707588
0.608707 0.495050 0.661685
0.781505 0.533050 0.731756
0.000000 0.424369 0.764044
0.000000 0.412044 0.763899
0.074810 0.381458 0.758329
0.479534 0.443628 0.715012
0.620136 0.519889 0.679005
0.779199 0.550121 0.734904
0.000000 0.561450 0.791362
0.000000 0.563604 0.794252
0.280882 0.530420 0.785545
0.539708 0.534893 0.756096
0.668477 0.597180 0.706579
0.808814 0.620471 0.763898
0.110821 0.724881 0.813011
0.159261 0.728003 0.825220
0.366931 0.719408 0.823414
0.613205 0.684794 0.814271
0.749714 0.708906 0.772465
0.869228 0.722347 0.805699
0.642957 0.839144 0.847967
0.661963 0.844534 0.852069
0.708280 0.845890 0.861233
0.772241 0.846924 0.863484
0.868363 0.864913 0.873050
0.971828 0.847135 0.851570
0.912530 0.955780 0.930127
0.916505 0.954168 0.923796
0.925287 0.960528 0.926968
0.935720 0.970901 0.929371
0.957916 0.981397 0.926145
1.000000 0.994885 0.918055
0.201420 0.642025 0.943741
0.293407 0.630703 0.947752
0.440033 0.619337 0.937377
0.643774 0.645238 0.924536
0.795123 0.705855 0.898807
0.867431 0.790999 0.879517
0.239610 0.665391 0.945361
0.324208 0.658191 0.938059
0.462990 0.645285 0.943868
0.639694 0.662239 0.928510
0.795991 0.718650 0.902720
0.885803 0.790286 0.888329
0.350787 0.744483 0.946044
0.416126 0.737457 0.947831
0.517410 0.723436 0.941858
0.657391 0.707418 0.929242
0.815282 0.759710 0.916385
0.897116 0.825541 0.903565
0.392071 0.850579 0.946056
0.444739 0.849040 0.952456
0.548874 0.829753 0.954948
0.698349 0.807746 0.948845
0.849007 0.822583 0.942670
0.928433 0.865070 0.924503
0.694420 0.951019 0.970865
0.709823 0.947706 0.964521
0.720400 0.943723 0.957377
0.755932 0.930185 0.960541
0.875961 0.903325 0.947807
0.964595 0.929390 0.943846
0.919631 0.999741 0.963790
0.922870 0.999990 0.963778
0.938019 0.999956 0.966129
0.949352 0.998246 0.963761
0.967740 0.999997 0.972531
1.000000 1.000000 0.967881
