lib/luts/Lundmark.CUBE
LUT_3D_SIZE 16
0.058955 0.058955 0.058955
0.058955 0.058955 0.058955
0.066698 0.059103 0.059103
0.138371 0.061395 0.061395
0.214547 0.065214 0.065214
0.301031 0.069134 0.069134
0.387165 0.070805 0.070805
0.467108 0.075820 0.075820
0.540867 0.083265 0.083265
0.611296 0.091908 0.091908
0.673909 0.100892 0.100892
0.725826 0.109326 0.109326
0.767840 0.116733 0.116733
0.803747 0.123588 0.123498
0.835225 0.130095 0.129745
0.862021 0.135862 0.135294
0.058955 0.058955 0.058955
0.058955 0.058955 0.058955
0.063972 0.059049 0.059049
0.113073 0.060395 0.060395
0.166858 0.062736 0.062736
0.226073 0.065822 0.065822
0.287215 0.068645 0.068645
0.360337 0.070417 0.070417
0.433767 0.072989 0.072962
0.515237 0.080578 0.080502
0.594497 0.089868 0.089704
0.659842 0.099075 0.098775
0.717535 0.108310 0.107908
0.766742 0.117503 0.116547
0.805726 0.125677 0.123937
0.835624 0.132438 0.129871
0.059408 0.076136 0.066307
0.059248 0.070584 0.063145
0.096013 0.061602 0.059848
0.143497 0.064526 0.061646
0.192993 0.074458 0.064152
0.251879 0.084876 0.067279
0.313813 0.093341 0.069740
0.379830 0.100101 0.070988
0.445474 0.106469 0.074301
0.506944 0.111874 0.080013
0.568258 0.117579 0.086815
0.625979 0.123219 0.094282
0.676260 0.129560 0.101643
0.721888 0.136280 0.109049
0.763515 0.143487 0.116343
0.798730 0.150947 0.122973
0.061588 0.128302 0.095823
0.075204 0.129314 0.099558
0.127547 0.124322 0.093139
0.191222 0.090144 0.064217
0.243481 0.098023 0.067007
0.300178 0.107389 0.069508
0.358374 0.115912 0.070902
0.419089 0.124283 0.072560
0.487279 0.134460 0.078451
0.549136 0.143829 0.085041
0.609509 0.153188 0.092588
0.667123 0.162610 0.100868
0.714937 0.171104 0.108558
0.756778 0.179096 0.115853
0.795208 0.186902 0.123051
0.829793 0.194530 0.129903
0.075239 0.193636 0.130080
0.110317 0.202763 0.131238
0.169994 0.194553 0.145002
0.224085 0.160652 0.107263
0.292141 0.122751 0.069463
0.352564 0.130567 0.071060
0.414837 0.138876 0.072587
0.477345 0.148435 0.077796
0.543497 0.158964 0.084718
0.602481 0.168659 0.092005
0.654775 0.177668 0.099382
0.703676 0.186765 0.107083
0.747625 0.195475 0.114653
0.784178 0.203173 0.121384
0.817843 0.210533 0.127951
0.848827 0.217920 0.134291
0.111481 0.270183 0.157699
0.145338 0.281886 0.156908
0.216562 0.266510 0.185146
0.265546 0.251723 0.174411
0.327401 0.202168 0.117565
0.395154 0.154220 0.072214
0.462430 0.163264 0.076788
0.527216 0.172733 0.083268
0.592233 0.183035 0.091048
0.650067 0.192724 0.099085
0.698448 0.201325 0.106616
0.743165 0.210039 0.114261
0.784183 0.218556 0.121790
0.818351 0.226252 0.128495
0.848007 0.233159 0.134591
0.875651 0.240222 0.140452
0.144114 0.358857 0.172818
0.183002 0.369460 0.178272
0.265215 0.354837 0.219985
0.319240 0.343512 0.211337
0.350949 0.304410 0.193176
0.425016 0.250448 0.128709
0.502171 0.192906 0.081247
0.560543 0.197770 0.087644
0.625589 0.207772 0.096068
0.683291 0.217353 0.104725
0.728851 0.225624 0.112292
0.771322 0.233935 0.119917
0.809653 0.242088 0.127306
0.842935 0.249855 0.134093
0.870485 0.256594 0.139896
0.900794 0.263753 0.146532
0.168111 0.454826 0.172168
0.231643 0.459960 0.207194
0.306001 0.450104 0.241110
0.357318 0.431715 0.239327
0.420526 0.426236 0.222538
0.437409 0.364378 0.197271
0.503544 0.309198 0.139829
0.583625 0.240425 0.091754
0.646214 0.233694 0.099766
0.700463 0.241833 0.108190
0.746010 0.249779 0.115978
0.787417 0.257831 0.123651
0.825175 0.265954 0.131123
0.857921 0.273472 0.137927
0.885110 0.280251 0.143793
0.917565 0.287614 0.150972
0.210053 0.553082 0.191348
0.276655 0.556980 0.228956
0.339900 0.552498 0.251449
0.391810 0.535344 0.251125
0.448805 0.517529 0.243122
0.516957 0.510684 0.221266
0.520855 0.435796 0.191557
0.575613 0.376485 0.145336
0.645986 0.306443 0.103689
0.716568 0.278026 0.112109
0.761013 0.277143 0.119632
0.798665 0.283390 0.126687
0.834250 0.290249 0.133809
0.867205 0.297579 0.140747
0.895003 0.304301 0.146815
0.931427 0.312916 0.154957
0.247512 0.650428 0.205881
0.314337 0.653947 0.242141
0.365674 0.654093 0.250424
0.417030 0.638638 0.249496
0.475320 0.622157 0.244658
0.536644 0.606059 0.233488
0.606335 0.596977 0.211906
0.608704 0.512966 0.175704
0.644095 0.444301 0.145389
0.705648 0.384576 0.117312
0.758912 0.348367 0.122483
0.812365 0.330245 0.131328
0.850546 0.322184 0.138408
0.880000 0.325145 0.144572
0.904958 0.330108 0.150025
0.953267 0.343163 0.161038
0.279748 0.732613 0.216562
0.341129 0.735483 0.243703
0.384901 0.736853 0.243492
0.434997 0.723527 0.241248
0.492084 0.709325 0.236273
0.552442 0.693892 0.228160
0.619905 0.680010 0.215169
0.681862 0.656160 0.194174
0.684073 0.566870 0.162136
0.704617 0.498650 0.143173
0.755539 0.451333 0.129847
0.803573 0.413948 0.134255
0.848397 0.392217 0.141559
0.892571 0.377976 0.149752
0.921736 0.370299 0.155522
0.959367 0.380993 0.164207
0.310266 0.803648 0.225725
0.357347 0.806692 0.235106
0.400307 0.807144 0.234118
0.447986 0.795737 0.231154
0.502444 0.783098 0.227082
0.563842 0.769512 0.220279
0.631655 0.754491 0.211042
0.709193 0.744456 0.197897
0.746685 0.692791 0.178702
0.747874 0.611589 0.156402
0.756501 0.544574 0.143705
0.803095 0.504137 0.140525
0.847206 0.470829 0.146325
0.887063 0.449002 0.152836
0.920570 0.433296 0.158812
0.954806 0.440661 0.169338
0.334411 0.863989 0.227503
0.371706 0.866277 0.227041
0.412865 0.865415 0.225838
0.459556 0.855446 0.223102
0.513581 0.844355 0.219318
0.576056 0.832325 0.214503
0.645285 0.819523 0.208195
0.717828 0.805560 0.199899
0.796865 0.799148 0.192141
0.802960 0.727435 0.177922
0.804192 0.654493 0.163250
0.809818 0.590811 0.154660
0.850821 0.559455 0.158560
0.889935 0.531672 0.161195
0.923111 0.512149 0.165837
0.952446 0.511855 0.182234
0.347700 0.912746 0.224835
0.385538 0.914498 0.224483
0.427260 0.912868 0.223390
0.474377 0.903549 0.220848
0.529234 0.893671 0.217668
0.592052 0.883420 0.214040
0.661912 0.872154 0.209703
0.733859 0.860478 0.205248
0.802131 0.849591 0.200943
0.849576 0.822689 0.195606
0.851279 0.753839 0.185162
0.853177 0.688608 0.175822
0.858494 0.632522 0.171195
0.894269 0.609639 0.180303
0.926826 0.588299 0.184173
0.955081 0.582389 0.200067
0.363884 0.951113 0.227852
0.402841 0.952484 0.227753
0.445285 0.950079 0.226934
0.492956 0.941516 0.224959
0.547892 0.932704 0.222260
0.611614 0.923535 0.219764
0.681242 0.913708 0.217214
0.749957 0.903782 0.214856
0.812628 0.893810 0.212841
0.876330 0.886790 0.211623
0.888625 0.830693 0.204467
0.890526 0.768282 0.197150
0.892804 0.710936 0.191036
0.899688 0.666102 0.190882
0.930290 0.649356 0.202100
0.957707 0.640701 0.218345
0.383646 0.985142 0.235403
0.423195 0.986418 0.235580
0.466059 0.983525 0.234861
0.514188 0.975657 0.233029
0.570553 0.967257 0.231423
0.634535 0.958765 0.229932
0.702515 0.950081 0.228713
0.764722 0.941477 0.227560
0.825330 0.932874 0.227181
0.883594 0.924251 0.226900
0.921251 0.895635 0.223701
0.923055 0.835589 0.217385
0.925101 0.780598 0.212358
0.926799 0.731661 0.208260
0.933872 0.697333 0.210645
0.960492 0.694755 0.242429
0.058955 0.058955 0.058955
0.058977 0.058977 0.060201
0.080909 0.059416 0.059547
0.175202 0.063153 0.063153
0.267933 0.067863 0.067863
0.354750 0.070338 0.070338
0.432693 0.072881 0.072881
0.513512 0.080308 0.080308
0.587174 0.088766 0.088766
0.652464 0.097678 0.097678
0.711194 0.106869 0.106869
0.760949 0.115490 0.115490
0.800170 0.122827 0.122827
0.834382 0.129622 0.129573
0.864147 0.136095 0.135744
0.890537 0.141974 0.141376
0.059070 0.059070 0.065523
0.059273 0.059291 0.076051
0.059690 0.059134 0.069018
0.127571 0.060954 0.062180
0.213838 0.065188 0.065188
0.287502 0.068662 0.068662
0.351704 0.070283 0.070283
0.417804 0.071831 0.071831
0.492292 0.078183 0.078183
0.577315 0.087539 0.087539
0.652673 0.097704 0.097704
0.712555 0.107085 0.107085
0.765159 0.116303 0.116260
0.809592 0.124903 0.124673
0.844346 0.132187 0.131613
0.872172 0.138226 0.137420
0.059706 0.083361 0.085680
0.059868 0.088765 0.089719
0.082596 0.082511 0.080798
0.162143 0.077708 0.063848
0.231381 0.077891 0.066203
0.282515 0.084223 0.068606
0.336494 0.089947 0.070220
0.396188 0.093639 0.071230
0.455755 0.098474 0.075072
0.515362 0.103299 0.080757
0.579177 0.109308 0.088022
0.638575 0.116277 0.095912
0.689978 0.123356 0.103676
0.736715 0.130845 0.111458
0.777950 0.138462 0.118894
0.811573 0.145883 0.125354
0.061594 0.128100 0.106325
0.065906 0.136199 0.113538
0.116898 0.135886 0.115521
0.193485 0.113755 0.076490
0.262701 0.100431 0.067943
0.312701 0.107813 0.069878
0.367054 0.115388 0.071003
0.428334 0.123651 0.073176
0.495166 0.133779 0.079198
0.557100 0.142962 0.085946
0.617321 0.152217 0.093602
0.673922 0.161560 0.101861
0.720611 0.169963 0.109472
0.762121 0.177903 0.116770
0.800154 0.185726 0.123948
0.834489 0.193325 0.130802
0.066428 0.190357 0.140375
0.101202 0.204169 0.146656
0.155562 0.201067 0.151399
0.218419 0.177916 0.135959
0.308201 0.136640 0.072358
0.362632 0.131334 0.071213
0.422149 0.139136 0.072994
0.484550 0.148784 0.078472
0.550233 0.159298 0.085489
0.607823 0.168759 0.092707
0.659562 0.177730 0.100085
0.708688 0.186795 0.107862
0.751447 0.195457 0.115294
0.787922 0.203099 0.122065
0.821628 0.210632 0.128699
0.852449 0.218027 0.135032
0.107457 0.267283 0.177329
0.136133 0.283235 0.172193
0.201573 0.278737 0.189778
0.267986 0.268159 0.190239
0.323816 0.222141 0.148807
0.417575 0.165284 0.073298
0.469624 0.164365 0.077449
0.533730 0.173648 0.083998
0.598391 0.183835 0.091850
0.655523 0.193371 0.099880
0.703210 0.201867 0.107385
0.747824 0.210641 0.115070
0.788329 0.218999 0.122583
0.821776 0.226590 0.129167
0.851280 0.233608 0.135241
0.881972 0.240863 0.141792
0.145753 0.356983 0.200230
0.167015 0.373679 0.185234
0.248321 0.370501 0.222962
0.312357 0.351804 0.225891
0.352566 0.320655 0.209883
0.424311 0.270724 0.158457
0.511585 0.206500 0.084347
0.569255 0.199755 0.088711
0.630743 0.208889 0.096823
0.687375 0.218244 0.105380
0.733020 0.226568 0.113015
0.774871 0.234735 0.120597
0.813156 0.242912 0.128010
0.845891 0.250566 0.134691
0.873054 0.257182 0.140466
0.907529 0.264920 0.147997
0.173450 0.454207 0.202283
0.198867 0.468891 0.194473
0.289662 0.468417 0.246570
0.351819 0.447231 0.253354
0.415767 0.435719 0.238211
0.440440 0.382293 0.214963
0.504543 0.330582 0.168170
0.589521 0.259646 0.100364
0.657505 0.237873 0.101528
0.705122 0.243565 0.108980
0.749656 0.251164 0.116670
0.790850 0.259011 0.124336
0.828479 0.267110 0.131803
0.861034 0.274610 0.138572
0.887937 0.281136 0.144406
0.925709 0.289591 0.152808
0.192643 0.558639 0.192215
0.243275 0.566097 0.216155
0.327001 0.567772 0.262093
0.384601 0.552006 0.265343
0.444731 0.531757 0.258855
0.516654 0.524876 0.238459
0.529243 0.458608 0.211386
0.577948 0.398766 0.172636
0.651955 0.334508 0.125650
0.723243 0.289026 0.113962
0.769662 0.281065 0.121303
0.805213 0.285926 0.128048
0.839717 0.292399 0.134978
0.871909 0.299389 0.141779
0.899375 0.305950 0.147809
0.945144 0.317092 0.158123
0.223352 0.656873 0.201445
0.280487 0.662154 0.230473
0.354962 0.664948 0.265901
0.408937 0.655180 0.265915
0.469617 0.637580 0.261958
0.531991 0.619222 0.252067
0.607176 0.613219 0.232080
0.618080 0.537227 0.198680
0.647780 0.468119 0.172638
0.710942 0.416659 0.147236
0.763403 0.372943 0.131799
0.816281 0.343647 0.133380
0.862220 0.329609 0.141116
0.892771 0.331502 0.147519
0.918861 0.335816 0.153240
0.963097 0.352046 0.163623
0.250830 0.739190 0.210256
0.314122 0.742431 0.242374
0.375014 0.745731 0.261637
0.426822 0.738744 0.260745
0.485205 0.724146 0.257299
0.546993 0.709053 0.250164
0.614112 0.692808 0.238916
0.691553 0.683099 0.221172
0.694618 0.595591 0.191597
0.709301 0.528497 0.176839
0.761769 0.488239 0.165722
0.809991 0.452043 0.158067
0.853729 0.423191 0.155848
0.897580 0.403906 0.156982
0.932510 0.392249 0.160081
0.961713 0.405506 0.174428
0.277157 0.808989 0.219135
0.345794 0.811154 0.251998
0.391270 0.814180 0.255208
0.439983 0.808739 0.253749
0.495117 0.796396 0.250540
0.557813 0.783081 0.245507
0.627202 0.768714 0.237699
0.701788 0.755603 0.227135
0.757190 0.723459 0.211855
0.759179 0.646576 0.192783
0.764807 0.581550 0.183880
0.811101 0.548046 0.183926
0.854973 0.517933 0.181959
0.893694 0.493910 0.183186
0.927125 0.476908 0.186469
0.960212 0.477394 0.199467
0.305737 0.867969 0.229845
0.363709 0.869302 0.250368
0.403900 0.871419 0.249766
0.451179 0.867314 0.247895
0.506093 0.856418 0.245318
0.569537 0.844845 0.241185
0.639985 0.832456 0.236225
0.713861 0.819230 0.229635
0.789047 0.810865 0.223221
0.812917 0.759101 0.212548
0.814881 0.689964 0.200484
0.818356 0.627532 0.193225
0.857378 0.599297 0.202211
0.896044 0.573919 0.203677
0.928302 0.554445 0.206673
0.957553 0.545622 0.219640
0.330048 0.915206 0.240378
0.377272 0.916457 0.249880
0.417859 0.918276 0.249373
0.465227 0.914848 0.247697
0.520473 0.905186 0.245188
0.584597 0.894910 0.242629
0.656070 0.884373 0.239227
0.728742 0.873489 0.235727
0.795692 0.862319 0.232218
0.857337 0.851111 0.229297
0.860293 0.784853 0.220570
0.862559 0.721807 0.212924
0.866082 0.665820 0.208538
0.899294 0.643148 0.222155
0.931257 0.622423 0.225073
0.959377 0.610383 0.236181
0.355783 0.952662 0.252871
0.394462 0.953729 0.254219
0.435657 0.955269 0.254086
0.483815 0.952057 0.252961
0.539454 0.943177 0.251185
0.604021 0.934151 0.249384
0.675080 0.924690 0.247551
0.744295 0.915231 0.245904
0.807308 0.905958 0.244715
0.867296 0.896790 0.243667
0.896355 0.857976 0.239331
0.898476 0.797479 0.233440
0.900387 0.741160 0.228411
0.905062 0.694933 0.227913
0.934043 0.678722 0.243278
0.961564 0.665794 0.255381
0.377373 0.985964 0.263280
0.414768 0.987096 0.263277
0.456651 0.988307 0.263402
0.505422 0.985614 0.262700
0.562051 0.977132 0.261622
0.627180 0.968776 0.260769
0.695028 0.960458 0.259402
0.758252 0.952216 0.259247
0.819605 0.943714 0.259219
0.878178 0.935225 0.259559
0.928263 0.921251 0.259259
0.929684 0.861315 0.253929
0.931617 0.807482 0.249862
0.933535 0.759837 0.246817
0.938041 0.722915 0.248107
0.964178 0.717735 0.281086
0.058955 0.058955 0.058955
0.059248 0.059248 0.074685
0.061348 0.059825 0.098025
0.154944 0.062178 0.090197
0.252504 0.067159 0.074901
0.348286 0.070238 0.070666
0.432633 0.072866 0.072866
0.517762 0.080758 0.080758
0.594998 0.089768 0.089768
0.661456 0.099009 0.099009
0.720788 0.108468 0.108468
0.772482 0.117587 0.117587
0.813384 0.125384 0.125384
0.848327 0.132450 0.132450
0.879469 0.138978 0.138978
0.907724 0.145115 0.145115
0.059272 0.059272 0.076022
0.059620 0.061390 0.090079
0.060221 0.069428 0.109203
0.116155 0.062039 0.101413
0.216629 0.065476 0.087300
0.318579 0.069647 0.074465
0.415950 0.071719 0.071759
0.492258 0.078182 0.078182
0.570190 0.086678 0.086678
0.649127 0.097176 0.097176
0.714110 0.107335 0.107335
0.768201 0.116802 0.116802
0.816698 0.126047 0.126047
0.858712 0.134588 0.134588
0.892560 0.141800 0.141800
0.921005 0.148074 0.148068
0.060200 0.089196 0.101733
0.060800 0.101627 0.115905
0.062570 0.111690 0.128234
0.129579 0.104075 0.125330
0.216554 0.102677 0.111746
0.312022 0.102140 0.096297
0.404861 0.099990 0.083909
0.504453 0.098503 0.083077
0.594436 0.100151 0.089801
0.666673 0.107267 0.099894
0.726164 0.115312 0.109443
0.772464 0.123140 0.117661
0.812373 0.130830 0.125262
0.849860 0.138604 0.132839
0.884382 0.146192 0.140133
0.913912 0.153297 0.146602
0.061889 0.132981 0.122629
0.062592 0.144964 0.135902
0.097237 0.154197 0.148933
0.168168 0.150176 0.139996
0.260969 0.148643 0.117475
0.356976 0.141326 0.091377
0.451923 0.131405 0.078705
0.526112 0.131910 0.082308
0.586942 0.137770 0.089414
0.639014 0.145124 0.096453
0.689840 0.153357 0.104139
0.737109 0.161731 0.112061
0.777877 0.169405 0.119427
0.815695 0.177045 0.126735
0.851139 0.184670 0.133935
0.883904 0.192162 0.140910
0.065606 0.190280 0.150103
0.074958 0.202206 0.165152
0.136731 0.216370 0.178349
0.208725 0.210947 0.180292
0.289355 0.191084 0.144713
0.390013 0.171203 0.097471
0.480759 0.154674 0.080119
0.540340 0.155209 0.084297
0.597245 0.162658 0.091214
0.645622 0.171202 0.097927
0.691800 0.179723 0.105013
0.737571 0.188609 0.112748
0.780489 0.197030 0.120536
0.818316 0.204803 0.127897
0.853723 0.212388 0.135139
0.888221 0.220049 0.142511
0.080715 0.261846 0.187940
0.123203 0.277944 0.203543
0.172029 0.295955 0.203720
0.254383 0.284946 0.217919
0.311675 0.254373 0.198020
0.409547 0.227612 0.142964
0.506108 0.193550 0.089638
0.579981 0.183478 0.089554
0.638199 0.187939 0.097264
0.685214 0.196176 0.104417
0.727554 0.204079 0.111458
0.768437 0.212320 0.118766
0.807383 0.220592 0.126214
0.841884 0.228142 0.133205
0.873984 0.235521 0.139985
0.914046 0.243928 0.148730
0.127213 0.353818 0.219099
0.163060 0.370017 0.226321
0.201263 0.387404 0.214704
0.298176 0.372039 0.253364
0.362758 0.357976 0.241166
0.416679 0.306184 0.211232
0.510964 0.269705 0.152339
0.599313 0.232460 0.102059
0.672571 0.221383 0.103314
0.722388 0.224018 0.111163
0.762514 0.230489 0.118249
0.800212 0.237843 0.125395
0.836320 0.245679 0.132624
0.869095 0.253070 0.139522
0.898702 0.260073 0.145946
0.946197 0.269911 0.156583
0.164160 0.454109 0.229961
0.192418 0.468900 0.227693
0.234926 0.483087 0.226583
0.338017 0.472587 0.277189
0.403393 0.450587 0.268796
0.452335 0.420604 0.250037
0.503037 0.367649 0.220706
0.592964 0.320995 0.174136
0.674432 0.288269 0.130058
0.740547 0.270703 0.119258
0.789282 0.267198 0.124713
0.827469 0.269707 0.131703
0.863197 0.274826 0.139042
0.895221 0.281234 0.145975
0.924057 0.287722 0.152380
0.970885 0.301792 0.163201
0.188118 0.559038 0.220627
0.212412 0.572099 0.216745
0.276267 0.579617 0.246061
0.370391 0.576447 0.288935
0.436409 0.554317 0.286645
0.504911 0.538787 0.272168
0.542461 0.495952 0.246767
0.580186 0.436160 0.225243
0.659393 0.387289 0.195630
0.733045 0.348964 0.163780
0.786245 0.335574 0.149641
0.833008 0.328777 0.145339
0.875305 0.325929 0.147377
0.912106 0.327979 0.153300
0.942993 0.332216 0.159355
0.970314 0.350394 0.169506
0.200056 0.662453 0.202952
0.244090 0.668475 0.225312
0.314191 0.673709 0.261086
0.396128 0.675397 0.292000
0.459716 0.658026 0.290516
0.525378 0.639331 0.283607
0.597772 0.627495 0.268720
0.631637 0.575331 0.242767
0.653007 0.505198 0.225661
0.717401 0.464331 0.211836
0.773398 0.428115 0.197134
0.827366 0.402287 0.184857
0.871165 0.391974 0.178148
0.908868 0.389244 0.175974
0.940186 0.389161 0.177089
0.966682 0.404888 0.190481
0.224347 0.744043 0.210042
0.274959 0.748401 0.235826
0.349398 0.752115 0.274465
0.415487 0.754607 0.289916
0.475260 0.742322 0.288227
0.539652 0.726976 0.283760
0.609089 0.710699 0.274977
0.689715 0.703300 0.261343
0.707674 0.633122 0.238764
0.716413 0.565472 0.230421
0.768344 0.531231 0.225516
0.817157 0.498933 0.219105
0.862165 0.474135 0.215594
0.905288 0.455985 0.208284
0.937719 0.446046 0.204920
0.966223 0.451749 0.213960
0.248882 0.812963 0.219576
0.303681 0.816179 0.245668
0.378522 0.818148 0.283188
0.430017 0.820701 0.286039
0.486040 0.811897 0.284154
0.550348 0.798611 0.280809
0.621681 0.784699 0.274886
0.695617 0.770075 0.267109
0.767306 0.754915 0.256217
0.770493 0.681774 0.241046
0.773243 0.616281 0.233103
0.817026 0.585589 0.239344
0.860723 0.557255 0.237214
0.899114 0.535045 0.237973
0.933401 0.518680 0.238032
0.963972 0.514165 0.242765
0.272945 0.870895 0.229654
0.330708 0.872729 0.256264
0.396007 0.873863 0.283735
0.442474 0.876022 0.283090
0.497998 0.869579 0.281439
0.562434 0.858271 0.278650
0.634496 0.846280 0.274980
0.709820 0.834011 0.270220
0.780736 0.822303 0.265505
0.822625 0.789745 0.258172
0.824827 0.723186 0.248728
0.827831 0.661542 0.242120
0.862705 0.632842 0.254856
0.900684 0.608454 0.255765
0.932803 0.589490 0.258079
0.961403 0.578538 0.267927
0.292575 0.918005 0.239038
0.354883 0.918466 0.267660
0.410801 0.919633 0.284933
0.457101 0.921816 0.284266
0.512970 0.916672 0.283077
0.577576 0.906992 0.280910
0.650407 0.896549 0.278963
0.724013 0.885984 0.276456
0.791424 0.875354 0.274286
0.854014 0.867073 0.272530
0.868682 0.813551 0.266439
0.870907 0.752278 0.260611
0.873901 0.697115 0.257043
0.903664 0.673109 0.272806
0.934980 0.653094 0.275345
0.963189 0.638383 0.281881
0.315397 0.954789 0.251820
0.381735 0.955157 0.282573
0.429423 0.956286 0.291272
0.476039 0.958072 0.290999
0.531997 0.954062 0.289954
0.597513 0.944963 0.289200
0.669380 0.935796 0.287767
0.739276 0.926708 0.286884
0.802657 0.917610 0.286485
0.862182 0.908580 0.286259
0.903896 0.883867 0.284615
0.905729 0.824121 0.279943
0.907918 0.770047 0.276399
0.910638 0.722529 0.274903
0.937523 0.706618 0.293398
0.965242 0.690669 0.299595
0.341775 0.987763 0.267969
0.408839 0.988016 0.298887
0.450854 0.989087 0.301950
0.498038 0.990557 0.301940
0.554540 0.987583 0.301377
0.620322 0.979118 0.300999
0.689222 0.970354 0.301266
0.752965 0.962439 0.301222
0.814558 0.954152 0.301797
0.873291 0.945974 0.302651
0.928037 0.937502 0.303763
0.936215 0.885417 0.299986
0.938158 0.832952 0.297103
0.939937 0.786806 0.295206
0.942041 0.748279 0.294431
0.967465 0.739834 0.323807
0.059063 0.059063 0.065050
0.059398 0.059398 0.081401
0.060724 0.073024 0.122903
0.098910 0.061667 0.147149
0.214493 0.065328 0.147304
0.338659 0.070139 0.125878
0.424522 0.072294 0.108374
0.507696 0.079745 0.100453
0.592135 0.089407 0.099981
0.661611 0.099032 0.104582
0.721833 0.108649 0.111464
0.774779 0.118011 0.119432
0.816315 0.125982 0.126765
0.851158 0.133011 0.133459
0.882137 0.139563 0.139775
0.910412 0.145708 0.145764
0.059549 0.060806 0.087548
0.060047 0.072051 0.102451
0.061030 0.090492 0.126732
0.078357 0.087707 0.155090
0.176268 0.082313 0.152373
0.295433 0.075347 0.133770
0.409597 0.071975 0.109976
0.522007 0.081230 0.097712
0.605256 0.091107 0.098912
0.664547 0.099485 0.104739
0.724298 0.109054 0.111622
0.777950 0.118615 0.119754
0.824548 0.127607 0.127989
0.864511 0.135804 0.135820
0.896992 0.142771 0.142771
0.925132 0.148955 0.148955
0.060750 0.098458 0.115798
0.061474 0.112520 0.130771
0.062477 0.127388 0.149997
0.093738 0.138121 0.184193
0.193625 0.124431 0.172015
0.305154 0.118419 0.151237
0.407073 0.113779 0.133087
0.514440 0.112298 0.121020
0.614020 0.114025 0.116315
0.701418 0.119210 0.118365
0.779971 0.125905 0.123834
0.843290 0.135285 0.133605
0.894930 0.144890 0.143288
0.940064 0.153948 0.152423
0.977969 0.162241 0.160949
0.999092 0.167031 0.165796
0.062895 0.147174 0.151042
0.063938 0.164215 0.166249
0.065661 0.178603 0.187154
0.118092 0.189213 0.206874
0.217517 0.180301 0.196579
0.313764 0.180153 0.187521
0.410350 0.180756 0.172387
0.514960 0.180170 0.159377
0.615126 0.177204 0.148769
0.695949 0.175409 0.143859
0.767259 0.175018 0.143075
0.829094 0.176701 0.145564
0.877523 0.179907 0.150023
0.918830 0.184184 0.155249
0.955466 0.189355 0.161272
0.988958 0.195030 0.167582
0.065698 0.191194 0.166255
0.066625 0.203391 0.177604
0.089208 0.221637 0.205468
0.175631 0.236064 0.223980
0.256220 0.230766 0.214066
0.359233 0.233994 0.196400
0.458112 0.231797 0.177488
0.560345 0.225057 0.157266
0.657306 0.218359 0.143006
0.732423 0.214825 0.137654
0.794672 0.214239 0.138081
0.849645 0.215922 0.141859
0.895649 0.219232 0.148556
0.932932 0.223512 0.155190
0.966482 0.228557 0.161715
0.997201 0.234325 0.168213
0.070955 0.260509 0.196469
0.077929 0.273287 0.211759
0.138956 0.290751 0.239533
0.215023 0.309915 0.251271
0.300547 0.300480 0.253687
0.383424 0.279902 0.226670
0.487281 0.270661 0.193041
0.582727 0.261733 0.168485
0.671182 0.251963 0.149144
0.741070 0.246053 0.140337
0.799625 0.242890 0.138156
0.852804 0.242619 0.141217
0.896657 0.246616 0.148108
0.932120 0.251356 0.154836
0.965414 0.256155 0.161351
0.995144 0.266318 0.169424
0.089363 0.343816 0.232911
0.129419 0.361362 0.250627
0.183808 0.381463 0.266603
0.243655 0.401636 0.262305
0.346336 0.383949 0.284458
0.402472 0.349575 0.272614
0.495434 0.328363 0.239275
0.593569 0.311783 0.199896
0.680196 0.300237 0.176146
0.748519 0.291830 0.162070
0.802527 0.287656 0.156491
0.850242 0.286307 0.155495
0.893683 0.286430 0.157107
0.928749 0.289387 0.161121
0.959190 0.293128 0.165615
0.984532 0.307688 0.176057
0.135357 0.447206 0.254150
0.171491 0.464320 0.263908
0.217591 0.481893 0.271789
0.272750 0.499451 0.269087
0.386465 0.482338 0.312738
0.463967 0.468417 0.295886
0.497151 0.412584 0.283937
0.587154 0.378893 0.255654
