lib/luts/Lundmark.CUBE
LUT_3D_SIZE 6
0.058955 0.058955 0.058955
0.138371 0.061395 0.061395
0.387165 0.070805 0.070805
0.611296 0.091908 0.091908
0.767840 0.116733 0.116733
0.862021 0.135862 0.135294
0.061588 0.128302 0.095823
0.191222 0.090144 0.064217
0.358374 0.115912 0.070902
0.549136 0.143829 0.085041
0.714937 0.171104 0.108558
0.829793 0.194530 0.129903
0.144114 0.358857 0.172818
0.319240 0.343512 0.211337
0.502171 0.192906 0.081247
0.683291 0.217353 0.104725
0.809653 0.242088 0.127306
0.900794 0.263753 0.146532
0.247512 0.650428 0.205881
0.417030 0.638638 0.249496
0.606335 0.596977 0.211906
0.705648 0.384576 0.117312
0.850546 0.322184 0.138408
0.953267 0.343163 0.161038
0.334411 0.863989 0.227503
0.459556 0.855446 0.223102
0.645285 0.819523 0.208195
0.802960 0.727435 0.177922
0.850821 0.559455 0.158560
0.952446 0.511855 0.182234
0.383646 0.985142 0.235403
0.514188 0.975657 0.233029
0.702515 0.950081 0.228713
0.883594 0.924251 0.226900
0.925101 0.780598 0.212358
0.960492 0.694755 0.242429
0.059063 0.059063 0.065050
0.098910 0.061667 0.147149
0.424522 0.072294 0.108374
0.661611 0.099032 0.104582
0.816315 0.125982 0.126765
0.910412 0.145708 0.145764
0.062895 0.147174 0.151042
0.118092 0.189213 0.206874
0.410350 0.180756 0.172387
0.695949 0.175409 0.143859
0.877523 0.179907 0.150023
0.988958 0.195030 0.167582
0.089363 0.343816 0.232911
0.243655 0.401636 0.262305
0.495434 0.328363 0.239275
0.748519 0.291830 0.162070
0.893683 0.286430 0.157107
0.984532 0.307688 0.176057
0.190874 0.660416 0.235046
0.351579 0.686853 0.301023
0.585662 0.646584 0.318515
0.721887 0.511020 0.283801
0.874720 0.449183 0.243230
0.970578 0.453127 0.239588
0.237211 0.875011 0.224738
0.432813 0.878776 0.328779
0.627790 0.861674 0.326883
0.832273 0.822230 0.316811
0.867630 0.667550 0.319045
0.965281 0.615167 0.329584
0.301239 0.990360 0.265826
0.494544 0.991389 0.355236
0.683070 0.981394 0.356891
0.867459 0.957257 0.359026
0.944924 0.861184 0.357511
0.970738 0.766440 0.378979
0.060587 0.086853 0.115084
0.064176 0.143863 0.181722
0.281074 0.136882 0.318940
0.576696 0.119516 0.306756
0.832561 0.130915 0.241913
0.964751 0.158053 0.223851
0.066089 0.186203 0.201120
0.070523 0.239835 0.264715
0.283150 0.257774 0.390932
0.658576 0.231362 0.336017
0.896797 0.214939 0.268380
0.999061 0.214189 0.247545
0.077069 0.344934 0.308111
0.113262 0.416905 0.387370
0.362497 0.486557 0.515258
0.714367 0.478713 0.464618
0.892300 0.479545 0.434311
0.996910 0.478370 0.413703
0.116285 0.618711 0.339307
0.248169 0.669385 0.412179
0.495336 0.724086 0.489800
0.728047 0.654142 0.539396
0.882618 0.624718 0.497543
0.977998 0.622804 0.475808
0.196928 0.851687 0.314899
0.321490 0.875903 0.385734
0.583535 0.894286 0.528397
0.810492 0.875234 0.555889
0.880250 0.779866 0.567438
0.975641 0.742158 0.566042
0.259439 0.976995 0.328190
0.384361 0.994303 0.401068
0.667960 0.998297 0.577339
0.843794 0.988753 0.582355
0.964359 0.948841 0.588713
0.978977 0.860141 0.607700
0.063399 0.141209 0.165538
0.066995 0.188511 0.219827
0.101360 0.297201 0.384303
0.466689 0.217385 0.508590
0.677317 0.202867 0.527282
0.855544 0.179582 0.495093
0.069761 0.233413 0.250510
0.074056 0.289313 0.320573
0.145078 0.376653 0.470168
0.510055 0.326517 0.582474
0.749293 0.322026 0.591803
0.926712 0.288302 0.549483
0.083820 0.422447 0.426877
0.096242 0.491814 0.522882
0.303063 0.543952 0.609003
0.613335 0.539528 0.705114
0.853903 0.525003 0.681863
0.999330 0.491681 0.619309
0.110217 0.580198 0.493666
0.173134 0.659337 0.583434
0.422904 0.716633 0.689808
0.698934 0.760406 0.773649
0.894272 0.760293 0.742296
0.997162 0.766474 0.725879
0.164614 0.800869 0.488051
0.288289 0.833537 0.561448
0.515798 0.871355 0.662089
0.757736 0.904308 0.749075
0.893736 0.865530 0.782429
0.984792 0.849872 0.770094
0.248926 0.936811 0.501734
0.375845 0.961386 0.568770
0.582871 0.987225 0.668121
0.803671 1.000020 0.768871
0.951076 0.991755 0.793523
0.986847 0.932389 0.796824
0.067081 0.194111 0.218145
0.070651 0.238651 0.269697
0.077401 0.337750 0.408644
0.328040 0.372628 0.732846
0.659700 0.269638 0.693529
0.803497 0.240047 0.715931
0.073743 0.287063 0.308706
0.077370 0.342614 0.386935
0.117780 0.426246 0.518575
0.392064 0.448261 0.818238
0.714892 0.376118 0.756345
0.855037 0.368578 0.769490
0.092116 0.462270 0.502662
0.110839 0.530497 0.614029
0.278778 0.595153 0.688510
0.530757 0.621229 0.883063
0.795423 0.588237 0.831190
0.915493 0.583396 0.837355
0.135197 0.677854 0.686649
0.172678 0.744672 0.780594
0.386416 0.766832 0.817962
0.668407 0.802515 0.856279
0.860031 0.784691 0.880929
0.975166 0.779320 0.881874
0.166246 0.802685 0.665968
0.257644 0.824946 0.718355
0.481553 0.854516 0.790178
0.731764 0.884890 0.860587
0.899665 0.911227 0.910253
0.998395 0.916658 0.899130
0.264704 0.901281 0.657174
0.402417 0.924218 0.717585
0.585608 0.952673 0.789803
0.765120 0.986874 0.851834
0.925105 1.000020 0.908515
0.996929 0.978846 0.918740
0.071717 0.256419 0.281576
0.074809 0.300404 0.338942
0.084717 0.391047 0.475060
0.244517 0.463631 0.727421
0.576910 0.381767 0.808633
0.810581 0.295581 0.833990
0.077526 0.346032 0.380520
0.084887 0.400840 0.467612
0.122279 0.481856 0.591430
0.329850 0.532222 0.823366
0.658961 0.450621 0.872167
0.854233 0.407890 0.876110
0.105700 0.507551 0.590040
0.125993 0.581141 0.688327
0.254320 0.645349 0.765425
0.494923 0.675891 0.921592
0.773414 0.612657 0.946977
0.910100 0.613285 0.924843
0.150826 0.695121 0.773342
0.177503 0.769009 0.845704
0.316251 0.800565 0.888114
0.636452 0.834067 0.930624
0.835058 0.799463 0.997530
0.948770 0.808923 0.957237
0.189810 0.877514 0.846172
0.257717 0.900199 0.888806
0.460503 0.917031 0.929388
0.695430 0.926222 0.950676
0.882944 0.938833 0.975963
0.979002 0.927772 0.982283
0.273182 0.902264 0.772205
0.412588 0.921878 0.820371
0.595503 0.943850 0.875359
0.780566 0.968075 0.929735
0.915770 0.990625 0.971723
1.000020 1.000020 1.000020
