lib/luts/Magellanic.CUBE
LUT_3D_SIZE 6
0.001013 0.001013 0.004686
0.182934 0.029102 0.029102
0.473476 0.053820 0.053820
0.678304 0.087707 0.087707
0.814286 0.115924 0.115924
0.896447 0.135227 0.135227
0.033609 0.185107 0.145580
0.258524 0.153915 0.040904
0.447323 0.176800 0.053139
0.624521 0.200723 0.080552
0.768480 0.220459 0.108473
0.868053 0.241692 0.131097
0.195184 0.452905 0.290831
0.373828 0.434056 0.293485
0.577691 0.386944 0.084520
0.747295 0.387990 0.112297
0.856438 0.402454 0.135529
0.935649 0.420009 0.154434
0.290314 0.712692 0.328103
0.423242 0.703653 0.345631
0.581437 0.674781 0.297397
0.757054 0.637654 0.154947
0.884301 0.606388 0.159171
0.969196 0.618462 0.181085
0.310807 0.896401 0.304450
0.403411 0.888762 0.297089
0.552194 0.857132 0.273600
0.732798 0.842063 0.225504
0.883149 0.826949 0.206483
0.972939 0.801922 0.239333
0.321812 1.000020 0.289074
0.417691 0.993679 0.284556
0.571297 0.970931 0.278003
0.724165 0.948081 0.274669
0.878025 0.949321 0.274400
0.982243 0.943570 0.336312
0.010294 0.010297 0.063832
0.129176 0.051234 0.200877
0.508887 0.059247 0.158477
0.722140 0.096347 0.141312
0.856430 0.125672 0.153616
0.939035 0.145791 0.167633
0.037603 0.186063 0.222970
0.142502 0.244084 0.294549
0.489982 0.258493 0.259573
0.735661 0.245955 0.222898
0.888237 0.240883 0.211145
0.983289 0.248740 0.215009
0.083820 0.465468 0.370683
0.330703 0.495275 0.388096
0.574695 0.471203 0.338239
0.783065 0.438903 0.249177
0.903424 0.431497 0.221185
0.980998 0.452235 0.241758
0.256838 0.729299 0.414391
0.404807 0.746315 0.427688
0.585544 0.712285 0.422057
0.776591 0.703782 0.390638
0.901110 0.682019 0.355073
0.982264 0.686195 0.350595
0.299103 0.905875 0.392291
0.440828 0.911923 0.437586
0.586032 0.896974 0.432276
0.754932 0.871799 0.420363
0.902848 0.870463 0.431288
0.988606 0.850544 0.445346
0.345669 1.000020 0.410348
0.481148 1.000020 0.461103
0.620428 1.000020 0.462854
0.765836 0.981215 0.464405
0.896493 0.970847 0.467409
0.994674 0.969277 0.494894
0.025733 0.082057 0.159208
0.040100 0.163145 0.268410
0.369983 0.182347 0.413230
0.647753 0.163670 0.403195
0.854966 0.165444 0.360310
0.966532 0.165200 0.338581
0.045543 0.233552 0.297240
0.051092 0.292725 0.378833
0.385857 0.345589 0.486510
0.714180 0.337198 0.456186
0.909315 0.331104 0.419670
0.999182 0.327299 0.402421
0.072018 0.455368 0.470173
0.115177 0.514449 0.539620
0.444172 0.558583 0.615784
0.767689 0.578273 0.575313
0.915226 0.584463 0.559962
0.999463 0.588572 0.548959
0.131951 0.729900 0.523254
0.305817 0.757518 0.573176
0.584743 0.783160 0.625396
0.787690 0.768536 0.632574
0.914363 0.768071 0.608511
0.994390 0.774265 0.597535
0.223530 0.910251 0.522634
0.410357 0.920797 0.585671
0.627692 0.929977 0.644561
0.793370 0.914009 0.650722
0.919129 0.907857 0.662417
1.000020 0.902316 0.666337
0.314264 1.000020 0.553261
0.488723 1.000020 0.618848
0.677530 1.000020 0.674335
0.811629 1.000020 0.676535
0.920041 0.993022 0.681952
1.000020 0.995089 0.700289
0.038569 0.166771 0.245651
0.045992 0.228192 0.322492
0.096553 0.330532 0.504128
0.557875 0.296099 0.597835
0.747631 0.273447 0.611270
0.892989 0.242084 0.590449
0.050680 0.288302 0.361607
0.058513 0.342409 0.443257
0.161311 0.410543 0.586845
0.599727 0.421071 0.664569
0.808568 0.418559 0.674474
0.954286 0.395393 0.654734
0.082646 0.475531 0.554435
0.099210 0.526462 0.647092
0.364623 0.585551 0.709580
0.699853 0.626514 0.772548
0.896606 0.622066 0.762227
0.999466 0.610311 0.737016
0.125916 0.699485 0.696766
0.183492 0.760190 0.765670
0.490189 0.784438 0.802404
0.761366 0.813204 0.838138
0.931149 0.823274 0.814616
1.000020 0.830644 0.807379
0.181851 0.900187 0.687023
0.324687 0.915242 0.728342
0.585820 0.932517 0.791157
0.815480 0.944106 0.838708
0.933919 0.934604 0.843967
1.000020 0.939917 0.839399
0.269559 1.000020 0.702490
0.436284 1.000020 0.751316
0.659901 1.000020 0.816460
0.834750 1.000020 0.850371
0.946327 1.000020 0.855469
1.000020 1.000020 0.858718
0.046709 0.239940 0.320321
0.050824 0.289004 0.384942
0.070809 0.372432 0.536045
0.421614 0.435197 0.796680
0.732219 0.356919 0.762087
0.858631 0.316897 0.781137
0.057383 0.343420 0.430057
0.069984 0.390476 0.514050
0.110549 0.449279 0.639289
0.486493 0.508664 0.871523
0.781244 0.471182 0.817172
0.904178 0.462231 0.830185
0.093867 0.498884 0.628005
0.113037 0.543896 0.731077
0.323613 0.612005 0.785070
0.615614 0.667389 0.930995
0.852597 0.670084 0.883142
0.958547 0.665748 0.891260
0.138788 0.682329 0.796747
0.165459 0.732817 0.879363
0.436097 0.778746 0.899159
0.726753 0.833988 0.917162
0.909396 0.842345 0.927618
1.000020 0.841893 0.933682
0.184670 0.902340 0.878722
0.279076 0.914135 0.899000
0.537827 0.928470 0.920617
0.783717 0.941357 0.938668
0.943613 0.954303 0.955259
1.000020 0.959982 0.949370
0.277761 0.987059 0.839177
0.442260 1.000020 0.869512
0.635794 1.000020 0.908837
0.815953 1.000020 0.940341
0.954582 1.000020 0.960846
1.000020 1.000020 0.963232
0.052789 0.310375 0.399085
0.061226 0.351234 0.463355
0.082688 0.417889 0.601596
0.301297 0.476191 0.806068
0.677702 0.476963 0.863063
0.865160 0.383306 0.885427
0.069869 0.396794 0.507495
0.083500 0.436298 0.594469
0.113444 0.490092 0.707819
0.402079 0.547863 0.887566
0.749576 0.543923 0.919348
0.904071 0.501838 0.923089
0.107766 0.524657 0.709279
0.127184 0.575905 0.798242
0.279065 0.637259 0.857705
0.569138 0.692874 0.974489
0.848854 0.691885 0.987289
0.954413 0.692179 0.967182
0.151982 0.678933 0.875107
0.172013 0.740492 0.940692
0.340100 0.785722 0.970065
0.691580 0.846915 0.989136
0.904357 0.854940 1.000020
0.989199 0.863873 0.996587
0.194328 0.876809 0.971640
0.258999 0.888000 0.986253
0.503721 0.915415 1.000020
0.742040 0.946760 1.000020
0.924447 0.967928 1.000020
1.000020 0.969355 1.000020
0.288594 0.987470 0.958798
0.454207 0.998023 0.975331
0.644642 1.000020 0.994157
0.823146 1.000020 1.000020
0.952108 1.000020 1.000020
1.000030 1.000030 1.000030
