lib/luts/Magellanic.CUBE
LUT_3D_SIZE 16
0.001013 0.001013 0.004686
0.000705 0.000705 0.002530
0.065110 0.010860 0.010862
0.182934 0.029102 0.029102
0.286928 0.040480 0.040480
0.385844 0.044423 0.044423
0.473476 0.053820 0.053820
0.549206 0.065268 0.065268
0.616126 0.076391 0.076391
0.678304 0.087707 0.087707
0.732839 0.098425 0.098425
0.777920 0.107907 0.107907
0.814286 0.115924 0.115924
0.845351 0.123053 0.123053
0.872874 0.129540 0.129540
0.896447 0.135227 0.135227
0.005656 0.007765 0.034701
0.001124 0.001402 0.004596
0.059228 0.009980 0.009901
0.143382 0.023628 0.023326
0.224392 0.035171 0.034452
0.301139 0.042762 0.041447
0.370951 0.045893 0.044037
0.446932 0.051790 0.050078
0.518057 0.061474 0.060429
0.593064 0.072971 0.072446
0.663568 0.085241 0.084927
0.720689 0.096297 0.095953
0.770573 0.106855 0.106351
0.813301 0.116680 0.115731
0.847106 0.124718 0.123473
0.873164 0.131329 0.129639
0.016969 0.090703 0.082570
0.017571 0.078470 0.070942
0.112865 0.071296 0.021280
0.192013 0.076806 0.031015
0.260331 0.088387 0.038962
0.331766 0.098211 0.043736
0.399299 0.104275 0.045878
0.466243 0.110292 0.053659
0.529120 0.114721 0.062894
0.585642 0.118776 0.071881
0.640470 0.123339 0.081325
0.691191 0.129010 0.090726
0.734799 0.135605 0.099415
0.774506 0.142702 0.107738
0.810319 0.150366 0.115643
0.840912 0.158638 0.122646
0.033609 0.185107 0.145580
0.078064 0.178030 0.140391
0.161269 0.170771 0.115292
0.258524 0.153915 0.040904
0.325201 0.158770 0.045295
0.387729 0.167296 0.047428
0.447323 0.176800 0.053139
0.506385 0.186037 0.061593
0.569209 0.194144 0.071296
0.624521 0.200723 0.080552
0.677497 0.207009 0.090122
0.726930 0.213830 0.099854
0.768480 0.220459 0.108473
0.804778 0.227281 0.116393
0.837964 0.234360 0.124002
0.868053 0.241692 0.131097
0.073552 0.277344 0.205553
0.140333 0.279431 0.202707
0.217111 0.265250 0.199440
0.299596 0.258787 0.142198
0.380201 0.234663 0.050665
0.444441 0.237531 0.055746
0.504381 0.243705 0.063954
0.562687 0.250419 0.072717
0.622130 0.257904 0.082485
0.673745 0.264811 0.091692
0.719129 0.271206 0.100390
0.760791 0.278607 0.108935
0.798782 0.285642 0.117097
0.830391 0.292231 0.124155
0.859740 0.298698 0.130962
0.886767 0.305364 0.137407
0.135860 0.364940 0.253784
0.199122 0.370102 0.254488
0.272141 0.352384 0.257662
0.338949 0.350955 0.243272
0.413166 0.337681 0.162135
0.488073 0.309915 0.065859
0.551138 0.310852 0.074465
0.609561 0.314036 0.083483
0.666638 0.318825 0.093255
0.716619 0.324289 0.102560
0.758471 0.329337 0.110900
0.797309 0.335194 0.119069
0.831899 0.342263 0.126796
0.861560 0.348342 0.133641
0.887641 0.354518 0.139802
0.911836 0.361269 0.145671
0.195184 0.452905 0.290831
0.251674 0.458582 0.294829
0.319762 0.445633 0.304622
0.373828 0.434056 0.293485
0.438418 0.434990 0.271519
0.508868 0.416106 0.185365
0.577691 0.386944 0.084520
0.641322 0.382483 0.093124
0.697997 0.384499 0.102926
0.747295 0.387990 0.112297
0.786265 0.391889 0.120177
0.822733 0.396822 0.128021
0.856438 0.402454 0.135529
0.884980 0.408645 0.142255
0.908786 0.414914 0.147986
0.935649 0.420009 0.154434
0.239077 0.539452 0.313477
0.292157 0.545038 0.322276
0.351260 0.537083 0.333057
0.402449 0.520050 0.330434
0.456926 0.515513 0.310122
0.522374 0.517085 0.280598
0.582582 0.497145 0.202048
0.647356 0.463702 0.107066
0.711756 0.455666 0.110795
0.764000 0.455375 0.120335
0.803447 0.457398 0.128249
0.839040 0.461112 0.135866
0.871506 0.466091 0.143159
0.899943 0.471708 0.149799
0.923962 0.477132 0.155571
0.952204 0.481357 0.162295
0.272138 0.627824 0.326857
0.320645 0.632407 0.338270
0.370522 0.629131 0.347264
0.419167 0.613971 0.346543
0.469512 0.598044 0.336565
0.526651 0.597065 0.309998
0.589012 0.598825 0.274957
0.646588 0.581438 0.210387
0.704761 0.549039 0.130080
0.763911 0.534178 0.129133
0.809838 0.530234 0.135759
0.847685 0.530222 0.143220
0.880987 0.532845 0.150450
0.910660 0.536880 0.157265
0.934976 0.541467 0.163015
0.965446 0.546617 0.170295
0.290314 0.712692 0.328103
0.337356 0.716619 0.343138
0.378099 0.717121 0.347004
0.423242 0.703653 0.345631
0.473118 0.689489 0.339523
0.523508 0.675145 0.325409
0.581437 0.674781 0.297397
0.645023 0.676163 0.252071
0.705890 0.664342 0.208073
0.757054 0.637654 0.154947
0.802067 0.619722 0.146978
0.845425 0.609923 0.153216
0.884301 0.606388 0.159171
0.916893 0.606941 0.164926
0.942978 0.608611 0.170674
0.969196 0.618462 0.181085
0.301516 0.783168 0.323825
0.344399 0.786432 0.337677
0.378929 0.787626 0.337166
0.420517 0.776099 0.334395
0.467395 0.763838 0.327938
0.516414 0.750317 0.317167
0.569357 0.738039 0.299099
0.632851 0.739195 0.269411
0.700032 0.740449 0.226552
0.757474 0.732777 0.199183
0.800165 0.711031 0.171156
0.840929 0.692872 0.163168
0.879734 0.682167 0.168817
0.915356 0.674844 0.175056
0.945829 0.672403 0.179385
0.970738 0.683036 0.197094
0.309184 0.844398 0.317119
0.342395 0.847220 0.322447
0.374553 0.847514 0.320597
0.412515 0.837561 0.316807
0.456581 0.826513 0.311392
0.505722 0.814811 0.301655
0.559699 0.801528 0.287775
0.618679 0.792419 0.265714
0.685589 0.794161 0.237599
0.746768 0.794473 0.207710
0.801475 0.790742 0.192320
0.841256 0.771489 0.180878
0.878992 0.755192 0.178109
0.913641 0.744267 0.183014
0.943017 0.736283 0.188596
0.972288 0.739898 0.214830
0.310807 0.896401 0.304450
0.336623 0.898352 0.302873
0.366770 0.897558 0.300663
0.403411 0.888762 0.297089
0.446481 0.879061 0.291582
0.496682 0.868505 0.284109
0.552194 0.857132 0.273600
0.609771 0.844696 0.258550
0.672368 0.840760 0.241774
0.732798 0.842063 0.225504
0.790340 0.842852 0.209087
0.845971 0.842884 0.202593
0.883149 0.826949 0.206483
0.917159 0.813221 0.206022
0.946080 0.803515 0.209657
0.972939 0.801922 0.239333
0.307077 0.938518 0.289974
0.332697 0.939993 0.288291
0.363062 0.938500 0.285982
0.399755 0.930317 0.282586
0.443361 0.921631 0.277690
0.493955 0.912260 0.271485
0.550442 0.902356 0.263455
0.609037 0.892058 0.254637
0.664571 0.882407 0.245407
0.722861 0.882092 0.237133
0.780308 0.883820 0.229800
0.835845 0.885427 0.223672
0.888480 0.886900 0.224625
0.921908 0.874387 0.239619
0.950534 0.863370 0.243144
0.976029 0.858840 0.270966
0.310633 0.972038 0.284975
0.337084 0.973285 0.283600
0.368146 0.971053 0.281730
0.405514 0.963223 0.279197
0.448957 0.955579 0.274957
0.500681 0.947334 0.270644
0.557641 0.938626 0.265747
0.614353 0.929816 0.260976
0.666758 0.921007 0.256858
0.719548 0.914849 0.253108
0.775991 0.916572 0.250031
0.830355 0.918397 0.248327
0.881654 0.920562 0.247548
0.926271 0.920965 0.255032
0.954198 0.910604 0.273880
0.978929 0.904034 0.300577
0.321812 1.000020 0.289074
0.348798 1.000020 0.288044
0.380406 1.000020 0.286928
0.417691 0.993679 0.284556
0.462922 0.986378 0.282477
0.515149 0.978642 0.280154
0.571297 0.970931 0.278003
0.623186 0.963203 0.275952
0.674433 0.955624 0.275240
0.724165 0.948081 0.274669
0.776074 0.945362 0.272985
0.828554 0.947128 0.273202
0.878025 0.949321 0.274400
0.922043 0.951092 0.275883
0.957671 0.950700 0.285624
0.982243 0.943570 0.336312
0.002439 0.002439 0.014646
0.008371 0.008371 0.051897
0.090559 0.015043 0.040349
0.235715 0.035749 0.041671
0.349737 0.043499 0.044310
0.441410 0.049294 0.049462
0.517123 0.060272 0.060401
0.591601 0.072195 0.072371
0.657168 0.083743 0.083962
0.714290 0.094685 0.094981
0.765220 0.105179 0.105527
0.808218 0.114559 0.114908
0.842341 0.122339 0.122669
0.872152 0.129348 0.129639
0.898222 0.135642 0.135852
0.921433 0.141344 0.141498
0.010573 0.012462 0.065605
0.013799 0.022545 0.085647
0.039812 0.026469 0.070944
0.161188 0.035302 0.061540
0.275116 0.042259 0.052131
0.365373 0.044332 0.045693
0.436805 0.048798 0.048872
0.502675 0.058205 0.058185
0.572223 0.069046 0.068997
0.648452 0.082226 0.082172
0.714417 0.094751 0.094709
0.766468 0.105501 0.105447
0.811936 0.115495 0.115427
0.850508 0.124358 0.124260
0.880822 0.131547 0.131455
0.905179 0.137474 0.137360
0.019376 0.089586 0.109481
0.021016 0.100078 0.117499
0.093557 0.095166 0.093382
0.210664 0.089789 0.056265
0.301873 0.083429 0.042735
0.364704 0.085389 0.044437
0.422772 0.089012 0.047372
0.482266 0.094295 0.055608
0.538679 0.099279 0.064066
0.593302 0.104298 0.072883
0.650052 0.110721 0.082824
0.702128 0.118193 0.092634
0.746721 0.125704 0.101677
0.787189 0.133660 0.110287
0.822958 0.141819 0.118297
0.852181 0.150029 0.125063
0.033712 0.185144 0.167910
0.054751 0.194992 0.171494
0.149989 0.183192 0.156919
0.256483 0.174223 0.091085
0.342619 0.157024 0.046040
0.400778 0.162849 0.047782
0.455709 0.171254 0.054034
0.514568 0.179814 0.062544
0.576154 0.187970 0.072183
0.631244 0.194172 0.081489
0.684083 0.200456 0.091161
0.732884 0.207515 0.100813
0.773309 0.214464 0.109295
0.809340 0.221518 0.117221
0.842185 0.229016 0.124777
0.872242 0.236634 0.131899
0.053568 0.279729 0.226734
0.118044 0.288506 0.225875
0.208918 0.274055 0.219568
0.294450 0.271133 0.186996
0.385956 0.244913 0.068707
0.454247 0.236389 0.056921
0.511369 0.241711 0.064810
0.568945 0.248461 0.073573
0.627688 0.256020 0.083336
0.678252 0.262637 0.092408
0.723147 0.269294 0.101070
0.765007 0.276509 0.109676
0.802060 0.283672 0.117682
0.833678 0.290211 0.124809
0.863029 0.296689 0.131591
0.889165 0.304076 0.138085
0.122593 0.368393 0.279538
0.178583 0.377020 0.271899
0.264635 0.365859 0.275208
0.334449 0.358633 0.264585
0.410783 0.351052 0.210370
0.493934 0.318194 0.076139
0.557463 0.311343 0.075413
0.615485 0.314106 0.084430
0.672071 0.318701 0.094193
0.721069 0.323965 0.103399
0.762534 0.328729 0.111669
0.800957 0.334858 0.119858
0.835370 0.341667 0.127530
0.864543 0.347887 0.134284
0.890404 0.354195 0.140406
0.917414 0.359867 0.146889
0.191044 0.456843 0.319673
0.232213 0.465763 0.308230
0.309730 0.461132 0.318277
0.370424 0.442818 0.311655
0.436147 0.442990 0.292681
0.509544 0.429257 0.229439
0.581152 0.396145 0.101313
0.646693 0.384865 0.094198
0.702528 0.385597 0.103814
0.750927 0.388818 0.113041
0.789747 0.392692 0.120951
0.825996 0.397473 0.128724
0.859363 0.403037 0.136233
0.887554 0.409391 0.142872
0.911246 0.415180 0.148558
0.941417 0.419651 0.155764
0.240532 0.544157 0.343470
0.275208 0.552796 0.333848
0.341477 0.553981 0.346448
0.399420 0.534848 0.347001
0.455085 0.523618 0.329064
0.521734 0.526283 0.302582
0.584541 0.510514 0.243791
0.652653 0.476483 0.136499
0.714964 0.460768 0.112933
0.767066 0.458376 0.121171
0.806375 0.459743 0.129018
0.842168 0.463013 0.136657
0.874466 0.467959 0.143961
0.902618 0.473480 0.150543
0.926461 0.478540 0.156234
0.959402 0.482870 0.164027
0.270659 0.632840 0.351240
0.304855 0.639992 0.347254
0.363490 0.642732 0.362231
0.415367 0.629128 0.363103
0.468898 0.611059 0.355134
0.525641 0.605169 0.330999
0.588393 0.607394 0.300220
0.649589 0.594674 0.251004
0.711015 0.565537 0.177175
0.767008 0.542877 0.138456
0.811877 0.535477 0.138130
0.849991 0.534523 0.144227
0.883910 0.536073 0.151387
0.913760 0.539574 0.158206
0.938075 0.543991 0.163929
0.968533 0.552103 0.172865
0.283966 0.718074 0.346218
0.322621 0.723440 0.350971
0.374402 0.726808 0.365370
0.420559 0.718375 0.365089
0.472485 0.703112 0.360133
0.524012 0.687060 0.348116
0.581533 0.683088 0.323300
0.646084 0.684991 0.283602
0.709917 0.677539 0.250356
0.763050 0.654940 0.208871
0.806843 0.634033 0.176761
0.848634 0.619223 0.164274
0.886733 0.613726 0.164895
0.918978 0.613933 0.168775
0.945166 0.615004 0.173197
0.971409 0.626336 0.189413
0.292107 0.788663 0.338247
0.335918 0.792366 0.350754
0.378943 0.795723 0.359755
0.420671 0.789621 0.358507
0.468563 0.777148 0.354291
0.518450 0.763972 0.345303
0.571822 0.749623 0.330639
0.635228 0.748374 0.306808
0.703179 0.750294 0.271453
0.762888 0.747606 0.254204
0.807307 0.729137 0.235184
0.848324 0.712466 0.218315
0.885723 0.698818 0.208550
0.920800 0.689959 0.204771
0.949805 0.687239 0.201340
0.974353 0.698265 0.231416
0.298888 0.848827 0.329955
0.346986 0.851551 0.348801
0.379054 0.854206 0.349228
0.416663 0.849406 0.347313
0.460540 0.838753 0.343265
0.510676 0.827000 0.336683
0.565839 0.814614 0.325972
0.624106 0.803002 0.310643
0.690421 0.804042 0.290137
0.751626 0.805537 0.268542
0.809230 0.806278 0.261138
0.850288 0.790743 0.260211
0.887986 0.776618 0.254242
0.921700 0.765579 0.252900
0.951117 0.757998 0.254899
0.978032 0.760201 0.277992
0.307975 0.899721 0.324866
0.347830 0.901604 0.338667
0.376081 0.903561 0.337297
0.411236 0.899767 0.334616
0.454407 0.890284 0.331301
0.504571 0.880179 0.325659
0.560935 0.869247 0.318379
0.619874 0.857458 0.308274
0.679270 0.850091 0.297228
0.738924 0.851801 0.285957
0.796306 0.853587 0.274949
0.852178 0.855779 0.270854
0.890885 0.843140 0.284821
0.924423 0.831258 0.285336
0.952901 0.822283 0.288233
0.978791 0.817996 0.307380
0.317571 0.941330 0.325321
0.349159 0.942767 0.332239
0.377102 0.944151 0.330764
0.411581 0.941125 0.328095
0.454412 0.932525 0.324850
0.505255 0.923610 0.321211
0.562282 0.914385 0.315915
0.621236 0.904583 0.310214
0.675821 0.894685 0.304263
0.731067 0.891202 0.299375
0.787672 0.893048 0.294218
0.842152 0.895173 0.290341
0.893716 0.897304 0.290497
0.927878 0.887155 0.311540
0.955889 0.877300 0.314999
0.981032 0.871282 0.330635
0.332847 0.974422 0.333397
0.357199 0.975463 0.333130
0.385488 0.976595 0.332159
0.420494 0.973948 0.330172
0.463606 0.966113 0.328006
0.514706 0.958048 0.325452
0.571886 0.949519 0.322495
0.628215 0.941134 0.319765
0.680332 0.932998 0.317636
0.730042 0.925081 0.315776
0.784444 0.924667 0.313592
0.837170 0.926734 0.312783
0.887067 0.928780 0.312492
0.931649 0.930728 0.317281
0.959114 0.921465 0.339624
0.983516 0.914306 0.355938
0.346943 1.000020 0.342005
0.371054 1.000020 0.341180
0.399971 1.000020 0.340465
0.435608 1.000020 0.339483
0.479436 0.996341 0.338827
0.531053 0.988876 0.337777
0.585327 0.981362 0.335514
0.637316 0.974040 0.335250
0.688072 0.966522 0.335153
0.737143 0.959078 0.335478
0.784991 0.952880 0.335733
0.836157 0.954502 0.335975
0.883788 0.956513 0.336962
0.926550 0.958297 0.338437
0.962165 0.958963 0.344404
0.986578 0.952171 0.387966
0.005883 0.005883 0.036339
0.012985 0.012994 0.080970
0.035757 0.019310 0.121696
0.209099 0.032737 0.111537
0.332478 0.043026 0.093720
0.434826 0.048430 0.079910
0.517099 0.060290 0.080208
0.595384 0.072837 0.087154
0.664008 0.085020 0.096056
0.722067 0.096251 0.105196
0.773572 0.106981 0.114283
0.818275 0.116852 0.123041
0.853737 0.125027 0.130390
0.884367 0.132303 0.137056
0.911740 0.138963 0.143117
0.936579 0.145159 0.148921
0.013703 0.020469 0.085219
0.018082 0.041236 0.112063
0.024136 0.055436 0.144264
0.150994 0.056231 0.127776
0.281605 0.062764 0.118282
0.390632 0.061115 0.104868
0.487669 0.061463 0.092991
0.565871 0.069025 0.090584
0.639174 0.080923 0.092737
0.710282 0.094085 0.100691
0.767272 0.105713 0.110357
0.814390 0.115981 0.119613
0.856631 0.125705 0.128488
0.893539 0.134502 0.136634
0.923336 0.141862 0.143523
0.948520 0.148127 0.149479
0.023363 0.092562 0.138445
0.027436 0.111822 0.163935
0.035932 0.127592 0.182931
0.173296 0.132554 0.167364
0.285376 0.138274 0.158475
0.388486 0.134901 0.137999
0.477585 0.129294 0.120780
0.566593 0.121193 0.106911
0.645206 0.114839 0.100657
0.712625 0.114581 0.103613
0.765866 0.119814 0.111093
0.809311 0.125300 0.118200
0.846276 0.131951 0.125654
0.880566 0.139137 0.133221
0.911951 0.146349 0.140495
0.938740 0.153431 0.146964
0.034796 0.187053 0.193514
0.037639 0.201465 0.213076
0.112344 0.213224 0.218549
0.228760 0.209869 0.192049
0.336703 0.206209 0.165066
0.431939 0.194567 0.128722
0.517615 0.179360 0.094618
0.591405 0.170353 0.081126
0.647126 0.172934 0.086399
0.696311 0.176523 0.094210
0.743830 0.181166 0.102880
0.786226 0.187905 0.111610
0.821941 0.194664 0.119558
0.854984 0.201733 0.127186
0.885823 0.209040 0.134580
0.914578 0.216468 0.141653
0.048089 0.282236 0.251801
0.067747 0.294836 0.266167
0.176399 0.303141 0.264701
0.278256 0.291535 0.249735
0.371793 0.287451 0.205610
0.467027 0.268335 0.139506
0.546831 0.250767 0.091112
0.607775 0.246008 0.082490
0.662874 0.249356 0.089844
0.709841 0.253967 0.097909
0.749841 0.260895 0.106005
0.789609 0.267795 0.114435
0.826144 0.274228 0.122620
0.858992 0.279646 0.130179
0.889919 0.285298 0.137533
0.919828 0.291016 0.144980
0.072629 0.372168 0.303535
0.144962 0.383316 0.312285
0.233106 0.390577 0.307610
0.322318 0.373755 0.299867
0.401176 0.371949 0.276275
0.490913 0.358013 0.210537
0.573344 0.331055 0.122479
0.642928 0.317472 0.094390
0.697272 0.317158 0.099749
0.743638 0.319963 0.107733
0.783255 0.323752 0.115599
0.818128 0.330117 0.123240
0.851930 0.336388 0.130868
0.881909 0.342129 0.137873
0.910069 0.347469 0.144597
0.943433 0.352533 0.153107
0.151828 0.462504 0.343079
0.215151 0.471860 0.349136
0.279612 0.479243 0.341159
0.362043 0.463684 0.344866
0.428683 0.456336 0.330290
0.504911 0.451133 0.297999
0.584445 0.432738 0.227152
0.656742 0.406233 0.141724
0.720634 0.393834 0.117468
0.769621 0.391110 0.118695
0.807075 0.393020 0.125521
0.842743 0.396055 0.132784
0.875619 0.400924 0.140108
0.904220 0.406072 0.146907
0.929483 0.411709 0.153187
0.966010 0.417888 0.163584
0.217876 0.551415 0.370466
0.265238 0.559305 0.371406
0.315695 0.566787 0.364302
0.390386 0.558753 0.374398
0.451115 0.538430 0.364324
0.517422 0.539638 0.343914
0.584792 0.532253 0.311988
0.658650 0.512371 0.258826
0.724097 0.490829 0.190493
0.777651 0.477445 0.154119
0.819879 0.472536 0.146104
0.857135 0.471257 0.146814
0.891159 0.473031 0.151162
0.919373 0.477398 0.157332
0.944746 0.481806 0.163418
0.974126 0.494511 0.181650
0.259183 0.639538 0.382364
0.297677 0.645967 0.381089
0.341593 0.652760 0.377809
0.407596 0.651064 0.389656
0.467239 0.631737 0.386553
0.523782 0.617709 0.370137
0.587220 0.620433 0.342541
0.653040 0.615234 0.319591
0.719459 0.595693 0.285370
0.777444 0.577547 0.243593
0.820641 0.567763 0.216077
0.858972 0.562466 0.200373
0.894435 0.560007 0.191662
0.925239 0.561342 0.191518
0.951355 0.564098 0.195090
0.975733 0.576594 0.219637
0.280215 0.723161 0.380179
0.316010 0.728683 0.380504
0.359859 0.734114 0.383441
0.417522 0.736307 0.394733
0.471622 0.721435 0.392628
0.526125 0.705285 0.384513
0.582586 0.694694 0.367268
0.648387 0.697811 0.338971
0.716062 0.696306 0.321460
0.770801 0.679778 0.305357
0.817263 0.663828 0.286772
0.859751 0.653243 0.271435
0.895627 0.649326 0.258118
0.926920 0.647616 0.249334
0.953747 0.647329 0.245054
0.977004 0.656962 0.268143
0.291697 0.792784 0.372819
0.327406 0.797449 0.375026
0.375081 0.801413 0.386282
0.422377 0.803975 0.392700
0.470655 0.793369 0.390632
0.522794 0.780115 0.385266
0.578102 0.766009 0.374685
0.639373 0.759472 0.357815
0.707561 0.762783 0.334096
0.769700 0.764186 0.327655
0.814767 0.749931 0.322488
0.856537 0.735981 0.314222
0.894705 0.725431 0.309741
0.929460 0.719488 0.300674
0.955341 0.718652 0.295913
0.980148 0.723856 0.308888
0.299472 0.852195 0.363551
0.336888 0.855706 0.369306
0.387617 0.858337 0.387981
0.423517 0.860502 0.387225
0.466933 0.852910 0.384930
0.517766 0.841370 0.380842
0.574146 0.829265 0.373487
0.632632 0.816420 0.363609
0.696858 0.814374 0.350028
0.757135 0.816777 0.335899
0.814597 0.819183 0.330381
0.856987 0.807221 0.339383
0.894727 0.795002 0.336913
0.928065 0.785711 0.337681
0.957688 0.779538 0.337890
0.982704 0.780650 0.346395
0.307644 0.902550 0.356548
0.347134 0.904793 0.367568
0.390634 0.906459 0.382808
0.423682 0.908483 0.381579
0.465520 0.902761 0.379463
0.515596 0.892844 0.375944
0.572406 0.882404 0.371194
0.632039 0.871356 0.364861
0.688789 0.861312 0.358270
0.746549 0.861516 0.350788
0.802446 0.863676 0.344015
0.856873 0.865980 0.340445
0.896850 0.856747 0.358009
0.930069 0.846166 0.359483
0.958240 0.838090 0.362347
0.983733 0.833875 0.374724
0.315242 0.943629 0.354103
0.358700 0.945120 0.371060
0.395901 0.946522 0.381480
0.428061 0.948256 0.380158
0.469419 0.943830 0.378560
0.519137 0.935146 0.375765
0.576529 0.925935 0.373035
0.635033 0.916654 0.369505
0.689478 0.907407 0.366334
0.740304 0.900085 0.363536
0.795467 0.901695 0.360325
0.848111 0.903891 0.358330
0.897918 0.906237 0.358461
0.933099 0.898238 0.379251
0.960624 0.889662 0.382697
0.985636 0.882964 0.390813
0.329858 0.976391 0.360616
0.376103 0.977633 0.381789
0.407477 0.978942 0.387045
0.439644 0.980274 0.386091
0.480521 0.976819 0.384515
0.531086 0.968755 0.383586
0.587232 0.960515 0.381507
0.642989 0.952551 0.380172
0.694421 0.944471 0.379316
0.743314 0.936584 0.378769
0.793348 0.932469 0.378092
0.844370 0.934565 0.377821
0.892306 0.936565 0.378167
0.935658 0.938498 0.380244
0.963213 0.931262 0.403190
0.988026 0.924202 0.410859
0.349486 1.000020 0.373970
0.397053 1.000020 0.397418
0.423236 1.000020 0.397383
0.455915 1.000020 0.396652
0.497415 1.000020 0.396000
0.547637 0.998996 0.396125
0.601957 0.991468 0.396428
0.652700 0.984338 0.396111
0.702821 0.976971 0.396640
0.750925 0.970008 0.397376
0.796342 0.962550 0.398441
0.844109 0.961408 0.398430
0.889887 0.963499 0.399652
0.930927 0.965191 0.401152
0.966088 0.966764 0.403291
0.990550 0.960228 0.437388
0.010294 0.010297 0.063832
0.014922 0.016531 0.093482
0.026264 0.057657 0.167555
0.129176 0.051234 0.200877
0.290337 0.047957 0.200436
0.420103 0.047376 0.177580
0.508887 0.059247 0.158477
0.586129 0.071419 0.147137
0.661468 0.084642 0.141085
0.722140 0.096347 0.141312
0.774328 0.107191 0.144470
0.820122 0.117318 0.148963
0.856430 0.125672 0.153616
0.886745 0.132937 0.158393
0.913975 0.139576 0.163030
0.939035 0.145791 0.167633
0.017405 0.040483 0.107701
0.021827 0.058855 0.135303
0.028287 0.085457 0.178194
0.091897 0.094901 0.213292
0.241806 0.094974 0.208326
0.374100 0.091163 0.191037
0.480751 0.087456 0.172737
0.580756 0.085964 0.156771
0.660081 0.090095 0.147817
0.719044 0.097233 0.145452
0.774095 0.107725 0.145590
0.821811 0.118043 0.148531
0.862776 0.127409 0.152843
0.898208 0.135819 0.158023
0.926948 0.142875 0.162939
0.952007 0.149053 0.167650
0.027087 0.104569 0.163513
0.031136 0.126418 0.189607
0.035418 0.146740 0.221208
0.107832 0.166098 0.259191
0.265228 0.165757 0.236893
0.384548 0.167830 0.222440
0.482371 0.169839 0.210898
0.578786 0.171103 0.201566
0.664217 0.171103 0.194277
0.737891 0.170951 0.189143
0.804149 0.170859 0.185399
0.857455 0.171377 0.183634
0.901311 0.173022 0.183507
0.939769 0.175412 0.184432
0.973441 0.178403 0.186254
0.998342 0.182773 0.189338
0.037603 0.186063 0.222970
0.041136 0.210699 0.247392
0.044792 0.227314 0.276342
0.142502 0.244084 0.294549
0.295092 0.249841 0.272233
0.397718 0.256156 0.271508
0.489982 0.258493 0.259573
0.582672 0.254293 0.244123
0.668057 0.249730 0.231484
0.735661 0.245955 0.222898
0.795345 0.242629 0.216554
0.847154 0.240742 0.212383
0.888237 0.240883 0.211145
0.923333 0.242341 0.211276
0.954620 0.244988 0.212520
0.983289 0.248740 0.215009
0.048328 0.282620 0.279151
0.050385 0.299321 0.297696
0.089625 0.312040 0.319113
0.234264 0.324496 0.319323
0.341080 0.321689 0.295267
0.443190 0.321970 0.282510
0.533124 0.317834 0.265827
0.621175 0.308376 0.243352
0.702724 0.297977 0.222473
0.765418 0.290669 0.208965
0.817362 0.286686 0.201364
0.863532 0.285121 0.196912
0.902507 0.285297 0.195455
0.934308 0.287353 0.197013
0.963022 0.290826 0.199892
0.989373 0.295706 0.204204
0.057882 0.374243 0.328309
0.066192 0.386757 0.343178
0.168023 0.398957 0.358827
0.288958 0.407464 0.357119
0.382250 0.395578 0.342671
0.471049 0.396456 0.317888
0.561690 0.387138 0.285909
0.642009 0.377348 0.259401
0.714916 0.366799 0.232775
0.772435 0.359135 0.214177
0.820315 0.353845 0.202329
0.864714 0.350518 0.194659
0.901530 0.352395 0.195009
0.932422 0.354664 0.196935
0.959757 0.358477 0.200833
0.985533 0.368087 0.213867
0.083820 0.465468 0.370683
0.148432 0.476690 0.381413
0.239886 0.487445 0.391577
0.330703 0.495275 0.388096
0.416248 0.476435 0.379302
0.493984 0.476292 0.367678
0.574695 0.471203 0.338239
0.656026 0.457876 0.298378
0.727045 0.447084 0.270526
0.783065 0.438903 0.249177
0.827596 0.434028 0.235780
0.867333 0.431847 0.227006
0.903424 0.431497 0.221185
0.933034 0.433923 0.220464
0.959016 0.437092 0.221021
0.980998 0.452235 0.241758
0.160984 0.556193 0.397531
0.222182 0.565995 0.405845
0.293624 0.575145 0.414432
0.361702 0.583079 0.409193
0.444085 0.568663 0.412273
0.510757 0.556899 0.394149
0.581373 0.557608 0.383303
0.656734 0.547868 0.359398
