old/src/luts/3h10_to_Yuma_-_Rec709.3dl
# Created by Benjamin (IWLTBAP) : http://luts.iwltbap.com
# Copyright: (C) Copyright 2016 Triune Films and IWLTBAP
# Blockbuster LUTs Pack
0 64 128 192 256 320 384 448 512 576 640 704 768 832 896 960 1023
85 56 35
19 15 66
14 12 146
4 8 258
1 5 411
2 25 635
0 4 706
1 0 810
0 10 944
0 61 1113
7 142 1333
12 160 1414
6 191 1523
2 217 1629
7 265 1782
5 322 1933
4 339 2011
216 273 55
86 201 178
58 183 264
30 152 445
16 165 611
17 196 784
17 146 900
11 165 1047
10 170 1189
3 187 1314
18 244 1454
5 246 1566
1 260 1681
6 291 1793
8 325 1904
4 358 2045
13 362 2103
446 551 92
339 463 263
301 452 407
252 432 525
215 417 723
197 420 855
131 400 1034
99 360 1130
70 360 1328
69 386 1455
53 387 1578
20 352 1663
2 343 1784
12 379 1888
10 380 2021
21 408 2110
20 403 2179
657 814 316
571 738 373
532 714 463
464 693 621
435 683 768
462 705 925
387 657 1067
324 625 1264
269 593 1429
237 589 1573
230 593 1700
162 540 1809
133 520 1908
103 512 2021
46 477 2119
60 489 2220
33 477 2297
762 1033 375
698 986 462
683 977 558
655 971 686
613 945 871
599 944 1022
560 918 1194
521 880 1342
481 859 1528
453 843 1637
437 835 1758
374 769 1894
325 725 2021
282 705 2154
206 638 2248
213 630 2315
175 592 2376
859 1296 496
802 1272 533
778 1267 651
748 1253 802
720 1231 923
713 1225 1090
702 1202 1266
669 1162 1431
632 1119 1569
626 1115 1741
628 1105 1866
570 1031 1971
533 988 2089
479 937 2226
431 864 2352
436 856 2441
394 779 2499
1039 1559 568
983 1536 635
952 1527 731
921 1530 881
872 1502 1020
836 1501 1176
780 1476 1366
743 1447 1530
716 1420 1678
715 1407 1824
711 1397 1940
695 1342 2085
682 1301 2209
653 1241 2335
627 1154 2453
627 1111 2547
611 1025 2617
1205 1774 637
1176 1775 703
1139 1766 818
1111 1778 956
1050 1757 1086
1001 1751 1265
951 1739 1441
910 1721 1604
861 1688 1755
837 1680 1900
828 1662 2032
803 1639 2156
781 1594 2290
771 1556 2417
750 1492 2553
746 1439 2608
730 1346 2715
1385 2005 736
1366 2021 810
1335 2016 915
1292 2015 1035
1235 1992 1185
1184 1986 1365
1116 1974 1521
1052 1953 1689
1006 1935 1851
989 1926 1992
979 1909 2115
954 1885 2235
949 1860 2367
945 1836 2490
932 1793 2639
911 1744 2697
907 1681 2805
1567 2212 842
1553 2228 901
1531 2230 994
1493 2224 1120
1418 2203 1266
1371 2194 1425
1317 2196 1588
1260 2189 1747
1219 2174 1906
1193 2160 2036
1179 2136 2165
1157 2132 2311
1144 2108 2446
1132 2086 2574
1085 2047 2688
1049 1983 2758
1066 1965 2887
1759 2409 937
1756 2423 991
1727 2429 1089
1694 2425 1202
1641 2428 1347
1584 2408 1505
1533 2411 1656
1484 2405 1823
1440 2394 1962
1394 2375 2118
1369 2356 2237
1350 2352 2371
1327 2327 2505
1312 2308 2642
1278 2282 2757
1247 2230 2826
1252 2209 2945
1967 2599 1028
1963 2612 1086
1943 2630 1187
1902 2624 1292
1859 2621 1418
1781 2606 1558
1735 2616 1721
1692 2607 1878
1647 2602 2020
1603 2587 2163
1571 2563 2288
1543 2554 2426
1531 2564 2580
1515 2535 2696
1474 2510 2818
1438 2463 2891
1453 2456 3018
2147 2750 1135
2136 2763 1206
2117 2777 1291
2082 2780 1386
2038 2779 1502
1970 2762 1642
1941 2787 1809
1892 2786 1960
1851 2778 2075
1794 2761 2232
1748 2734 2346
1736 2739 2482
1720 2733 2627
1700 2720 2746
1667 2698 2864
1633 2671 2966
1662 2670 3061
2312 2895 1242
2339 2934 1308
2298 2950 1396
2255 2933 1481
2212 2939 1587
2143 2909 1722
2116 2939 1863
2070 2940 2012
2023 2928 2137
1979 2936 2271
1925 2907 2406
1912 2909 2537
1900 2920 2698
1889 2892 2797
1867 2871 2912
1821 2836 2994
1869 2847 3117
2480 3048 1355
2500 3083 1433
2476 3090 1492
2452 3093 1583
2410 3085 1689
2334 3062 1819
2302 3090 1959
2259 3089 2078
2214 3075 2218
2176 3085 2325
2113 3063 2457
2104 3076 2595
2065 3069 2728
2053 3067 2848
2041 3041 2974
2014 2996 3045
2074 3026 3150
2614 3174 1464
2652 3212 1536
2629 3216 1615
2598 3214 1675
2559 3206 1784
2488 3186 1875
2484 3215 2015
2449 3221 2139
2402 3218 2250
2360 3209 2382
2296 3186 2505
2289 3209 2640
2265 3212 2777
2242 3207 2887
2228 3201 3006
2175 3149 3073
2263 3174 3176
2747 3271 1563
2794 3313 1661
2776 3313 1708
2753 3317 1791
2725 3313 1869
2642 3285 1953
2640 3314 2077
2607 3320 2200
2567 3322 2317
2529 3317 2426
2459 3288 2540
2472 3311 2669
2455 3309 2795
2440 3308 2923
2421 3300 3022
2350 3268 3093
2450 3300 3215
119 15 15
93 9 54
63 11 130
34 4 244
18 1 418
6 2 577
4 0 736
3 0 882
2 29 1005
9 75 1150
4 117 1308
3 148 1420
9 196 1555
6 242 1725
4 279 1830
21 308 1930
5 325 2026
304 197 32
232 175 160
165 154 321
138 135 438
90 138 602
62 144 751
32 134 873
19 128 1007
7 153 1188
16 184 1322
10 213 1454
11 237 1572
13 269 1719
2 292 1806
2 331 1960
4 346 2075
8 360 2146
416 465 93
391 441 223
356 415 419
315 396 498
283 392 696
219 378 853
171 364 985
145 356 1144
112 379 1314
75 371 1428
43 360 1547
39 353 1663
24 343 1790
11 361 1895
23 391 2054
37 388 2121
14 391 2188
628 748 242
595 736 333
546 699 457
522 696 611
476 655 754
441 646 891
402 628 1072
343 594 1257
302 566 1397
249 548 1526
219 551 1666
187 544 1810
142 515 1932
115 492 1995
54 473 2131
38 439 2187
24 444 2275
758 999 328
730 980 432
701 967 592
674 960 695
638 932 848
598 913 1000
585 904 1192
546 872 1354
513 852 1498
480 828 1648
445 800 1761
394 761 1909
334 721 2041
290 664 2104
230 625 2236
195 603 2330
198 582 2381
861 1261 456
846 1262 524
806 1259 662
767 1242 811
744 1227 935
717 1202 1078
709 1185 1271
677 1152 1416
661 1123 1564
636 1104 1723
615 1063 1855
583 1025 1981
538 977 2110
507 930 2225
457 864 2355
451 818 2437
421 773 2504
1056 1547 543
1023 1538 619
976 1520 731
938 1518 863
900 1501 1014
845 1478 1157
800 1476 1351
761 1448 1523
735 1417 1656
723 1402 1819
708 1373 1944
701 1340 2070
687 1290 2207
651 1217 2303
643 1139 2461
631 1070 2556
645 1022 2598
1231 1776 638
1207 1771 703
1170 1771 830
1131 1771 953
1080 1757 1098
1023 1748 1266
961 1728 1441
928 1717 1615
888 1700 1749
849 1677 1890
822 1646 2028
808 1627 2129
784 1581 2281
785 1552 2437
759 1478 2551
744 1401 2635
745 1338 2721
1420 2017 732
1386 2017 793
1352 2001 900
1315 2014 1027
1261 1995 1187
1210 1986 1363
1139 1968 1513
1085 1954 1689
1040 1941 1830
1013 1925 1979
989 1908 2114
981 1890 2232
964 1858 2361
954 1825 2485
942 1786 2639
916 1733 2726
926 1679 2810
1597 2221 844
1575 2226 892
1547 2224 1003
1516 2219 1115
1453 2211 1273
1400 2211 1420
1342 2193 1604
1286 2184 1758
1248 2181 1907
1220 2165 2045
1200 2144 2180
1175 2121 2291
1156 2096 2436
1149 2085 2574
1103 2048 2699
1068 1987 2802
1081 1953 2902
1787 2424 929
1773 2430 976
1753 2433 1076
1715 2423 1201
1668 2425 1344
1614 2424 1506
1559 2410 1665
1504 2398 1827
1464 2394 1969
1429 2384 2112
1397 2368 2246
1370 2349 2366
1340 2324 2500
1318 2301 2634
1293 2282 2770
1266 2238 2854
1265 2209 2946
1993 2609 1032
1990 2625 1078
1959 2626 1179
1926 2626 1287
1880 2625 1424
1809 2624 1570
1756 2615 1735
1704 2601 1889
1661 2603 2039
1630 2593 2182
1599 2578 2305
1558 2559 2430
1537 2544 2586
1518 2531 2684
1484 2509 2831
1464 2479 2939
1466 2457 3020
2176 2767 1141
2161 2772 1183
2139 2783 1278
2103 2787 1390
2057 2784 1509
2004 2785 1642
1944 2776 1812
1899 2771 1946
1861 2782 2109
1813 2766 2241
1782 2758 2365
1749 2743 2485
1734 2733 2625
1714 2723 2733
1680 2701 2890
1665 2685 2990
1680 2671 3067
2348 2922 1263
2349 2942 1309
2314 2943 1377
2278 2944 1473
2226 2935 1593
2176 2927 1725
2131 2936 1864
2085 2938 2015
2037 2930 2165
2000 2938 2279
1961 2928 2418
1928 2922 2552
1908 2913 2700
1902 2899 2793
1879 2873 2923
1865 2862 3039
1878 2843 3112
2520 3078 1368
2501 3087 1416
2488 3088 1473
2455 3087 1576
2420 3086 1682
2378 3087 1813
2313 3090 1956
2270 3083 2072
2226 3079 2214
2186 3087 2331
2154 3089 2469
2114 3081 2606
2078 3071 2729
2064 3065 2855
2048 3039 2986
2070 3035 3082
2086 3027 3157
2662 3207 1489
2662 3215 1536
2638 3219 1590
2612 3220 1673
2580 3209 1792
2533 3212 1883
2492 3214 2004
2456 3221 2141
2414 3217 2258
2376 3212 2378
2342 3211 2511
2308 3217 2641
2279 3212 2771
2257 3211 2878
2237 3201 3012
2244 3197 3116
2284 3181 3187
2807 3313 1614
2807 3319 1662
2783 3302 1693
2759 3312 1777
2731 3311 1855
2694 3309 1953
2656 3318 2066
2618 3323 2188
2582 3329 2314
2540 3317 2415
2509 3310 2545
2484 3316 2681
2469 3311 2793
2446 3305 2912
2432 3302 3037
2426 3304 3128
2453 3299 3218
277 11 10
273 4 23
235 3 86
180 0 194
127 2 368
89 2 543
57 0 708
42 1 848
33 31 1001
32 96 1196
15 122 1329
10 168 1470
19 201 1593
24 241 1731
24 279 1853
23 311 1954
27 327 2032
466 169 29
431 152 104
368 136 236
310 111 390
237 104 552
173 116 723
134 99 881
85 100 1027
53 127 1183
31 151 1340
20 193 1460
28 224 1594
21 252 1705
21 298 1852
30 321 1981
24 333 2060
24 356 2153
553 443 55
537 410 163
499 412 297
421 384 459
399 376 641
324 335 817
283 350 948
239 345 1151
168 340 1266
146 356 1431
96 349 1562
63 331 1680
57 333 1786
50 369 1919
40 376 2041
32 376 2148
46 400 2223
699 714 223
677 695 309
651 683 412
589 654 583
571 654 739
529 636 911
473 592 1068
414 572 1228
374 562 1407
335 546 1540
275 536 1676
234 523 1783
206 506 1903
123 476 2026
108 464 2159
74 426 2199
57 444 2284
815 983 302
810 966 395
780 952 529
748 944 674
729 924 816
676 892 980
647 884 1145
604 859 1325
565 841 1486
530 814 1629
494 797 1773
445 742 1866
405 706 1985
338 659 2121
301 628 2229
254 598 2339
249 573 2383
945 1260 445
912 1246 522
879 1243 629
835 1229 763
814 1220 912
766 1190 1042
747 1174 1244
722 1147 1411
696 1114 1570
676 1093 1693
649 1056 1861
623 1015 1980
586 970 2106
536 907 2232
510 851 2339
482 793 2410
464 754 2495
1103 1531 540
1078 1523 613
1024 1513 710
984 1515 845
940 1497 993
888 1476 1138
832 1462 1336
788 1437 1511
760 1415 1650
750 1394 1803
732 1365 1931
725 1329 2073
708 1284 2190
675 1208 2317
679 1130 2442
671 1060 2547
689 1024 2615
1268 1775 640
1244 1767 705
1207 1763 811
1170 1768 926
1119 1756 1079
1066 1741 1239
990 1723 1431
950 1706 1617
915 1686 1751
886 1673 1895
855 1640 2032
832 1615 2168
810 1576 2276
796 1529 2407
791 1465 2540
777 1396 2638
786 1337 2713
1445 2000 716
1424 2007 791
1387 2000 910
1346 2006 1021
1300 1998 1160
1245 1983 1338
1174 1964 1519
1124 1961 1693
1073 1932 1827
1043 1918 1981
1022 1906 2112
1012 1883 2236
995 1854 2355
973 1821 2482
960 1780 2635
950 1727 2721
952 1670 2807
1626 2219 847
1594 2212 905
1569 2210 983
1544 2217 1105
1486 2207 1253
1435 2206 1399
1382 2196 1579
1326 2186 1755
1282 2172 1887
1256 2161 2047
1235 2145 2180
1203 2111 2298
1184 2094 2427
1169 2083 2559
1130 2044 2686
1101 1989 2772
1104 1947 2884
1819 2413 933
1796 2424 973
1780 2426 1079
1750 2427 1194
1701 2426 1333
1635 2416 1488
1586 2408 1662
1534 2400 1835
1488 2388 1967
1458 2384 2117
1419 2358 2234
1393 2342 2365
1362 2322 2497
1342 2303 2634
1311 2280 2758
1293 2241 2855
1278 2204 2947
2021 2614 1039
1998 2614 1089
1972 2611 1161
1949 2625 1289
1903 2623 1415
1843 2621 1558
1782 2616 1731
1730 2607 1894
1688 2604 2033
1656 2595 2175
1620 2576 2301
1581 2551 2424
1555 2537 2563
1549 2536 2695
1505 2511 2819
1489 2479 2909
1491 2463 3017
2203 2763 1143
2192 2777 1189
2153 2769 1261
2121 2781 1391
2079 2783 1500
2022 2780 1636
1967 2777 1792
1916 2771 1952
1881 2777 2105
1834 2770 2248
1797 2751 2357
1773 2743 2489
1743 2726 2638
1733 2722 2746
1698 2701 2872
1676 2685 2976
1689 2669 3075
2382 2933 1265
2361 2933 1312
2333 2942 1370
2300 2945 1485
2258 2944 1588
2196 2925 1721
2150 2937 1870
2100 2936 2013
2054 2931 2148
2014 2936 2281
1970 2925 2413
1938 2916 2570
1915 2907 2688
1915 2895 2803
1889 2873 2915
1888 2865 3029
1901 2846 3110
2539 3079 1370
2528 3089 1416
2505 3088 1476
2471 3088 1577
2437 3089 1674
2394 3084 1810
2338 3093 1940
2289 3090 2080
2243 3081 2212
2201 3087 2333
2168 3084 2464
2132 3083 2600
2095 3073 2723
2080 3065 2868
2063 3044 2981
2077 3033 3073
2097 3025 3157
2681 3207 1482
2667 3208 1528
2649 3215 1594
2622 3215 1685
2590 3211 1783
2545 3212 1888
2509 3218 2018
2469 3221 2136
2427 3216 2247
2391 3216 2375
2354 3216 2506
2318 3214 2660
2281 3207 2762
2261 3210 2888
2248 3203 3019
2262 3197 3122
2298 3182 3196
2823 3313 1607
2821 3316 1656
2798 3312 1708
2766 3307 1772
2742 3311 1861
2705 3315 1960
2664 3319 2072
2627 3322 2185
2591 3329 2312
2550 3317 2428
2523 3311 2553
2491 3314 2689
2471 3308 2790
2456 3307 2919
2440 3299 3037
2440 3305 3137
2466 3297 3214
408 4 4
442 5 26
446 11 61
397 6 179
332 2 328
299 5 464
239 3 672
197 8 855
150 32 1001
110 87 1164
90 111 1286
75 159 1458
68 207 1600
65 237 1712
71 284 1855
102 307 1953
88 321 2026
653 117 21
630 128 65
580 98 159
539 92 324
470 89 508
395 83 659
336 66 810
260 74 976
183 116 1169
137 145 1316
105 186 1466
78 217 1587
83 250 1700
63 280 1830
101 328 1988
99 335 2068
