old/src/luts/3h10_to_Yuma_-_Rec709.3dl
# Created by Benjamin (IWLTBAP) : http://luts.iwltbap.com
# Copyright: (C) Copyright 2016 Triune Films and IWLTBAP
# Blockbuster LUTs Pack
0 256 512 768 1023
85 56 35
1 5 411
0 10 944
6 191 1523
4 339 2011
762 1033 375
613 945 871
481 859 1528
325 725 2021
175 592 2376
1385 2005 736
1235 1992 1185
1006 1935 1851
949 1860 2367
907 1681 2805
2147 2750 1135
2038 2779 1502
1851 2778 2075
1720 2733 2627
1662 2670 3061
2747 3271 1563
2725 3313 1869
2567 3322 2317
2455 3309 2795
2450 3300 3215
612 0 0
594 4 325
396 31 993
242 208 1600
329 326 1997
1185 934 202
1018 873 741
794 776 1430
585 651 1998
507 546 2385
1648 1990 654
1533 1976 1114
1332 1918 1782
1211 1839 2330
1134 1637 2784
2272 2767 1119
2143 2781 1483
1951 2767 2091
1802 2724 2613
1762 2667 3045
2850 3306 1602
2778 3311 1857
2619 3323 2292
2501 3308 2779
2487 3293 3218
1377 102 21
1483 143 96
1379 115 745
1225 189 1435
1156 316 1915
2006 771 43
1919 712 488
1672 616 1218
1415 516 1805
1208 443 2202
2399 1889 549
2304 1879 957
2093 1833 1646
1890 1741 2242
1744 1546 2698
2759 2719 1048
2677 2729 1407
2492 2729 1981
2326 2700 2539
2222 2624 2990
3125 3291 1548
3057 3294 1796
2912 3306 2238
2770 3303 2741
2703 3286 3179
2115 311 27
2191 318 72
2092 289 703
1965 286 1322
1844 337 1820
2653 594 7
2589 561 235
2349 497 986
2114 413 1562
1891 397 2026
3066 1746 479
3009 1731 766
2830 1666 1453
2596 1575 2070
2369 1346 2530
3365 2658 994
3295 2666 1279
3116 2654 1856
2945 2633 2413
2776 2538 2882
3576 3254 1538
3543 3270 1720
3390 3283 2158
3237 3289 2656
3099 3267 3123
2571 407 0
2619 412 97
2540 391 670
2454 390 1270
2324 404 1786
2978 566 30
2957 528 213
2739 465 861
2546 429 1436
2392 427 1923
3468 1560 467
3438 1537 681
3342 1426 1313
3089 1283 1890
2818 1080 2344
3590 2562 1036
3588 2557 1239
3563 2553 1777
3458 2496 2282
3271 2403 2778
3614 3199 1709
3612 3173 1758
3609 3211 2190
3601 3229 2618
3559 3218 3031
