old/src/luts/3h10_to_Yuma_-_Rec709.3dl
# Created by Benjamin (IWLTBAP) : http://luts.iwltbap.com
# Copyright: (C) Copyright 2016 Triune Films and IWLTBAP
# Blockbuster LUTs Pack
0 128 256 384 512 640 768 896 1023
85 56 35
14 12 146
1 5 411
0 4 706
0 10 944
7 142 1333
6 191 1523
7 265 1782
4 339 2011
446 551 92
301 452 407
215 417 723
131 400 1034
70 360 1328
53 387 1578
2 343 1784
10 380 2021
20 403 2179
762 1033 375
683 977 558
613 945 871
560 918 1194
481 859 1528
437 835 1758
325 725 2021
206 638 2248
175 592 2376
1039 1559 568
952 1527 731
872 1502 1020
780 1476 1366
716 1420 1678
711 1397 1940
682 1301 2209
627 1154 2453
611 1025 2617
1385 2005 736
1335 2016 915
1235 1992 1185
1116 1974 1521
1006 1935 1851
979 1909 2115
949 1860 2367
932 1793 2639
907 1681 2805
1759 2409 937
1727 2429 1089
1641 2428 1347
1533 2411 1656
1440 2394 1962
1369 2356 2237
1327 2327 2505
1278 2282 2757
1252 2209 2945
2147 2750 1135
2117 2777 1291
2038 2779 1502
1941 2787 1809
1851 2778 2075
1748 2734 2346
1720 2733 2627
1667 2698 2864
1662 2670 3061
2480 3048 1355
2476 3090 1492
2410 3085 1689
2302 3090 1959
2214 3075 2218
2113 3063 2457
2065 3069 2728
2041 3041 2974
2074 3026 3150
2747 3271 1563
2776 3313 1708
2725 3313 1869
2640 3314 2077
2567 3322 2317
2459 3288 2540
2455 3309 2795
2421 3300 3022
2450 3300 3215
277 11 10
235 3 86
127 2 368
57 0 708
33 31 1001
15 122 1329
19 201 1593
24 279 1853
27 327 2032
553 443 55
499 412 297
399 376 641
283 350 948
168 340 1266
96 349 1562
57 333 1786
40 376 2041
46 400 2223
815 983 302
780 952 529
729 924 816
647 884 1145
565 841 1486
494 797 1773
405 706 1985
301 628 2229
249 573 2383
1103 1531 540
1024 1513 710
940 1497 993
832 1462 1336
760 1415 1650
732 1365 1931
708 1284 2190
679 1130 2442
689 1024 2615
1445 2000 716
1387 2000 910
1300 1998 1160
1174 1964 1519
1073 1932 1827
1022 1906 2112
995 1854 2355
960 1780 2635
952 1670 2807
1819 2413 933
1780 2426 1079
1701 2426 1333
1586 2408 1662
1488 2388 1967
1419 2358 2234
1362 2322 2497
1311 2280 2758
1278 2204 2947
2203 2763 1143
2153 2769 1261
2079 2783 1500
1967 2777 1792
1881 2777 2105
1797 2751 2357
1743 2726 2638
1698 2701 2872
1689 2669 3075
2539 3079 1370
2505 3088 1476
2437 3089 1674
2338 3093 1940
2243 3081 2212
2168 3084 2464
2095 3073 2723
2063 3044 2981
2097 3025 3157
2823 3313 1607
2798 3312 1708
2742 3311 1861
2664 3319 2072
2591 3329 2312
2523 3311 2553
2471 3308 2790
2440 3299 3037
2466 3297 3214
612 0 0
657 2 24
594 4 325
519 13 652
396 31 993
307 118 1282
242 208 1600
295 301 1864
329 326 1997
964 381 43
925 335 184
808 300 546
711 280 885
527 281 1251
404 285 1497
323 300 1759
312 350 2020
333 381 2185
1185 934 202
1131 905 425
1018 873 741
904 828 1067
794 776 1430
690 723 1724
585 651 1998
500 576 2222
507 546 2385
1389 1500 459
1357 1477 651
1273 1459 931
1160 1424 1275
1045 1382 1616
944 1316 1908
885 1225 2181
857 1102 2413
846 992 2601
1648 1990 654
1613 1991 850
1533 1976 1114
1419 1950 1463
1332 1918 1782
1264 1891 2078
1211 1839 2330
1160 1751 2609
1134 1637 2784
1926 2419 906
1878 2415 1046
1800 2412 1310
1695 2401 1628
1613 2382 1940
1554 2352 2213
1505 2319 2483
1447 2263 2741
1427 2191 2933
2272 2767 1119
2226 2768 1259
2143 2781 1483
2033 2770 1777
1951 2767 2091
1873 2751 2341
1802 2724 2613
1756 2696 2866
1762 2667 3045
2589 3073 1368
2550 3084 1474
2480 3079 1673
2396 3084 1935
2295 3082 2206
2222 3082 2450
2141 3070 2718
2106 3041 2962
2132 3021 3145
2850 3306 1602
2833 3309 1713
2778 3311 1857
2709 3320 2072
2619 3323 2292
2556 3306 2544
2501 3308 2779
2472 3302 3028
2487 3293 3218
1046 45 11
1077 35 34
1057 28 196
1013 21 473
940 77 905
819 108 1191
759 187 1491
733 263 1769
730 315 1970
1401 335 20
1351 282 84
1289 241 401
1193 227 731
1061 204 1129
918 227 1408
843 280 1687
812 332 1922
756 359 2112
1591 840 103
1557 828 324
1488 781 614
1368 742 958
1245 691 1315
1127 649 1629
1004 581 1901
910 521 2153
867 492 2293
1813 1428 387
1781 1421 552
1718 1398 830
1599 1367 1195
1482 1317 1530
1367 1249 1846
1272 1156 2130
1187 1022 2383
1127 935 2562
2028 1945 602
1999 1941 761
1939 1928 1042
1824 1920 1399
1728 1901 1735
1624 1851 2017
1539 1791 2298
1460 1698 2582
1432 1613 2759
2260 2382 852
2228 2377 975
2158 2384 1245
2059 2377 1564
1954 2364 1894
1863 2326 2169
1799 2295 2433
1733 2240 2706
1683 2161 2920
2476 2746 1095
2460 2747 1223
2387 2758 1445
2284 2764 1741
2190 2753 2044
2092 2741 2312
2047 2708 2573
2004 2684 2843
1988 2643 3021
2685 3062 1341
2643 3078 1449
2584 3077 1655
2500 3077 1910
2411 3080 2177
2342 3073 2439
2281 3069 2699
2250 3037 2937
2264 3020 3128
2923 3300 1589
2895 3308 1682
2841 3303 1848
2770 3308 2047
2694 3321 2290
2621 3312 2526
2560 3309 2776
2527 3297 3017
2549 3289 3201
1377 102 21
1517 151 14
1483 143 96
1456 128 405
1379 115 745
1308 159 1172
1225 189 1435
1167 264 1717
1156 316 1915
1790 288 9
1769 296 40
1706 258 254
1601 214 609
1492 209 992
1368 216 1317
1295 266 1628
1210 323 1873
1137 341 2070
2006 771 43
1992 754 189
1919 712 488
1800 657 853
1672 616 1218
1529 554 1521
1415 516 1805
1308 469 2049
1208 443 2202
2198 1360 315
2179 1348 461
2114 1327 722
2007 1282 1060
1876 1234 1442
1750 1163 1742
1653 1086 2038
1531 956 2293
1441 855 2469
2399 1889 549
2375 1896 681
2304 1879 957
2192 1863 1309
2093 1833 1646
1981 1796 1939
1890 1741 2242
1811 1648 2505
1744 1546 2698
2592 2350 801
2556 2340 922
2498 2353 1184
2387 2338 1505
2282 2323 1819
2193 2303 2111
2098 2263 2390
2022 2199 2671
1978 2121 2844
2759 2719 1048
2743 2728 1180
2677 2729 1407
2579 2731 1693
2492 2729 1981
2406 2724 2259
2326 2700 2539
2268 2669 2798
2222 2624 2990
2938 3037 1319
2918 3051 1417
2876 3064 1601
2773 3063 1864
2690 3060 2115
2599 3059 2387
2534 3051 2667
2491 3027 2911
2478 3006 3095
3125 3291 1548
3108 3293 1646
3057 3294 1796
2995 3310 2009
2912 3306 2238
2827 3306 2485
2770 3303 2741
2725 3294 2992
2703 3286 3179
1795 224 25
1898 264 31
1867 243 79
1850 236 383
1765 202 730
1681 208 1059
1636 254 1395
1553 283 1683
1510 324 1885
2131 345 13
2112 332 10
2075 314 165
1972 289 555
1883 264 872
1777 263 1196
1688 287 1516
1552 306 1799
1510 358 2019
2358 687 31
2354 667 80
2277 610 357
2168 582 720
2054 531 1094
1920 495 1386
1796 449 1669
1648 402 1936
1570 412 2139
2557 1254 239
2542 1236 355
2490 1205 606
2395 1167 964
2260 1130 1333
2128 1076 1653
2022 985 1916
1877 862 2195
1778 771 2372
2735 1834 511
2721 1823 612
2668 1814 864
2563 1804 1222
2471 1766 1554
2356 1732 1873
2251 1670 2157
2141 1559 2419
2075 1461 2637
2905 2295 735
2897 2305 855
2830 2297 1102
2720 2280 1431
2631 2278 1752
2538 2248 2046
2441 2208 2328
2351 2141 2595
2296 2079 2789
3059 2687 1010
3051 2697 1107
2984 2704 1356
2893 2703 1625
2803 2697 1925
2707 2690 2202
2625 2665 2485
2555 2627 2737
2494 2583 2937
3201 3019 1321
3186 3027 1378
3136 3038 1563
3064 3048 1799
2975 3039 2073
2888 3043 2333
2807 3033 2611
2736 3010 2857
2699 2988 3057
3356 3281 1533
3347 3281 1585
3302 3279 1753
3223 3292 1957
3143 3300 2201
3071 3302 2439
2991 3294 2709
2929 3285 2955
2892 3280 3153
2115 311 27
2184 311 13
2191 318 72
2151 314 379
2092 289 703
2023 276 980
1965 286 1322
1912 313 1590
1844 337 1820
2392 386 20
2397 391 30
2372 372 95
2286 344 464
2203 328 836
2104 310 1090
2024 309 1437
1926 329 1713
1874 369 1943
2653 594 7
2621 585 59
2589 561 235
2486 535 602
2349 497 986
2231 448 1272
2114 413 1562
2001 393 1824
1891 397 2026
2862 1139 173
2851 1125 298
2814 1095 501
2731 1036 843
2603 993 1222
2483 953 1529
2344 894 1823
2199 757 2075
2071 656 2258
3066 1746 479
3049 1752 563
3009 1731 766
2911 1704 1112
2830 1666 1453
2711 1625 1760
2596 1575 2070
2469 1449 2329
2369 1346 2530
3223 2241 712
3202 2247 807
3155 2241 1014
3059 2226 1358
2971 2210 1658
2882 2176 1946
2773 2150 2250
2664 2076 2521
2595 2005 2717
3365 2658 994
3346 2658 1073
3295 2666 1279
3203 2667 1581
3116 2654 1856
3033 2650 2151
2945 2633 2413
2855 2582 2684
2776 2538 2882
3469 2999 1305
3454 3004 1375
3419 2999 1521
3353 3014 1771
3254 3017 2011
3182 3021 2286
3087 3013 2555
3008 2985 2798
2949 2955 3026
3576 3254 1538
3567 3258 1577
3543 3270 1720
3472 3274 1929
3390 3283 2158
3320 3291 2404
3237 3289 2656
3155 3275 2908
3099 3267 3123
2361 361 21
2445 379 9
2415 375 68
2367 356 337
2321 348 719
2278 342 993
2225 331 1298
2165 353 1557
2107 373 1808
2594 413 10
2615 419 12
2598 412 107
2511 391 430
2421 369 768
2348 358 1073
2263 350 1379
2193 371 1675
2132 384 1893
2816 574 39
2813 568 49
2800 535 166
2687 509 570
2575 471 914
2470 431 1180
2361 411 1486
2241 402 1764
2144 402 1970
3077 1036 144
3069 1017 257
3049 991 398
2985 925 772
2857 884 1128
2712 837 1439
2580 797 1739
2441 694 1992
2297 575 2166
3275 1667 465
3276 1667 560
3248 1650 698
3189 1602 1017
3105 1558 1364
2980 1516 1695
2853 1451 1980
2723 1351 2248
2606 1225 2443
3443 2183 688
3433 2181 786
3396 2179 987
3340 2174 1289
3248 2146 1595
3148 2104 1891
3037 2062 2191
2920 1990 2437
2825 1911 2665
3563 2622 983
3546 2618 1054
3522 2625 1243
3455 2633 1523
3375 2620 1824
3278 2604 2092
3188 2580 2350
3096 2532 2627
3005 2484 2823
3599 2978 1315
3597 2981 1363
3587 2967 1506
3553 2985 1759
3480 2980 2000
3409 2984 2251
3320 2979 2508
3237 2960 2761
3166 2929 2978
3616 3219 1633
3613 3220 1675
3614 3233 1786
3606 3241 1966
3589 3260 2162
3533 3271 2372
3456 3278 2613
3378 3259 2868
3306 3251 3085
2571 407 0
2636 424 3
2619 412 97
2560 401 365
2540 391 670
2487 378 981
2454 390 1270
2358 381 1535
2324 404 1786
2727 453 33
2771 460 20
2752 458 165
2682 429 438
2626 413 789
2550 396 1056
2491 395 1358
2401 396 1646
2386 424 1867
2978 566 30
2974 534 40
2957 528 213
2842 492 507
2739 465 861
2644 447 1144
2546 429 1436
2442 421 1709
2392 427 1923
3236 928 155
3220 911 253
3200 887 399
3173 831 701
3033 786 1057
2897 718 1376
2761 661 1631
2609 633 1906
2519 554 2081
3468 1560 467
3461 1553 558
3438 1537 681
3447 1462 952
3342 1426 1313
3218 1373 1621
3089 1283 1890
2918 1211 2153
2818 1080 2344
3599 2105 735
3590 2115 840
3569 2100 956
3577 2078 1232
3503 2022 1519
3405 1998 1818
3306 1959 2115
3133 1883 2357
3084 1814 2576
3590 2562 1036
3589 2572 1113
3588 2557 1239
3586 2565 1504
3563 2553 1777
3536 2528 2012
3458 2496 2282
3323 2440 2535
3271 2403 2778
3602 2941 1346
3603 2942 1405
3598 2905 1491
3593 2943 1755
3591 2934 1995
3580 2933 2217
3550 2931 2467
3471 2883 2682
3430 2871 2923
3614 3199 1709
3614 3199 1718
3612 3173 1758
3608 3207 2004
3609 3211 2190
3609 3220 2387
3601 3229 2618
3562 3187 2795
3559 3218 3031
