luts/Alien_-_Rec709.3dl
# Created by Benjamin (IWLTBAP) : http://luts.iwltbap.com
# Copyright: (C) Copyright 2016 Triune Films and IWLTBAP
# Blockbuster LUTs Pack
0 128 256 384 512 640 768 896 1023
8 17 74
11 32 191
12 63 348
11 107 556
11 187 833
16 259 1164
22 317 1569
26 428 2004
28 573 2433
11 209 168
9 218 281
9 243 444
8 295 663
2 399 934
8 491 1251
17 568 1642
22 690 2070
32 820 2563
8 465 291
9 479 410
4 521 585
0 603 837
0 699 1107
0 795 1447
2 905 1852
24 1025 2275
31 1131 2749
7 828 462
6 855 612
1 901 797
0 967 1034
1 1064 1355
14 1176 1715
26 1282 2101
34 1377 2531
60 1451 3007
11 1295 689
10 1311 875
13 1359 1068
17 1428 1299
23 1510 1598
32 1597 1981
52 1673 2408
80 1755 2831
110 1838 3261
25 1803 944
25 1826 1154
30 1863 1371
42 1913 1613
64 1970 1898
84 2035 2256
104 2119 2689
132 2214 3125
174 2328 3504
82 2314 1212
87 2339 1456
95 2377 1700
105 2424 1967
119 2482 2271
138 2551 2613
164 2636 2994
207 2740 3392
267 2862 3769
129 2897 1542
143 2920 1815
158 2952 2097
174 2994 2393
195 3055 2700
221 3130 3018
257 3221 3341
309 3326 3678
373 3419 4038
219 3501 1953
235 3537 2249
254 3588 2555
279 3655 2855
311 3727 3144
346 3793 3430
383 3855 3705
423 3920 3984
959 4002 4084
77 34 94
70 52 234
53 80 441
46 134 666
46 201 943
53 238 1297
68 293 1675
87 410 2082
96 559 2491
92 217 160
77 230 308
63 258 479
53 309 720
57 384 995
66 438 1336
77 519 1729
88 658 2129
106 805 2623
39 488 301
39 503 436
31 546 626
29 627 881
33 713 1152
36 792 1503
70 893 1902
99 1009 2336
104 1130 2828
35 864 468
35 880 634
29 917 828
29 983 1065
29 1079 1394
52 1189 1758
88 1296 2149
112 1392 2579
145 1473 3048
42 1321 695
42 1336 890
51 1375 1090
64 1443 1323
83 1527 1626
111 1614 2012
137 1690 2438
165 1780 2857
197 1866 3285
97 1821 943
103 1846 1156
112 1880 1384
128 1929 1632
148 1986 1919
167 2053 2283
191 2140 2718
221 2238 3149
267 2357 3531
164 2337 1206
171 2364 1449
180 2399 1706
192 2446 1982
207 2503 2291
227 2572 2634
255 2659 3018
299 2768 3422
358 2887 3799
218 2914 1559
232 2941 1818
249 2972 2107
265 3016 2408
287 3081 2720
315 3161 3042
349 3251 3368
400 3348 3704
472 3438 4060
311 3527 1978
329 3572 2252
348 3622 2567
373 3684 2873
405 3753 3164
442 3816 3447
484 3876 3725
537 3941 4004
1133 4036 4086
242 88 161
251 79 261
218 109 451
174 173 804
157 217 1135
164 254 1463
181 306 1842
200 368 2261
240 464 2673
291 223 172
295 238 299
244 269 512
187 336 916
174 363 1214
182 406 1544
198 498 1899
205 647 2262
218 807 2713
306 489 276
293 510 419
199 586 678
174 658 949
191 671 1278
196 748 1622
214 871 1986
247 992 2418
216 1124 2983
162 936 469
160 951 626
131 966 896
105 1020 1144
94 1116 1486
143 1218 1855
207 1320 2252
223 1421 2684
236 1504 3153
119 1368 710
122 1388 906
131 1417 1141
144 1480 1378
165 1562 1692
196 1646 2083
223 1724 2506
252 1820 2925
287 1917 3346
184 1855 950
192 1883 1156
199 1915 1419
214 1960 1674
233 2017 1966
252 2087 2342
277 2178 2781
310 2281 3204
363 2403 3585
246 2373 1217
254 2406 1449
264 2435 1739
278 2482 2023
294 2538 2337
314 2608 2682
345 2698 3069
397 2813 3476
473 2925 3852
305 2942 1593
319 2974 1837
337 3006 2136
354 3054 2442
379 3122 2760
414 3208 3083
458 3298 3408
521 3385 3749
595 3469 4074
403 3566 2024
426 3618 2284
451 3670 2594
484 3728 2903
523 3790 3195
565 3850 3477
606 3908 3754
673 3972 4029
1356 4065 4088
514 173 286
529 156 357
507 138 468
406 205 771
361 241 1211
370 277 1678
394 337 2033
424 403 2439
469 478 2835
574 262 273
579 314 413
590 293 519
479 364 850
396 383 1352
418 434 1781
432 497 2125
453 582 2525
489 726 2959
656 491 286
668 500 426
684 553 610
550 627 964
456 603 1506
465 678 1861
483 813 2233
489 967 2638
437 1123 3196
687 919 422
679 946 568
615 986 823
405 1070 1233
418 1128 1584
448 1204 1953
484 1323 2366
511 1413 2824
359 1557 3332
428 1426 690
404 1450 906
375 1496 1164
348 1547 1501
317 1619 1825
295 1703 2216
333 1786 2631
368 1886 3054
416 1992 3472
273 1906 975
283 1937 1169
289 1968 1440
302 2013 1752
320 2072 2054
342 2147 2448
374 2238 2885
426 2348 3296
505 2466 3680
330 2424 1262
339 2459 1486
351 2490 1775
369 2536 2096
388 2592 2413
418 2665 2760
465 2764 3157
532 2876 3562
616 2977 3938
399 2984 1643
421 3021 1883
444 3063 2173
471 3116 2507
505 3190 2830
547 3275 3148
599 3357 3468
664 3434 3815
774 3516 4079
527 3626 2085
552 3676 2342
581 3728 2636
617 3782 2947
658 3838 3238
702 3895 3517
761 3954 3792
992 4040 4049
1647 4070 4090
828 262 415
842 263 505
847 234 578
792 211 723
726 296 1126
707 318 1623
740 368 2185
756 454 2681
810 552 3061
879 347 397
886 398 532
898 392 638
873 375 792
787 441 1231
780 473 1739
791 538 2327
812 643 2797
836 736 3184
985 491 391
1000 522 519
1011 620 729
1035 655 917
942 703 1359
863 715 1964
877 829 2535
883 928 2952
818 1096 3426
1118 955 393
1136 962 535
1151 982 754
1175 1058 1096
1072 1148 1550
952 1138 2212
936 1230 2689
931 1349 3136
626 1636 3628
1141 1457 570
1145 1478 721
1139 1505 1019
1077 1570 1431
925 1678 1922
886 1750 2339
897 1818 2778
920 1926 3204
630 2088 3720
902 2035 893
864 2024 1192
832 2077 1483
729 2133 1837
680 2187 2228
599 2251 2612
532 2334 3045
591 2440 3444
690 2549 3861
484 2487 1333
501 2529 1556
516 2569 1821
520 2613 2160
535 2675 2541
559 2754 2887
622 2855 3290
697 2952 3682
830 3047 4055
525 3043 1711
552 3091 1953
581 3145 2229
612 3201 2575
657 3278 2935
705 3353 3241
759 3425 3555
826 3498 3912
1245 3612 4083
670 3703 2160
698 3746 2416
728 3796 2691
771 3848 3004
849 3903 3297
1043 3972 3585
1258 4046 3874
1450 4072 4053
2001 4075 4093
1224 380 571
1253 389 671
1264 386 770
1218 332 844
1162 348 1064
1152 399 1493
1136 434 2024
1168 519 2732
1234 619 3408
1277 455 544
1296 514 687
1298 527 813
1309 513 937
1235 512 1114
1223 561 1607
1204 626 2167
1232 710 2882
1279 799 3559
1409 565 510
1438 615 650
1433 734 877
1454 778 1077
1398 780 1259
1345 843 1785
1338 929 2387
1335 968 3132
1333 1078 3752
1591 925 498
1646 937 639
1641 970 844
1643 1136 1237
1640 1200 1523
1525 1270 2010
1453 1254 2709
1442 1325 3382
1386 1498 3907
1769 1502 477
1820 1542 620
1825 1552 862
1807 1556 1318
1813 1642 1720
1707 1708 2235
1552 1648 3064
1496 1828 3518
1436 2100 3986
1804 2047 694
1811 2098 860
1765 2069 1254
1733 2108 1649
1645 2189 2118
1476 2297 2690
1409 2393 3154
1402 2521 3636
1444 2647 4072
1482 2648 1063
1488 2626 1421
1466 2653 1764
1419 2711 2159
1239 2797 2653
1209 2879 3091
1144 2979 3483
953 3051 3855
1463 3168 4083
1056 3162 1756
1094 3212 2025
1121 3261 2325
1111 3317 2653
1037 3386 3037
932 3444 3366
933 3503 3661
1174 3597 4024
1753 3707 4089
1222 3805 2269
1239 3849 2535
1280 3902 2826
1371 3958 3124
1483 4017 3407
1614 4064 3686
1766 4071 3957
1949 4079 4056
2431 4078 4092
1689 510 736
1752 522 841
1779 539 962
1773 537 1083
1680 478 1196
1639 483 1469
1631 526 1947
1676 625 2546
1730 713 3311
1753 565 680
1782 652 848
1819 679 977
1812 705 1144
1803 688 1304
1722 664 1563
1727 740 2073
1752 830 2649
1802 898 3457
1884 655 604
1926 708 732
1941 843 960
1953 942 1230
1981 964 1482
1863 934 1719
1878 1046 2275
1885 1085 2863
1932 1151 3706
2090 983 590
2154 1011 735
2185 1049 928
2141 1245 1360
2177 1316 1701
2090 1294 1951
2049 1368 2479
2057 1363 3148
2059 1478 3878
2283 1462 548
2372 1481 705
2408 1497 932
2323 1536 1410
2352 1715 1883
2329 1707 2179
2235 1794 2730
2214 1776 3460
2199 1959 4051
2452 2036 545
2512 2066 707
2487 2116 1007
2422 2070 1514
2449 2100 1967
2438 2225 2415
2369 2339 2983
2327 2378 3609
2310 2583 4079
2491 2595 871
2444 2662 1147
2397 2664 1527
2387 2705 1923
2352 2775 2389
2309 2869 2890
2236 2989 3451
2248 3108 3873
2318 3225 4086
2329 3207 1324
2305 3247 1654
2305 3290 2021
2277 3328 2454
2191 3411 2914
1842 3550 3486
1690 3645 3846
2010 3732 4054
2417 3789 4091
2626 3813 1845
2613 3871 2226
2592 3937 2638
2526 4005 3051
2324 4060 3445
2276 4072 3774
2417 4077 4011
2585 4083 4053
2880 4081 4091
2138 629 880
2186 633 985
2219 652 1109
2212 686 1266
2226 676 1441
2180 608 1657
2189 658 2084
2246 757 2587
2296 822 3170
2226 656 772
2257 762 954
2328 851 1144
2358 881 1332
2347 890 1576
2287 818 1756
2273 854 2179
2311 938 2669
2368 994 3285
2412 748 696
2446 810 840
2475 962 1097
2497 1114 1433
2473 1136 1741
2503 1100 1959
2400 1106 2316
2419 1164 2811
2502 1219 3553
2591 1021 678
2641 1047 840
2652 1098 1051
2619 1373 1550
2632 1441 1923
2688 1406 2163
2556 1402 2476
2565 1441 3065
2638 1543 3815
2770 1439 614
2802 1456 787
2791 1490 1102
2750 1587 1568
2770 1823 2096
2833 1806 2388
2745 1802 2708
2720 1840 3300
2776 2014 3963
2895 1983 639
2905 2016 814
2883 2011 1188
2871 2046 1678
2898 2192 2216
2947 2309 2632
2959 2351 3018
2886 2452 3473
2904 2577 4059
2982 2591 723
2977 2678 988
2970 2682 1407
2994 2749 1857
2986 2804 2428
3033 2883 2878
3093 2949 3269
3023 3033 3685
3012 3143 4077
2960 3214 1390
2986 3254 1691
3022 3317 2050
3034 3377 2475
3039 3429 2875
3063 3490 3224
3088 3571 3585
3051 3694 4012
3086 3817 4089
3161 3888 2016
3186 3942 2358
3210 3994 2712
3222 4036 3072
3238 4052 3404
3240 4061 3731
3173 4074 4000
3159 4084 4052
3307 4085 4092
2645 715 1029
2656 735 1138
2671 751 1276
2672 782 1466
2660 767 1681
2710 708 1956
2766 733 2347
2769 822 2769
2831 892 3263
2715 727 899
2740 827 1093
2756 894 1289
2763 926 1497
2738 930 1778
2814 895 2046
2854 904 2446
2845 997 2913
2892 1074 3386
2869 814 801
2875 908 986
2883 1079 1284
2881 1218 1656
2896 1233 1972
2987 1184 2221
2991 1108 2602
2969 1203 3156
3005 1306 3589
2977 1148 882
2981 1177 1057
2983 1286 1332
2982 1548 1821
3037 1595 2161
3124 1575 2431
3120 1467 2726
3124 1502 3398
3157 1648 3809
3084 1552 922
3071 1573 1185
3060 1631 1504
3102 1799 1871
3156 1998 2343
3225 2009 2657
3283 1990 2986
3253 1982 3513
3269 2151 3934
3188 2074 1013
3176 2064 1329
3192 2121 1642
3237 2216 2045
3287 2447 2575
3333 2508 2935
3397 2529 3287
3378 2561 3661
3380 2676 4047
3298 2720 1160
3310 2712 1488
3341 2770 1875
3375 2825 2313
3408 2905 2782
3453 3071 3227
3510 3092 3537
3525 3172 3902
3495 3217 4062
3418 3326 1612
3471 3387 1950
3485 3455 2300
3497 3525 2666
3525 3582 3043
3557 3633 3407
3593 3689 3756
3631 3756 4016
3612 3820 4078
3563 4017 2407
3582 4046 2745
3601 4052 3071
3625 4058 3374
3649 4064 3656
3672 4070 3920
3697 4077 4015
3722 4084 4057
3740 4088 4094
