luts/Alien_-_Rec709.3dl
# Created by Benjamin (IWLTBAP) : http://luts.iwltbap.com
# Copyright: (C) Copyright 2016 Triune Films and IWLTBAP
# Blockbuster LUTs Pack
0 64 128 192 256 320 384 448 512 576 640 704 768 832 896 960 1023
8 17 74
10 23 126
11 32 191
12 46 266
12 63 348
10 84 443
11 107 556
10 140 688
11 187 833
13 231 986
16 259 1164
19 285 1359
22 317 1569
25 365 1786
26 428 2004
26 496 2216
28 573 2433
11 106 119
11 111 171
11 117 242
10 127 314
9 141 393
9 161 483
10 188 598
10 226 730
10 277 870
13 324 1020
16 362 1194
18 394 1392
20 430 1602
21 483 1810
22 547 2020
24 618 2239
30 691 2485
11 209 168
10 213 220
9 218 281
9 228 360
9 243 444
9 265 544
8 295 663
5 341 798
2 399 934
3 450 1083
8 491 1251
15 522 1442
17 568 1642
19 627 1848
22 690 2070
27 758 2305
32 820 2563
9 324 225
9 329 276
9 336 334
9 349 409
9 368 508
6 396 625
2 437 748
0 490 876
0 545 1011
0 596 1160
0 641 1329
2 684 1523
10 737 1728
19 795 1943
24 856 2165
27 916 2400
31 974 2649
8 465 291
9 469 346
9 479 410
7 496 486
4 521 585
0 557 708
0 603 837
0 650 968
0 699 1107
0 747 1267
0 795 1447
0 848 1644
2 905 1852
15 965 2060
24 1025 2275
28 1082 2504
31 1131 2749
8 634 371
8 639 435
8 652 504
6 673 584
0 701 681
0 734 796
0 776 929
0 823 1073
0 870 1231
0 918 1397
1 972 1578
6 1030 1773
16 1090 1972
23 1145 2178
28 1200 2395
32 1251 2619
37 1286 2871
7 828 462
7 838 534
6 855 612
5 876 698
1 901 797
0 930 905
0 967 1034
0 1014 1186
1 1064 1355
4 1119 1534
14 1176 1715
21 1230 1903
26 1282 2101
30 1330 2312
34 1377 2531
42 1418 2761
60 1451 3007
8 1055 565
7 1065 652
6 1079 739
7 1097 830
8 1119 928
8 1149 1036
9 1185 1159
12 1230 1304
16 1282 1474
20 1336 1658
25 1387 1850
28 1432 2051
32 1475 2252
39 1517 2459
52 1559 2675
69 1595 2909
86 1635 3138
11 1295 689
10 1302 782
10 1311 875
12 1333 967
13 1359 1068
15 1392 1177
17 1428 1299
20 1468 1437
23 1510 1598
27 1555 1783
32 1597 1981
40 1636 2191
52 1673 2408
66 1712 2618
80 1755 2831
95 1792 3053
110 1838 3261
14 1548 817
15 1556 914
16 1569 1010
18 1589 1109
19 1615 1213
22 1643 1327
24 1673 1451
28 1705 1587
33 1739 1740
42 1773 1915
55 1809 2115
69 1846 2328
80 1884 2547
93 1929 2768
107 1975 2988
121 2015 3197
137 2070 3379
25 1803 944
25 1814 1048
25 1826 1154
27 1843 1259
30 1863 1371
36 1887 1488
42 1913 1613
53 1941 1748
64 1970 1898
75 2001 2065
84 2035 2256
93 2074 2468
104 2119 2689
118 2170 2909
132 2214 3125
150 2259 3329
174 2328 3504
49 2049 1076
51 2062 1188
53 2075 1302
57 2091 1418
64 2111 1533
72 2135 1655
80 2160 1782
87 2187 1920
93 2217 2071
99 2249 2237
107 2285 2419
118 2326 2621
130 2373 2837
145 2421 3050
164 2470 3254
189 2526 3450
218 2592 3639
82 2314 1212
84 2325 1331
87 2339 1456
91 2357 1576
95 2377 1700
100 2400 1829
105 2424 1967
112 2452 2115
119 2482 2271
128 2515 2437
138 2551 2613
149 2592 2798
164 2636 2994
183 2685 3194
207 2740 3392
235 2800 3585
267 2862 3769
99 2605 1357
103 2615 1484
108 2627 1616
113 2643 1747
120 2661 1884
128 2682 2028
136 2705 2176
145 2731 2329
154 2761 2485
163 2795 2648
174 2831 2814
188 2871 2985
205 2916 3161
229 2968 3345
256 3027 3535
286 3086 3723
320 3141 3908
129 2897 1542
135 2908 1673
143 2920 1815
151 2935 1953
158 2952 2097
165 2972 2243
174 2994 2393
184 3022 2544
195 3055 2700
207 3091 2858
221 3130 3018
238 3173 3178
257 3221 3341
281 3274 3506
309 3326 3678
341 3375 3858
373 3419 4038
167 3189 1740
176 3204 1872
184 3217 2018
192 3233 2165
200 3252 2311
209 3275 2464
219 3305 2615
232 3340 2767
247 3378 2919
262 3418 3072
278 3459 3225
296 3501 3375
317 3542 3523
341 3583 3673
367 3624 3829
401 3663 3993
535 3705 4080
219 3501 1953
227 3519 2093
235 3537 2249
244 3560 2400
254 3588 2555
265 3620 2705
279 3655 2855
294 3691 3000
311 3727 3144
328 3761 3288
346 3793 3430
364 3824 3567
383 3855 3705
403 3887 3844
423 3920 3984
597 3957 4065
959 4002 4084
36 24 82
34 31 145
32 40 228
31 55 302
30 71 379
28 90 478
27 114 598
26 151 734
27 193 875
30 227 1031
33 250 1209
35 270 1406
38 302 1608
42 350 1822
44 418 2039
45 490 2247
49 566 2455
40 110 114
37 115 186
36 122 256
34 132 328
31 146 409
30 166 506
29 192 623
28 234 758
30 277 897
32 313 1052
35 338 1231
37 365 1429
40 405 1635
42 463 1846
42 528 2055
44 603 2264
52 681 2503
32 216 172
29 220 234
27 226 296
25 236 375
26 250 461
27 271 563
27 301 684
26 346 816
25 397 953
29 438 1104
34 471 1280
35 500 1478
37 544 1681
38 602 1883
39 669 2094
47 739 2324
60 810 2591
23 332 230
23 337 286
23 345 344
23 357 422
23 374 526
20 403 645
16 446 770
15 498 897
16 550 1032
17 593 1185
20 629 1358
27 666 1550
33 716 1752
38 774 1967
42 837 2189
55 901 2425
60 964 2686
23 474 296
23 479 355
23 488 419
21 505 497
17 530 600
15 565 727
14 612 854
14 658 984
14 705 1125
14 750 1286
14 796 1471
15 847 1668
24 903 1874
36 962 2084
42 1021 2302
52 1077 2534
61 1129 2783
22 648 375
22 652 441
22 661 513
19 682 597
14 708 696
14 742 810
14 784 943
14 830 1087
14 875 1246
14 922 1415
15 975 1599
19 1032 1796
29 1092 1996
38 1147 2203
51 1202 2420
64 1252 2646
81 1290 2898
21 842 464
21 850 539
21 864 622
19 883 710
15 907 809
14 936 917
14 973 1045
14 1019 1200
14 1069 1370
19 1124 1550
28 1180 1732
37 1235 1920
47 1288 2118
60 1336 2330
72 1383 2548
86 1425 2778
103 1462 3021
22 1065 567
21 1075 657
21 1087 747
21 1103 839
22 1125 937
22 1154 1046
23 1190 1169
25 1236 1316
29 1288 1488
34 1342 1673
44 1394 1864
57 1439 2064
70 1482 2265
82 1524 2473
96 1568 2688
112 1607 2921
129 1646 3149
25 1307 690
24 1313 786
25 1320 881
26 1339 975
28 1365 1076
30 1397 1186
32 1433 1308
34 1473 1447
41 1516 1609
55 1561 1795
70 1604 1993
84 1642 2203
96 1680 2419
108 1720 2630
123 1766 2840
138 1804 3061
153 1850 3270
29 1559 817
30 1569 914
31 1580 1013
32 1597 1115
36 1622 1220
40 1650 1334
48 1680 1459
59 1711 1596
72 1745 1749
86 1780 1926
99 1816 2126
111 1852 2339
122 1892 2559
135 1938 2780
149 1985 2997
163 2026 3204
181 2082 3386
52 1810 942
54 1823 1044
56 1834 1154
61 1850 1263
68 1870 1376
77 1893 1495
87 1920 1621
97 1947 1756
107 1977 1906
117 2008 2074
125 2042 2267
135 2082 2480
147 2128 2701
161 2178 2921
177 2225 3135
196 2272 3340
221 2341 3516
96 2058 1071
98 2071 1181
99 2083 1300
103 2099 1419
109 2119 1537
115 2142 1660
122 2167 1788
129 2195 1927
135 2225 2078
142 2257 2246
150 2294 2429
161 2335 2632
174 2381 2848
190 2431 3061
210 2482 3265
236 2539 3462
265 2604 3652
123 2325 1206
126 2337 1322
129 2349 1453
133 2366 1576
138 2386 1701
142 2409 1832
149 2434 1973
156 2461 2122
163 2492 2279
172 2524 2446
182 2560 2622
194 2601 2807
209 2646 3004
229 2696 3206
254 2752 3405
280 2813 3598
312 2873 3782
142 2615 1357
145 2627 1481
150 2638 1615
157 2652 1751
164 2670 1889
172 2691 2034
181 2714 2182
189 2740 2336
198 2770 2492
208 2804 2655
219 2841 2823
234 2882 2995
252 2928 3172
275 2981 3358
301 3039 3547
331 3097 3735
364 3150 3920
173 2905 1549
179 2918 1674
187 2930 1814
196 2944 1956
203 2961 2100
211 2980 2248
219 3003 2399
229 3033 2552
241 3067 2709
255 3104 2867
269 3143 3029
285 3187 3190
303 3234 3353
326 3286 3518
354 3336 3690
386 3384 3870
417 3427 4048
212 3197 1746
221 3213 1872
230 3227 2018
238 3243 2168
247 3262 2316
256 3287 2470
267 3318 2624
280 3353 2777
294 3392 2930
310 3433 3083
326 3475 3235
343 3514 3386
363 3553 3535
386 3593 3684
411 3632 3839
447 3671 4002
599 3715 4081
266 3513 1963
276 3534 2096
283 3553 2249
292 3575 2404
301 3604 2559
313 3636 2712
326 3669 2863
340 3704 3008
357 3739 3153
375 3773 3296
393 3804 3438
410 3833 3576
428 3864 3713
448 3896 3853
474 3929 3994
664 3968 4065
1041 4018 4085
77 34 94
75 40 155
70 52 234
63 64 333
53 80 441
49 104 545
46 134 666
45 170 797
46 201 943
49 220 1114
53 238 1297
60 262 1482
68 293 1675
77 341 1875
87 410 2082
93 485 2288
96 559 2491
90 114 111
90 117 177
80 128 262
71 139 360
62 154 459
54 176 564
49 208 687
48 247 818
49 279 959
53 302 1120
57 322 1298
63 348 1491
72 391 1691
80 456 1896
85 527 2098
91 600 2300
97 677 2531
92 217 160
88 221 230
77 230 308
69 242 388
63 258 479
58 277 592
53 309 720
53 351 853
57 384 995
62 412 1154
66 438 1336
72 469 1530
77 519 1729
81 586 1927
88 658 2129
99 728 2345
106 805 2623
61 338 231
55 346 290
50 358 362
45 369 442
41 387 552
41 414 672
39 459 797
41 504 923
43 546 1063
48 579 1224
61 606 1401
66 641 1594
72 692 1790
82 755 1996
95 821 2218
112 888 2456
108 957 2734
39 488 301
39 496 362
39 503 436
35 520 516
31 546 626
29 581 755
29 627 881
30 672 1009
33 713 1152
35 752 1316
36 792 1503
47 839 1699
70 893 1902
85 950 2115
99 1009 2336
112 1070 2568
104 1130 2828
36 666 380
36 671 447
36 678 528
31 696 616
29 722 717
29 756 833
29 798 966
29 842 1110
29 884 1271
29 930 1444
29 982 1633
34 1038 1830
53 1097 2032
76 1152 2241
92 1206 2457
106 1256 2687
123 1294 2937
35 864 468
35 870 543
35 880 634
32 895 728
29 917 828
29 946 936
29 983 1065
29 1029 1223
29 1079 1394
34 1133 1576
52 1189 1758
73 1244 1947
88 1296 2149
100 1345 2361
112 1392 2579
127 1436 2808
145 1473 3048
37 1082 571
36 1092 661
35 1100 759
36 1113 854
36 1134 953
36 1163 1062
40 1200 1187
46 1246 1336
53 1298 1510
68 1352 1695
86 1404 1886
99 1450 2084
111 1492 2285
124 1534 2496
138 1580 2711
154 1621 2941
171 1661 3167
42 1321 695
41 1330 789
42 1336 890
46 1351 987
51 1375 1090
57 1407 1200
64 1443 1323
72 1483 1463
83 1527 1626
97 1571 1813
111 1614 2012
125 1652 2222
137 1690 2438
150 1732 2648
165 1780 2857
180 1819 3076
197 1866 3285
58 1574 820
61 1586 914
64 1595 1019
69 1610 1125
75 1633 1232
82 1660 1347
91 1689 1472
102 1720 1610
113 1754 1763
127 1790 1941
140 1825 2143
153 1862 2357
165 1903 2577
178 1950 2798
192 1999 3012
207 2041 3216
227 2100 3399
97 1821 943
101 1834 1040
103 1846 1156
106 1861 1269
112 1880 1384
119 1902 1505
128 1929 1632
138 1956 1768
148 1986 1919
158 2018 2088
167 2053 2283
178 2094 2497
191 2140 2718
205 2190 2938
221 2238 3149
241 2287 3353
267 2357 3531
138 2068 1069
141 2082 1174
143 2095 1298
146 2110 1423
151 2130 1543
157 2152 1668
164 2177 1798
171 2206 1938
177 2236 2091
185 2269 2261
194 2305 2445
206 2346 2648
219 2393 2864
236 2443 3078
256 2496 3282
281 2555 3479
311 2618 3670
164 2337 1206
167 2352 1318
171 2364 1449
175 2379 1578
180 2399 1706
185 2421 1840
192 2446 1982
199 2474 2133
207 2503 2291
217 2536 2458
227 2572 2634
239 2614 2821
255 2659 3018
275 2711 3222
299 2768 3422
326 2828 3616
358 2887 3799
185 2626 1364
189 2640 1484
194 2652 1618
201 2665 1758
209 2682 1897
218 2703 2042
226 2726 2191
234 2752 2346
243 2783 2503
254 2817 2667
265 2855 2835
280 2896 3009
298 2943 3187
320 2997 3373
347 3054 3563
377 3111 3751
411 3162 3935
218 2914 1559
224 2929 1679
232 2941 1818
241 2955 1961
249 2972 2107
256 2992 2256
265 3016 2408
275 3046 2562
287 3081 2720
301 3120 2879
315 3161 3042
331 3204 3204
349 3251 3368
372 3300 3533
400 3348 3704
435 3395 3885
472 3438 4060
258 3207 1758
268 3224 1879
276 3240 2021
285 3257 2174
293 3277 2325
302 3303 2480
313 3334 2636
325 3369 2791
340 3409 2943
357 3451 3097
373 3492 3248
391 3530 3398
411 3567 3548
434 3604 3697
465 3643 3854
505 3681 4013
669 3727 4081
311 3527 1978
321 3549 2108
329 3572 2252
338 3594 2408
348 3622 2567
360 3653 2720
373 3684 2873
388 3719 3019
405 3753 3164
422 3786 3306
442 3816 3447
462 3846 3586
484 3876 3725
506 3908 3865
537 3941 4004
767 3986 4065
1133 4036 4086
144 51 114
146 53 170
142 64 245
133 79 331
120 93 455
107 120 619
93 160 758
90 189 887
92 210 1029
96 225 1197
102 242 1378
111 266 1566
120 294 1764
128 326 1968
138 377 2171
147 446 2370
155 528 2562
163 127 135
164 125 188
159 134 265
144 149 357
130 164 495
110 200 663
100 238 790
97 261 916
97 279 1059
101 293 1231
107 313 1410
114 341 1588
123 385 1774
132 449 1967
139 518 2162
143 597 2356
