luts/Alien_-_Rec709.3dl
# Created by Benjamin (IWLTBAP) : http://luts.iwltbap.com
# Copyright: (C) Copyright 2016 Triune Films and IWLTBAP
# Blockbuster LUTs Pack
0 256 512 768 1023
8 17 74
12 63 348
11 187 833
22 317 1569
28 573 2433
8 465 291
4 521 585
0 699 1107
2 905 1852
31 1131 2749
11 1295 689
13 1359 1068
23 1510 1598
52 1673 2408
110 1838 3261
82 2314 1212
95 2377 1700
119 2482 2271
164 2636 2994
267 2862 3769
219 3501 1953
254 3588 2555
311 3727 3144
383 3855 3705
959 4002 4084
242 88 161
218 109 451
157 217 1135
181 306 1842
240 464 2673
306 489 276
199 586 678
191 671 1278
214 871 1986
216 1124 2983
119 1368 710
131 1417 1141
165 1562 1692
223 1724 2506
287 1917 3346
246 2373 1217
264 2435 1739
294 2538 2337
345 2698 3069
473 2925 3852
403 3566 2024
451 3670 2594
523 3790 3195
606 3908 3754
1356 4065 4088
828 262 415
847 234 578
726 296 1126
740 368 2185
810 552 3061
985 491 391
1011 620 729
942 703 1359
877 829 2535
818 1096 3426
1141 1457 570
1139 1505 1019
925 1678 1922
897 1818 2778
630 2088 3720
484 2487 1333
516 2569 1821
535 2675 2541
622 2855 3290
830 3047 4055
670 3703 2160
728 3796 2691
849 3903 3297
1258 4046 3874
2001 4075 4093
1689 510 736
1779 539 962
1680 478 1196
1631 526 1947
1730 713 3311
1884 655 604
1941 843 960
1981 964 1482
1878 1046 2275
1932 1151 3706
2283 1462 548
2408 1497 932
2352 1715 1883
2235 1794 2730
2199 1959 4051
2491 2595 871
2397 2664 1527
2352 2775 2389
2236 2989 3451
2318 3225 4086
2626 3813 1845
2592 3937 2638
2324 4060 3445
2417 4077 4011
2880 4081 4091
2645 715 1029
2671 751 1276
2660 767 1681
2766 733 2347
2831 892 3263
2869 814 801
2883 1079 1284
2896 1233 1972
2991 1108 2602
3005 1306 3589
3084 1552 922
3060 1631 1504
3156 1998 2343
3283 1990 2986
3269 2151 3934
3298 2720 1160
3341 2770 1875
3408 2905 2782
3510 3092 3537
3495 3217 4062
3563 4017 2407
3601 4052 3071
3649 4064 3656
3697 4077 4015
3740 4088 4094
