luts/Circinus.cube
LUT_3D_SIZE 16
0.031763 0.031725 0.031839
0.065057 0.038150 0.038336
0.102278 0.048966 0.049234
0.166695 0.068594 0.068869
0.234929 0.084400 0.084489
0.308597 0.094207 0.094301
0.382089 0.108579 0.108493
0.453194 0.128948 0.128574
0.522130 0.149952 0.149398
0.589941 0.171641 0.171112
0.652023 0.192981 0.192185
0.708261 0.212918 0.211868
0.758645 0.231098 0.229787
0.805205 0.248153 0.246761
0.848003 0.264286 0.262717
0.886704 0.279103 0.277340
0.040616 0.066191 0.040816
0.066722 0.066692 0.041874
0.101906 0.071912 0.051415
0.156061 0.082719 0.067385
0.214304 0.094303 0.081699
0.274926 0.102702 0.091592
0.335743 0.108773 0.098617
0.401547 0.122896 0.114619
0.467550 0.140171 0.133322
0.538609 0.160497 0.154983
0.608823 0.182474 0.177830
0.670951 0.203318 0.199084
0.729411 0.223574 0.219683
0.783176 0.242825 0.238946
0.830599 0.260353 0.256448
0.871040 0.275631 0.271638
0.056266 0.108773 0.057957
0.075017 0.106579 0.057130
0.117398 0.104560 0.060180
0.170737 0.112466 0.074531
0.227228 0.123156 0.087201
0.287574 0.131754 0.096123
0.348400 0.138962 0.103794
0.411057 0.151653 0.119942
0.473653 0.165773 0.137513
0.535172 0.180680 0.155857
0.595388 0.196911 0.175204
0.652751 0.213647 0.194490
0.706178 0.230371 0.213000
0.757662 0.247139 0.231138
0.806698 0.263858 0.248732
0.849611 0.279325 0.264841
0.078446 0.167112 0.084273
0.095770 0.167667 0.085327
0.138023 0.165917 0.084941
0.194414 0.154700 0.086086
0.251803 0.162498 0.096667
0.310850 0.169337 0.103745
0.370256 0.177156 0.113546
0.431493 0.188307 0.129371
0.496475 0.201613 0.147588
0.557995 0.215613 0.166229
0.617230 0.230905 0.185698
0.675523 0.247047 0.205297
0.728964 0.262712 0.223625
0.779150 0.278085 0.241242
0.825729 0.293203 0.258372
0.868240 0.307605 0.274404
0.101751 0.231609 0.110829
0.122521 0.235789 0.112295
0.165042 0.232767 0.115234
0.214676 0.218438 0.107041
0.276527 0.205412 0.107411
0.337515 0.211075 0.113687
0.399789 0.219243 0.126546
0.462796 0.229077 0.142677
0.527434 0.240849 0.161017
0.586982 0.253497 0.179726
0.642998 0.266483 0.197931
0.697505 0.280273 0.216102
0.749411 0.294214 0.233712
0.795961 0.307464 0.250273
0.839286 0.320506 0.266309
0.879851 0.333337 0.281458
0.125409 0.301259 0.134147
0.147308 0.306794 0.135384
0.192955 0.300018 0.140245
0.240788 0.293931 0.138569
0.298471 0.273557 0.127766
0.360932 0.254685 0.125610
0.426569 0.262317 0.140162
0.491146 0.270856 0.156550
0.554644 0.281493 0.175004
0.614682 0.292947 0.193552
0.669489 0.304257 0.211019
0.722281 0.316224 0.228396
0.772280 0.328567 0.245559
0.816416 0.340367 0.261596
0.857719 0.351786 0.276747
0.896483 0.363208 0.290987
0.153013 0.376988 0.158824
0.176597 0.382297 0.161637
0.224200 0.375325 0.168408
0.272905 0.370002 0.166697
0.315658 0.353056 0.159838
0.381924 0.330866 0.150448
0.450582 0.307965 0.154436
0.511164 0.313248 0.169553
0.575248 0.322848 0.187931
0.635723 0.333046 0.206156
0.689156 0.342734 0.222895
0.740444 0.353041 0.239514
0.788214 0.363747 0.256111
0.831962 0.374693 0.271829
0.871526 0.384794 0.286207
0.911845 0.395702 0.300892
0.187214 0.457122 0.188488
0.214101 0.459915 0.195076
0.257288 0.455085 0.200555
0.301625 0.445863 0.198767
0.356455 0.442869 0.197005
0.394143 0.416352 0.185194
0.457421 0.392524 0.179574
0.527004 0.364585 0.184490
0.589494 0.364910 0.199943
0.648084 0.373097 0.216949
0.701169 0.381427 0.233253
0.751311 0.390589 0.249575
0.798136 0.400206 0.265811
0.841500 0.409727 0.280948
0.881032 0.418942 0.294947
0.922638 0.429054 0.309712
0.226723 0.540216 0.223787
0.253654 0.542659 0.230071
0.292434 0.540094 0.234249
0.334035 0.530591 0.232616
0.382047 0.521123 0.229760
0.439368 0.517600 0.228065
0.471668 0.485448 0.214042
0.528798 0.458473 0.210654
0.593468 0.428976 0.215537
0.660042 0.419659 0.229969
0.712091 0.422815 0.244654
0.759000 0.429719 0.259818
0.804554 0.437415 0.274850
0.848044 0.446101 0.289751
0.887621 0.454328 0.303612
0.931434 0.464552 0.319054
0.268507 0.624754 0.260882
0.295219 0.626944 0.266858
0.328836 0.627083 0.269450
0.366688 0.617782 0.267277
0.412300 0.608195 0.264775
0.462730 0.599155 0.262104
0.519844 0.594079 0.261253
0.552361 0.558047 0.245753
0.597694 0.524755 0.242283
0.657290 0.499525 0.248939
0.712770 0.485192 0.259525
0.768599 0.480429 0.273885
0.815442 0.480439 0.287347
0.856626 0.485615 0.300586
0.894409 0.491862 0.313239
0.945156 0.504546 0.331406
0.307644 0.701508 0.295806
0.332500 0.703313 0.300348
0.362345 0.704227 0.302038
0.397114 0.696155 0.300004
0.439556 0.687261 0.297539
0.486903 0.678014 0.295134
0.539994 0.669738 0.293360
0.593486 0.658238 0.290540
0.625334 0.619411 0.275427
0.660767 0.583882 0.272276
0.713838 0.563410 0.280527
0.765424 0.548193 0.289856
0.815662 0.541090 0.301764
0.865316 0.538314 0.315186
0.905726 0.537953 0.326835
0.949910 0.547865 0.342497
0.344676 0.771306 0.329016
0.366429 0.773381 0.331546
0.393823 0.773748 0.332979
0.425493 0.766637 0.330738
0.464418 0.758508 0.328577
0.510112 0.750140 0.326533
0.561109 0.740841 0.324607
0.618421 0.734144 0.324284
0.661443 0.711556 0.316734
0.690313 0.674655 0.304507
0.718009 0.638688 0.300769
0.768077 0.620514 0.309845
0.817069 0.606778 0.319338
0.863838 0.599089 0.329966
0.906395 0.594481 0.340866
0.948903 0.601498 0.355047
0.378057 0.834197 0.358906
0.397121 0.835579 0.360707
0.422193 0.835084 0.361450
0.451972 0.828825 0.359647
0.488945 0.821843 0.357847
0.533013 0.814303 0.356253
0.582952 0.806188 0.354907
0.636022 0.797469 0.353727
0.693741 0.792446 0.355207
0.723781 0.762243 0.344016
0.750937 0.727802 0.333878
0.775845 0.692874 0.330127
0.822505 0.678702 0.340278
0.868397 0.667044 0.350047
0.910153 0.659627 0.359190
0.949520 0.661518 0.371100
0.406708 0.888849 0.385897
0.425066 0.889944 0.387087
0.448913 0.889100 0.387647
0.477379 0.883537 0.386063
0.513176 0.877310 0.384489
0.555833 0.870543 0.383271
0.604453 0.863353 0.382371
0.656304 0.856278 0.381933
0.707817 0.849092 0.382075
0.752752 0.836574 0.379793
0.781007 0.807550 0.369192
0.806127 0.775025 0.361359
0.830454 0.743957 0.358768
0.873759 0.733288 0.369395
0.915047 0.724127 0.379278
0.953198 0.722438 0.389657
0.432342 0.936353 0.409404
0.450408 0.937479 0.410594
0.473480 0.936104 0.410907
0.501130 0.930719 0.409341
0.535887 0.925347 0.408142
0.577726 0.919269 0.407311
0.625214 0.913096 0.406917
0.674859 0.907077 0.406953
0.723284 0.900755 0.407153
0.773120 0.895284 0.408402
0.803494 0.871635 0.400165
0.831896 0.845356 0.391260
0.855047 0.814944 0.385544
0.880105 0.789601 0.385017
0.919995 0.781694 0.395656
0.957251 0.777944 0.406387
0.456041 0.979908 0.431382
0.474143 0.980648 0.432557
0.496478 0.979132 0.432650
0.523898 0.974310 0.431430
0.558382 0.969184 0.430429
0.599293 0.963608 0.429745
0.645295 0.958407 0.429586
0.691526 0.952821 0.429858
0.738548 0.947537 0.430309
0.785126 0.941744 0.431077
0.824080 0.927782 0.427798
0.850386 0.902456 0.418831
0.878642 0.879560 0.411578
0.899672 0.851460 0.407915
0.924858 0.832003 0.409195
0.961778 0.830022 0.421491
0.037456 0.037410 0.064934
0.065324 0.038662 0.066069
0.108514 0.051146 0.072408
0.183045 0.073139 0.087818
0.259292 0.088447 0.100384
0.333948 0.097449 0.107891
0.404784 0.114984 0.122872
0.477594 0.136326 0.141968
0.547898 0.158089 0.162331
0.612897 0.179562 0.182838
0.673633 0.200851 0.203111
0.729277 0.220768 0.222290
0.778589 0.238752 0.239727
0.823752 0.255653 0.256204
0.865465 0.271607 0.271793
0.903873 0.286327 0.286117
0.041553 0.066665 0.069503
0.067617 0.067600 0.074373
0.100066 0.071758 0.075685
0.162119 0.084108 0.084894
0.234959 0.097655 0.097924
0.302552 0.105275 0.105469
0.365311 0.114225 0.114190
0.428968 0.130220 0.129893
0.496936 0.148980 0.148410
0.571586 0.171206 0.170662
0.640327 0.193646 0.192836
0.700820 0.214333 0.213272
0.757431 0.234251 0.232948
0.808726 0.252863 0.251302
0.853589 0.269545 0.267762
0.892846 0.284338 0.282363
0.057861 0.112208 0.085570
0.077208 0.114813 0.087800
0.112543 0.112785 0.085174
0.179052 0.118618 0.091421
0.244056 0.125739 0.101781
0.301074 0.132111 0.107950
0.358718 0.139174 0.115215
0.418817 0.151224 0.129507
0.479010 0.164705 0.145154
0.539899 0.179668 0.162407
0.601106 0.196597 0.181536
0.659549 0.214284 0.200691
0.714003 0.231567 0.219155
0.766268 0.248989 0.237235
0.814800 0.265844 0.254626
0.857096 0.281211 0.270253
0.078717 0.167281 0.105722
0.094107 0.170925 0.108811
0.134714 0.171280 0.110071
0.195795 0.164644 0.103116
0.260087 0.163993 0.108486
0.316348 0.169797 0.113983
0.374425 0.177559 0.122912
0.436046 0.188913 0.137515
0.500839 0.202380 0.154609
0.562188 0.216629 0.172647
0.621414 0.232019 0.191449
0.679430 0.248232 0.210453
0.732400 0.263863 0.228203
0.782455 0.279316 0.245413
0.828347 0.294367 0.262224
0.870815 0.308810 0.278015
0.100720 0.230379 0.131120
0.120069 0.236540 0.134010
0.159549 0.235590 0.135571
0.212707 0.226090 0.130768
0.284029 0.211802 0.118985
0.342226 0.211769 0.122860
0.403515 0.219845 0.134695
0.466742 0.229815 0.149801
0.531010 0.241909 0.167448
0.589868 0.254526 0.185275
0.645750 0.267604 0.202867
0.700462 0.281449 0.220631
0.751887 0.295423 0.237750
0.798109 0.308611 0.254070
0.841508 0.321829 0.269946
0.881789 0.334622 0.284798
0.124649 0.300097 0.156457
0.144553 0.307320 0.155987
0.187352 0.305494 0.160606
0.241882 0.301354 0.161674
0.297030 0.282299 0.149025
0.372332 0.260533 0.136080
0.430409 0.263228 0.147447
0.494903 0.271843 0.162939
0.558043 0.282731 0.180889
0.617940 0.294119 0.198717
0.672535 0.305510 0.215669
0.725315 0.317541 0.232723
0.774557 0.329747 0.249441
0.818511 0.341499 0.265219
0.859644 0.353102 0.280063
0.900132 0.364940 0.294797
0.152724 0.376145 0.180800
0.172640 0.383941 0.178802
0.218830 0.382642 0.188755
0.269938 0.373823 0.188703
0.316146 0.360254 0.182299
0.382026 0.339835 0.169224
0.455992 0.314465 0.162672
0.515732 0.314884 0.176004
0.578263 0.324060 0.193266
0.638352 0.334163 0.210804
0.691779 0.344011 0.227238
0.742892 0.354263 0.243480
0.790159 0.365107 0.259797
0.833845 0.375889 0.275208
0.873386 0.385940 0.289385
0.916133 0.397658 0.304822
0.187620 0.456955 0.206436
0.207362 0.464266 0.206993
0.253225 0.464472 0.219867
0.300613 0.453714 0.220065
0.354936 0.447711 0.216525
0.395232 0.424496 0.205392
0.458075 0.402519 0.196288
0.530677 0.373790 0.192989
0.596126 0.367819 0.206175
0.650901 0.374507 0.221483
0.703458 0.382798 0.237282
0.753213 0.391826 0.253349
0.800233 0.401504 0.269262
0.843546 0.411069 0.284283
0.882623 0.420097 0.297971
0.927480 0.431399 0.313793
0.225209 0.543371 0.233960
0.247334 0.547658 0.240585
0.290262 0.548439 0.252090
0.333359 0.539890 0.251893
0.382131 0.528927 0.248456
0.440151 0.524579 0.245317
0.475888 0.496081 0.232100
0.530452 0.469120 0.224901
0.597577 0.442473 0.226140
0.664174 0.425677 0.235634
0.717170 0.425686 0.249800
0.762945 0.431921 0.264162
0.807749 0.439427 0.278866
0.850631 0.447835 0.293293
0.890356 0.455907 0.306958
0.939738 0.468519 0.324448
0.266888 0.628554 0.269351
0.289414 0.631656 0.276217
0.327121 0.633600 0.284682
0.366330 0.627681 0.284254
0.412339 0.617318 0.281713
0.462591 0.606741 0.278115
0.521216 0.602139 0.276153
0.557136 0.569815 0.261175
0.600134 0.536238 0.254611
0.660802 0.514643 0.260500
0.715821 0.497376 0.267157
0.771243 0.487511 0.278922
0.822463 0.485229 0.292902
0.864247 0.490193 0.306135
0.902955 0.496263 0.318871
0.951475 0.510410 0.336610
0.305884 0.705487 0.303240
0.328324 0.707650 0.309667
0.361170 0.709803 0.314864
0.397433 0.705697 0.314790
0.439478 0.696417 0.312343
0.487354 0.687182 0.309669
0.539727 0.677335 0.306764
0.599509 0.671520 0.305619
0.631964 0.634200 0.289859
0.664198 0.598600 0.284374
0.718127 0.581204 0.292676
0.769960 0.566799 0.300820
0.819400 0.556315 0.310274
0.868758 0.551408 0.321988
0.912500 0.549855 0.333830
0.951743 0.559971 0.348808
0.341809 0.774652 0.335205
0.364887 0.776162 0.340947
0.392523 0.778311 0.343662
0.425475 0.774807 0.343328
0.464310 0.766821 0.341294
0.510184 0.758489 0.339256
0.561957 0.749801 0.337185
0.617515 0.741160 0.335570
0.667720 0.726272 0.331164
0.698294 0.693064 0.318684
0.723668 0.657016 0.313781
0.773656 0.641695 0.323447
0.822628 0.629600 0.332855
0.868528 0.620899 0.342217
0.910931 0.615594 0.352388
0.952763 0.619067 0.365736
0.375140 0.836472 0.364807
0.396091 0.837464 0.368797
0.420979 0.839026 0.370375
0.451739 0.836638 0.370504
0.488651 0.829532 0.368743
0.533035 0.822142 0.367101
0.583422 0.814265 0.365796
0.637130 0.806002 0.364607
0.693015 0.800092 0.365139
0.729784 0.777366 0.357317
0.758351 0.746449 0.347293
0.781672 0.711472 0.342778
0.827267 0.698023 0.353292
0.872710 0.687417 0.363290
0.914178 0.679825 0.371958
0.952859 0.677612 0.382756
0.404884 0.890140 0.391864
0.423661 0.891316 0.394017
0.447485 0.892661 0.395473
0.476962 0.890414 0.395521
0.512356 0.884376 0.394023
0.555364 0.877910 0.392908
0.604617 0.871177 0.392155
0.656862 0.864366 0.391860
0.708019 0.856979 0.391699
0.758055 0.850186 0.392095
0.786320 0.822107 0.381919
0.812926 0.792191 0.373943
0.835886 0.760984 0.370526
0.877580 0.749520 0.381425
0.918370 0.740465 0.390939
0.956385 0.736196 0.400974
0.431439 0.937054 0.415464
0.448628 0.938293 0.416846
0.471828 0.939088 0.418146
0.500610 0.937665 0.418375
0.535037 0.931755 0.417194
0.577075 0.926005 0.416448
0.624986 0.920144 0.415927
0.674849 0.914309 0.416143
0.723617 0.908321 0.416562
0.771706 0.901885 0.417101
0.808536 0.884623 0.412251
0.836239 0.859099 0.403424
0.860657 0.830416 0.397290
0.884239 0.803952 0.395830
0.922850 0.795935 0.406876
0.960145 0.790182 0.417583
0.455216 0.980358 0.437205
0.472307 0.981246 0.438420
0.494959 0.982089 0.439672
0.523263 0.980577 0.439909
0.557308 0.975323 0.438892
0.598555 0.970002 0.438344
0.644446 0.964637 0.438231
0.691259 0.959847 0.438665
0.738596 0.954504 0.439353
0.785256 0.948730 0.439998
0.828774 0.939874 0.439675
0.854520 0.914562 0.430738
0.882188 0.892002 0.423591
0.904725 0.865618 0.419616
0.928313 0.844334 0.419673
0.964693 0.840974 0.432818
0.046252 0.046223 0.098695
0.070723 0.048935 0.105893
0.101680 0.053397 0.116584
0.174198 0.071451 0.121061
0.252069 0.087649 0.123467
0.330952 0.097258 0.126736
0.405164 0.115234 0.138480
0.480568 0.137325 0.155049
0.552400 0.159632 0.173719
0.618178 0.181532 0.192693
0.679677 0.203084 0.211839
0.736659 0.223533 0.230446
0.786603 0.241864 0.247599
0.832229 0.258997 0.263740
0.874861 0.275280 0.279169
0.914349 0.290547 0.293727
0.050822 0.071820 0.107120
0.073166 0.073752 0.113431
0.102481 0.078709 0.122242
0.157564 0.084266 0.123986
0.236012 0.098184 0.127505
0.316933 0.106942 0.127990
0.396757 0.122059 0.137545
0.467116 0.140616 0.152660
0.538804 0.161261 0.170887
0.611263 0.184213 0.191660
0.675630 0.205986 0.211621
0.734007 0.226389 0.230698
0.788884 0.246007 0.249394
0.838821 0.264553 0.267143
0.882890 0.281244 0.283251
0.922551 0.296399 0.297876
0.060771 0.115700 0.121026
0.080176 0.121471 0.127518
0.107449 0.126510 0.133433
0.165133 0.128075 0.136434
0.236802 0.134690 0.138539
0.314087 0.139270 0.137543
0.391391 0.148461 0.142894
0.473506 0.163404 0.157656
0.552345 0.181351 0.177059
0.621259 0.200615 0.197155
0.682753 0.219576 0.216269
0.736647 0.237189 0.233853
0.786342 0.254208 0.250683
0.833574 0.271028 0.267319
0.877856 0.287291 0.283360
0.918264 0.302309 0.298113
0.080091 0.169865 0.137812
0.094753 0.175377 0.143621
0.129002 0.179858 0.149438
0.185687 0.179590 0.147677
0.259302 0.183787 0.146512
0.337304 0.184948 0.141761
0.416819 0.189789 0.148829
0.486918 0.200003 0.163020
0.549115 0.213134 0.179481
0.605997 0.227223 0.195824
0.661863 0.242514 0.212834
0.716223 0.258327 0.229954
0.766719 0.273640 0.246535
0.813583 0.288798 0.262886
0.858305 0.303888 0.278918
0.900113 0.318294 0.294056
0.100991 0.230687 0.158745
0.114129 0.236082 0.164805
0.153445 0.242677 0.170382
0.209475 0.240972 0.171429
0.275975 0.234406 0.162264
0.356328 0.230013 0.150811
0.434284 0.229769 0.156342
0.496323 0.236716 0.169648
0.555897 0.247890 0.185398
0.610893 0.260077 0.201031
0.664636 0.273055 0.216974
0.718022 0.287036 0.233666
0.769202 0.301224 0.250517
0.815641 0.314857 0.266752
0.860444 0.328674 0.282623
0.903310 0.342420 0.297997
0.121537 0.297788 0.183361
0.140904 0.305194 0.189639
0.177098 0.313293 0.190275
0.235827 0.308938 0.195219
0.291610 0.296481 0.187958
0.369547 0.287114 0.174599
0.450413 0.277872 0.168607
0.519469 0.279487 0.181265
0.580417 0.288216 0.197088
0.635436 0.298890 0.212575
0.687422 0.309951 0.228038
0.738190 0.321779 0.243856
0.785888 0.334027 0.259992
0.830690 0.346156 0.275490
0.873342 0.358313 0.290597
0.919642 0.372172 0.306984
0.149855 0.374672 0.208600
0.170889 0.382380 0.212503
0.203914 0.390590 0.209970
0.264462 0.383578 0.221786
0.321278 0.377386 0.218051
0.378142 0.355606 0.206003
0.456492 0.342717 0.197740
0.533028 0.331994 0.195676
0.602749 0.333277 0.209692
0.659434 0.340390 0.225147
0.710039 0.349287 0.240054
0.757976 0.359246 0.255456
0.804439 0.370054 0.270977
0.847799 0.380920 0.285961
0.888777 0.391696 0.300286
0.939510 0.405933 0.318139
0.186383 0.456970 0.233062
0.205576 0.464636 0.233928
0.236910 0.471944 0.234993
0.296899 0.466700 0.250302
0.350446 0.455354 0.246647
0.401084 0.442120 0.239228
0.457566 0.419504 0.229065
0.533772 0.401577 0.226333
0.607469 0.392525 0.227685
0.672833 0.390379 0.238345
0.727718 0.394300 0.252970
0.775696 0.401066 0.267801
0.821178 0.409552 0.282767
0.864248 0.418822 0.297211
0.905022 0.428242 0.311007
0.955270 0.443593 0.329277
0.224493 0.543869 0.255118
0.241125 0.551014 0.255776
0.276179 0.555016 0.266225
0.330255 0.553565 0.279108
0.381017 0.541311 0.276801
0.436477 0.532338 0.272428
0.482577 0.513667 0.262064
0.532043 0.486823 0.254107
0.602542 0.466949 0.256759
0.671166 0.454152 0.260542
0.727518 0.452774 0.270085
0.780048 0.455052 0.282156
0.829768 0.459454 0.295677
0.875638 0.466095 0.309848
0.917293 0.473821 0.323445
0.955540 0.487662 0.338758
0.264507 0.631860 0.280444
0.282808 0.635507 0.287935
0.316631 0.638752 0.298804
0.364778 0.639781 0.308496
0.411495 0.629501 0.306823
0.462681 0.618426 0.303334
0.519387 0.610818 0.299942
0.564162 0.587983 0.289127
0.603592 0.554242 0.280898
0.665243 0.537101 0.287769
0.722227 0.523363 0.293707
0.778457 0.515746 0.302323
0.828760 0.515718 0.313094
0.874592 0.519248 0.325020
0.916432 0.524234 0.337094
0.954364 0.535771 0.352095
0.302922 0.708448 0.311747
0.322219 0.711130 0.320226
0.355119 0.713687 0.330195
0.396148 0.715468 0.336004
0.438779 0.707740 0.334518
0.487370 0.698245 0.332148
0.540804 0.688372 0.329164
0.601408 0.682750 0.327662
0.638821 0.652333 0.315118
0.668761 0.617086 0.308558
0.722655 0.602069 0.317056
0.774791 0.589246 0.324889
0.825105 0.580642 0.333738
0.874155 0.576341 0.343266
0.916412 0.575587 0.353215
0.955251 0.582128 0.366356
0.338987 0.777032 0.342924
0.357953 0.778959 0.350036
0.389526 0.780530 0.359066
0.424447 0.782426 0.361857
0.463994 0.776952 0.361158
0.510198 0.768228 0.359162
0.562710 0.759815 0.357184
0.617764 0.750333 0.355046
0.674687 0.742263 0.353746
0.705373 0.710940 0.341831
0.729300 0.674695 0.335442
0.777981 0.660362 0.345522
0.826757 0.648870 0.354924
0.872487 0.640496 0.363507
0.915514 0.635660 0.372641
0.955235 0.636721 0.383616
0.372320 0.838306 0.372267
0.390705 0.839614 0.378340
0.419264 0.840470 0.384733
0.450760 0.842313 0.386747
0.488394 0.838147 0.386263
0.532910 0.830808 0.384841
0.583989 0.823203 0.383561
0.638562 0.815349 0.382610
0.692077 0.807491 0.381984
0.736017 0.792491 0.378225
0.765845 0.763865 0.368420
0.788331 0.729120 0.363215
0.831186 0.714650 0.373435
0.876154 0.704242 0.383026
0.917480 0.696786 0.391649
0.955926 0.693488 0.401476
0.401404 0.892080 0.398590
0.420092 0.892449 0.404148
0.445715 0.893650 0.408295
0.475921 0.895210 0.410184
0.512130 0.892039 0.410021
0.555135 0.885825 0.408924
0.604905 0.879007 0.408270
0.657628 0.872640 0.408146
0.709288 0.865799 0.408095
0.759123 0.859213 0.408780
0.791428 0.835905 0.401049
0.819229 0.808253 0.393032
0.841573 0.776770 0.389712
0.881148 0.764367 0.400089
0.921312 0.755511 0.409619
0.959200 0.749470 0.419097
0.427155 0.938585 0.421780
0.446610 0.938930 0.427479
0.470417 0.939927 0.430532
0.499348 0.941145 0.431995
0.534806 0.938678 0.432233
0.576828 0.933130 0.431531
0.625076 0.927400 0.431280
0.675363 0.921568 0.431474
0.724300 0.915896 0.432009
0.772358 0.909552 0.432554
0.813555 0.897298 0.430533
0.840633 0.871481 0.421916
0.866365 0.845046 0.415876
0.888198 0.817899 0.413688
0.925743 0.809305 0.425146
0.963024 0.802126 0.434954
0.451447 0.981677 0.443986
0.471770 0.981849 0.450092
0.493616 0.982506 0.451606
0.521933 0.983920 0.452931
0.557029 0.982280 0.453559
0.598242 0.976783 0.452979
0.644413 0.971361 0.453094
0.691232 0.966233 0.453362
0.738869 0.961273 0.454229
0.785915 0.955618 0.455142
0.831499 0.949358 0.455885
0.858950 0.926082 0.448383
0.886034 0.903846 0.441726
0.909114 0.879448 0.437645
0.931233 0.856964 0.436860
0.967168 0.851877 0.449884
0.056598 0.056590 0.135289
0.077165 0.059126 0.142641
0.106356 0.066862 0.160916
0.151669 0.070439 0.172493
0.234485 0.085994 0.178254
0.326209 0.097534 0.174300
0.401548 0.114783 0.174422
0.475523 0.136191 0.181231
0.551040 0.159458 0.193331
0.618656 0.181904 0.208067
0.680847 0.203616 0.224085
0.738638 0.224392 0.240823
0.788917 0.242683 0.256582
0.834204 0.259798 0.271647
0.876586 0.276128 0.286184
0.915918 0.291381 0.300138
0.061124 0.078971 0.145693
0.080116 0.083847 0.152357
0.107597 0.092361 0.163416
0.144242 0.094674 0.176370
0.218188 0.101773 0.179587
0.305889 0.108399 0.176925
0.394094 0.122007 0.174632
0.483018 0.145468 0.181789
0.558387 0.167577 0.194750
0.620321 0.187490 0.209347
0.682267 0.208476 0.225473
0.740562 0.228821 0.242390
0.793915 0.247939 0.259072
0.842448 0.266027 0.275248
0.885739 0.282469 0.290379
0.924784 0.297469 0.304259
0.070268 0.123499 0.160119
0.087093 0.129844 0.166871
0.112143 0.136803 0.175670
0.152940 0.143076 0.191103
0.226697 0.142872 0.189787
0.310546 0.145539 0.185322
0.392703 0.153169 0.184214
0.479222 0.168336 0.190821
0.563444 0.187573 0.203364
0.641899 0.208945 0.219864
0.716079 0.231325 0.238700
0.781006 0.252485 0.258216
0.837903 0.272422 0.276784
0.889669 0.291223 0.294497
0.936041 0.308344 0.310900
0.970756 0.321247 0.323378
0.083629 0.177037 0.179010
0.098253 0.184804 0.186054
0.120898 0.191753 0.195460
0.167313 0.197594 0.205072
0.239352 0.197407 0.204364
0.315609 0.200394 0.203794
0.395237 0.206454 0.203090
0.480401 0.217495 0.208874
0.564663 0.231228 0.219521
0.639482 0.246149 0.233092
0.709377 0.262235 0.248732
0.772886 0.278892 0.265472
0.827264 0.294683 0.281500
0.876369 0.309941 0.296949
0.922126 0.324860 0.312013
0.964511 0.339298 0.326444
0.101761 0.231696 0.192874
0.112927 0.237242 0.197959
0.138874 0.245732 0.209968
0.196338 0.252945 0.218441
0.261472 0.251812 0.215553
0.340380 0.255964 0.213405
0.422165 0.261010 0.212881
0.507120 0.267616 0.216786
0.591043 0.277279 0.226483
0.663622 0.288489 0.239532
0.727776 0.300886 0.254656
0.786750 0.314351 0.270702
0.839509 0.327884 0.286869
0.886014 0.340962 0.301969
0.929681 0.354104 0.316507
0.970356 0.367162 0.330791
0.120878 0.297506 0.213578
0.131205 0.303380 0.220017
0.165696 0.311416 0.231437
0.220003 0.320421 0.236824
0.286445 0.317044 0.238165
0.356001 0.309208 0.231334
0.440397 0.310653 0.225978
0.522318 0.314269 0.228050
0.601812 0.319662 0.235128
0.670614 0.327027 0.246372
0.731749 0.335785 0.259819
0.789490 0.346217 0.274906
0.840922 0.358228 0.290630
0.886222 0.369907 0.305327
0.929626 0.381537 0.319590
0.969420 0.395021 0.334503
0.144602 0.369950 0.238419
0.162170 0.378391 0.246507
0.197357 0.388102 0.253934
0.244314 0.397963 0.253524
0.314539 0.389980 0.261563
0.371212 0.375582 0.255783
0.447945 0.368382 0.251277
0.531242 0.367051 0.246670
0.609409 0.369426 0.251498
0.676793 0.373698 0.260638
0.735031 0.379893 0.272230
0.789119 0.387713 0.285231
0.839923 0.396464 0.298812
0.884897 0.405933 0.312198
0.926432 0.415466 0.325313
0.963701 0.429185 0.340342
0.181750 0.453453 0.263698
0.200176 0.462158 0.268690
0.230897 0.471381 0.272978
0.273817 0.480555 0.273207
0.344889 0.472065 0.288559
0.407963 0.464851 0.283041
0.454578 0.440393 0.275392
0.530526 0.427626 0.274896
