luts/Circinus.cube
LUT_3D_SIZE 6
0.031763 0.031725 0.031839
0.166695 0.068594 0.068869
0.382089 0.108579 0.108493
0.589941 0.171641 0.171112
0.758645 0.231098 0.229787
0.886704 0.279103 0.277340
0.078446 0.167112 0.084273
0.194414 0.154700 0.086086
0.370256 0.177156 0.113546
0.557995 0.215613 0.166229
0.728964 0.262712 0.223625
0.868240 0.307605 0.274404
0.153013 0.376988 0.158824
0.272905 0.370002 0.166697
0.450582 0.307965 0.154436
0.635723 0.333046 0.206156
0.788214 0.363747 0.256111
0.911845 0.395702 0.300892
0.268507 0.624754 0.260882
0.366688 0.617782 0.267277
0.519844 0.594079 0.261253
0.657290 0.499525 0.248939
0.815442 0.480439 0.287347
0.945156 0.504546 0.331406
0.378057 0.834197 0.358906
0.451972 0.828825 0.359647
0.582952 0.806188 0.354907
0.723781 0.762243 0.344016
0.822505 0.678702 0.340278
0.949520 0.661518 0.371100
0.456041 0.979908 0.431382
0.523898 0.974310 0.431430
0.645295 0.958407 0.429586
0.785126 0.941744 0.431077
0.878642 0.879560 0.411578
0.961778 0.830022 0.421491
0.056598 0.056590 0.135289
0.151669 0.070439 0.172493
0.401548 0.114783 0.174422
0.618656 0.181904 0.208067
0.788917 0.242683 0.256582
0.915918 0.291381 0.300138
0.083629 0.177037 0.179010
0.167313 0.197594 0.205072
0.395237 0.206454 0.203090
0.639482 0.246149 0.233092
0.827264 0.294683 0.281500
0.964511 0.339298 0.326444
0.144602 0.369950 0.238419
0.244314 0.397963 0.253524
0.447945 0.368382 0.251277
0.676793 0.373698 0.260638
0.839923 0.396464 0.298812
0.963701 0.429185 0.340342
0.262520 0.630929 0.304006
0.350336 0.646709 0.329931
0.517078 0.622393 0.334687
0.668295 0.559277 0.326700
0.831459 0.542886 0.345072
0.957109 0.559300 0.377064
0.367548 0.840980 0.378166
0.447613 0.843800 0.408827
0.584112 0.833193 0.410259
0.742806 0.809090 0.408141
0.834891 0.731732 0.403213
0.959002 0.711172 0.430502
0.446409 0.983161 0.449756
0.521024 0.984581 0.472948
0.644279 0.978922 0.476003
0.786287 0.963184 0.478174
0.889881 0.916548 0.468274
0.970094 0.864993 0.475196
0.079839 0.083627 0.256244
0.143595 0.099162 0.285108
0.329755 0.115806 0.350041
0.570395 0.172630 0.355409
0.800151 0.248182 0.355207
0.950672 0.305256 0.376947
0.098605 0.199122 0.297136
0.153487 0.222638 0.325163
0.331740 0.237330 0.386183
0.618382 0.260527 0.374463
0.840618 0.306761 0.374724
0.971813 0.345585 0.392920
0.145621 0.372151 0.356246
0.201863 0.407673 0.394522
0.384258 0.448347 0.461790
0.654386 0.459738 0.452037
0.839524 0.486985 0.461858
0.973064 0.511895 0.477781
0.246090 0.606174 0.403932
0.310920 0.635902 0.438700
0.479634 0.670595 0.476658
0.673588 0.632506 0.502866
0.837915 0.631679 0.506628
0.964256 0.645784 0.518673
0.354146 0.826391 0.445307
0.405962 0.841892 0.471883
0.566116 0.854706 0.536551
0.742659 0.843331 0.551853
0.845398 0.789426 0.553950
0.968114 0.776816 0.576587
0.432791 0.974920 0.495437
0.481704 0.985928 0.518555
0.640203 0.990275 0.595214
0.783932 0.984842 0.601403
0.904755 0.961278 0.603247
0.977900 0.912447 0.608433
0.091392 0.104497 0.371692
0.149895 0.122322 0.394299
0.251064 0.174126 0.465363
0.509390 0.182561 0.533094
0.701359 0.231404 0.546140
0.880171 0.287232 0.547079
0.115720 0.222114 0.410254
0.166846 0.248621 0.440271
0.280470 0.300433 0.509286
0.532561 0.292729 0.575935
0.744403 0.324864 0.586009
0.925110 0.357118 0.583399
0.172796 0.407167 0.496490
0.216370 0.445586 0.544131
0.366128 0.481441 0.592415
0.595253 0.489034 0.653606
0.814074 0.502762 0.650081
0.974859 0.512117 0.633348
0.237695 0.585615 0.546003
0.290639 0.630419 0.594360
0.445824 0.666258 0.651988
0.662910 0.699695 0.706802
0.847708 0.713047 0.703057
0.979715 0.734323 0.711067
0.338216 0.793296 0.573607
0.388612 0.813635 0.608970
0.527143 0.838824 0.660186
0.717937 0.862795 0.712807
0.857399 0.840845 0.733552
0.977479 0.842743 0.745242
0.419855 0.948711 0.609456
0.470610 0.964545 0.639164
0.594356 0.982530 0.686679
0.768213 0.993734 0.748401
0.907374 0.989794 0.765267
0.986355 0.955066 0.765976
0.118072 0.138192 0.481113
0.164945 0.156038 0.501436
0.246719 0.203105 0.558909
0.424340 0.261080 0.720676
0.691374 0.249904 0.711618
0.844344 0.290999 0.724741
0.141709 0.249807 0.519866
0.186449 0.278049 0.552447
0.280056 0.330116 0.612880
0.467245 0.380339 0.776185
0.725842 0.348046 0.750623
0.877059 0.377470 0.760019
0.198287 0.426244 0.611928
0.242235 0.468179 0.668219
0.370423 0.513300 0.711554
0.563520 0.560901 0.827345
0.780128 0.531500 0.802570
0.920163 0.550306 0.809692
0.277285 0.635381 0.718853
0.322723 0.679804 0.773106
0.448080 0.699351 0.797452
0.652733 0.729314 0.823993
0.829173 0.724381 0.842488
0.966185 0.738358 0.851972
0.341592 0.794134 0.728748
0.381919 0.808209 0.755476
0.511208 0.828043 0.793741
0.701800 0.850072 0.835816
0.865692 0.872591 0.871678
0.988967 0.888669 0.878840
0.411880 0.925568 0.737094
0.468678 0.940532 0.766667
0.589968 0.960027 0.806232
0.744621 0.984817 0.847415
0.898460 0.996609 0.888949
0.995568 0.985301 0.896415
0.146088 0.174230 0.586017
0.186403 0.194884 0.607909
0.261914 0.243042 0.664020
0.402427 0.316336 0.788307
0.637629 0.302502 0.849874
0.850752 0.309515 0.864238
0.170889 0.281203 0.627203
0.211070 0.311658 0.663835
0.296401 0.366079 0.722102
0.463657 0.444243 0.849168
0.689422 0.396681 0.891380
0.879095 0.396438 0.892345
0.228388 0.451144 0.727566
0.270875 0.496916 0.779183
0.379492 0.546002 0.823926
0.560106 0.602114 0.919062
0.768399 0.558151 0.941296
0.919182 0.565310 0.928172
0.304530 0.647005 0.835566
0.344876 0.693643 0.878573
0.441000 0.720566 0.905300
0.646527 0.755157 0.934491
0.819805 0.744041 0.979345
0.951133 0.751806 0.956356
0.374346 0.833267 0.890719
0.409644 0.847724 0.912620
0.522024 0.863592 0.937310
0.693463 0.878289 0.954378
0.863988 0.896301 0.974035
0.978605 0.893733 0.980746
0.415492 0.926369 0.861804
0.472412 0.939190 0.886075
0.593388 0.954738 0.916423
0.751272 0.973088 0.950473
0.892409 0.991030 0.979412
0.999624 0.999665 0.999511
