luts/Lacertae.cube
LUT_3D_SIZE 6
0.167469 0.167469 0.167469
0.213191 0.182452 0.178466
0.416753 0.237066 0.205418
0.750677 0.381731 0.314677
0.956148 0.478200 0.403571
0.992338 0.510155 0.419495
0.172013 0.175204 0.170771
0.214699 0.187778 0.179128
0.421947 0.238928 0.207019
0.753312 0.382687 0.315854
0.957914 0.478776 0.404283
0.992338 0.510165 0.419496
0.192539 0.210863 0.185180
0.224591 0.219954 0.185631
0.432378 0.279551 0.212287
0.763543 0.395739 0.320534
0.964103 0.481003 0.406928
0.992338 0.510176 0.419497
0.227359 0.286169 0.200528
0.264498 0.301652 0.198019
0.441953 0.347424 0.222245
0.777739 0.468873 0.329006
0.973378 0.514444 0.411781
0.992337 0.510074 0.419490
0.339319 0.500946 0.251619
0.387526 0.524637 0.254589
0.619527 0.587860 0.271630
0.834084 0.587081 0.357304
0.992069 0.592323 0.422276
0.992683 0.558811 0.421308
0.517376 0.814313 0.358180
0.563154 0.823154 0.362674
0.763496 0.840351 0.373524
0.955747 0.788751 0.416933
0.994421 0.695323 0.427600
0.993446 0.628002 0.424249
0.168945 0.186859 0.201326
0.199253 0.192104 0.199756
0.388190 0.240756 0.216310
0.737603 0.383334 0.318396
0.953658 0.478787 0.402566
0.992336 0.510045 0.419486
0.170280 0.198543 0.202245
0.206806 0.205996 0.205913
0.392530 0.245061 0.221057
0.741143 0.385517 0.320682
0.955406 0.479754 0.403260
0.992336 0.510018 0.419484
0.189395 0.225730 0.201076
0.222864 0.239066 0.215647
0.412729 0.283482 0.230557
0.753679 0.394752 0.328725
0.961790 0.483596 0.406039
0.992336 0.510041 0.419485
0.214704 0.307819 0.216632
0.260254 0.324326 0.229940
0.434486 0.363748 0.243610
0.771150 0.473164 0.336626
0.971601 0.514963 0.411133
0.992336 0.510051 0.419486
0.323442 0.522751 0.284912
0.377257 0.545239 0.286913
0.602281 0.604178 0.287331
0.830250 0.596282 0.357135
0.991605 0.596101 0.422203
0.992745 0.561669 0.421427
0.489972 0.819376 0.382111
0.539044 0.828294 0.378895
0.727464 0.848689 0.376529
0.953204 0.808846 0.417192
0.994435 0.700797 0.427841
0.993569 0.632728 0.424470
0.153911 0.291244 0.371876
0.152105 0.287568 0.365989
0.321316 0.271592 0.324848
0.701885 0.427363 0.380838
0.943662 0.518741 0.443372
0.992451 0.523458 0.419951
0.155139 0.312996 0.371788
0.159901 0.303074 0.365366
0.327818 0.290817 0.328937
0.703259 0.432884 0.387832
0.945352 0.521595 0.446850
0.992453 0.523520 0.419957
0.162494 0.361800 0.382955
0.168636 0.357207 0.375565
0.364148 0.359515 0.358794
0.713120 0.449579 0.407555
0.952007 0.529354 0.456053
0.992479 0.524884 0.420028
0.177585 0.413927 0.369923
0.213390 0.408925 0.352649
0.407755 0.456030 0.381310
0.735362 0.515710 0.429056
0.963282 0.551894 0.473793
0.992422 0.527421 0.420183
0.263534 0.607309 0.390207
0.287301 0.623440 0.389506
0.508667 0.642555 0.442711
0.794042 0.647439 0.462762
0.984190 0.640321 0.493441
0.992824 0.571517 0.421958
0.376484 0.857776 0.438773
0.380071 0.861213 0.431214
0.638962 0.856981 0.533392
0.930764 0.884675 0.501699
0.994941 0.736538 0.462730
0.993691 0.646976 0.425132
0.283700 0.506368 0.672306
0.282866 0.512212 0.669419
0.277357 0.466274 0.661561
0.601926 0.505358 0.609030
0.884800 0.721839 0.699430
0.995991 0.791919 0.758374
0.285010 0.533841 0.671846
0.283726 0.524334 0.669892
0.278734 0.485739 0.662575
0.606014 0.524821 0.610936
0.886790 0.724719 0.702707
0.995893 0.786814 0.752073
0.289545 0.573149 0.677481
0.288309 0.567361 0.675210
0.284161 0.547663 0.667354
0.624277 0.581958 0.623765
0.895952 0.731525 0.709406
0.995366 0.753550 0.711273
0.298439 0.644562 0.688434
0.297516 0.643606 0.686201
0.296249 0.644247 0.677404
0.664926 0.659765 0.658583
0.916917 0.735360 0.711511
0.994582 0.707526 0.654045
0.340271 0.774198 0.728949
0.341340 0.776583 0.724167
0.365938 0.753103 0.673265
0.708864 0.746385 0.689409
0.936395 0.784973 0.734723
0.994903 0.732798 0.673630
0.398342 0.904146 0.706566
0.400117 0.908144 0.688376
0.454026 0.910846 0.632167
0.795551 0.892686 0.754448
0.997536 0.876769 0.754573
0.995430 0.762474 0.616526
0.375534 0.653047 0.882908
0.375769 0.668369 0.881550
0.374139 0.650980 0.879677
0.618350 0.703205 0.856516
0.835456 0.782528 0.839932
0.995678 0.942574 0.935869
0.376492 0.669812 0.883107
0.376675 0.682887 0.882000
0.374885 0.661392 0.880273
0.624819 0.712201 0.856929
0.837615 0.788298 0.841534
0.997037 0.943320 0.936581
0.379487 0.708449 0.885262
0.379457 0.712391 0.884635
0.377821 0.695393 0.882884
0.634340 0.739648 0.859617
0.844674 0.806082 0.846965
0.999273 0.943659 0.936573
0.384780 0.766489 0.889974
0.384424 0.763620 0.889537
0.383316 0.754429 0.888215
0.612435 0.777307 0.867985
0.857692 0.834689 0.857593
0.999129 0.938801 0.930497
0.392209 0.837757 0.897008
0.391980 0.837960 0.896623
0.391430 0.840250 0.894682
0.636425 0.848879 0.874304
0.879261 0.876335 0.875864
0.998657 0.919753 0.907665
0.431033 0.974103 0.947636
0.432881 0.978296 0.947296
0.439975 0.994262 0.945360
0.638195 0.973779 0.910119
0.924284 0.948692 0.910098
0.999162 0.943037 0.910653
0.423116 0.726283 0.993228
0.423696 0.736491 0.993370
0.424784 0.755917 0.993612
0.692020 0.854519 0.995967
0.933912 0.947426 0.990971
0.985072 0.967212 0.986923
0.423288 0.730076 0.993277
0.423873 0.740027 0.993497
0.425116 0.761190 0.993685
0.681877 0.854189 0.995882
0.933917 0.948485 0.991457
0.985731 0.968377 0.987378
0.423576 0.734489 0.993307
0.424155 0.744103 0.993480
0.426155 0.777706 0.993991
0.607204 0.842592 0.995552
0.932350 0.950958 0.993704
0.987503 0.972188 0.988835
0.425765 0.770853 0.993863
0.425898 0.773679 0.993853
0.426490 0.782503 0.994012
0.427736 0.802790 0.994505
0.922430 0.953977 0.997653
0.990772 0.978905 0.991664
0.429569 0.831514 0.994916
0.429786 0.834442 0.994918
0.430535 0.845038 0.995073
0.431238 0.855458 0.995283
0.851582 0.945870 0.998562
0.995264 0.988409 0.995498
0.434885 0.906129 0.996285
0.435143 0.909763 0.996319
0.436143 0.923157 0.996647
0.437866 0.945724 0.996998
0.837317 0.984721 0.999358
1.000007 1.000006 1.000006
