luts/Lacertae.cube
LUT_3D_SIZE 16
0.167469 0.167469 0.167469
0.170286 0.168450 0.168195
0.185175 0.173658 0.172243
0.213191 0.182452 0.178466
0.253145 0.190464 0.181711
0.317643 0.200785 0.181838
0.416753 0.237066 0.205418
0.537138 0.287163 0.241438
0.657407 0.339999 0.281575
0.750677 0.381731 0.314677
0.828592 0.417955 0.348463
0.896773 0.450015 0.377980
0.956148 0.478200 0.403571
0.992210 0.497556 0.419096
0.992236 0.504383 0.419276
0.992338 0.510155 0.419495
0.167939 0.168145 0.167739
0.170707 0.168905 0.168407
0.185804 0.173840 0.172399
0.213744 0.182488 0.178535
0.253499 0.190515 0.181703
0.318191 0.200876 0.181907
0.417216 0.237244 0.205545
0.537578 0.287254 0.241583
0.657756 0.340080 0.281698
0.750987 0.381838 0.314810
0.828722 0.418014 0.348521
0.896811 0.450036 0.377974
0.956346 0.478226 0.403627
0.992210 0.497571 0.419097
0.992236 0.504373 0.419275
0.992338 0.510151 0.419495
0.169401 0.170769 0.168834
0.171794 0.171305 0.168904
0.186469 0.175826 0.172648
0.215066 0.183218 0.178744
0.255026 0.190648 0.181733
0.319804 0.201264 0.182178
0.418796 0.237727 0.205990
0.539079 0.287847 0.242084
0.658795 0.340477 0.282079
0.751808 0.382073 0.315179
0.829449 0.418263 0.348862
0.897548 0.450338 0.378292
0.957030 0.478445 0.403893
0.992210 0.497579 0.419097
0.992236 0.504391 0.419276
0.992338 0.510155 0.419495
0.172013 0.175204 0.170771
0.174007 0.175991 0.170802
0.184442 0.178539 0.172904
0.214699 0.187778 0.179128
0.257041 0.194302 0.182008
0.322686 0.202458 0.183069
0.421947 0.238928 0.207019
0.542201 0.289004 0.243141
0.661066 0.341267 0.282873
0.753312 0.382687 0.315854
0.830808 0.418706 0.349400
0.898699 0.450710 0.378772
0.957914 0.478776 0.404283
0.992211 0.497612 0.419048
0.992236 0.504395 0.419276
0.992338 0.510165 0.419496
0.176929 0.183792 0.174294
0.178793 0.184773 0.174459
0.189120 0.187366 0.175194
0.210837 0.192370 0.179841
0.255832 0.202173 0.183232
0.326289 0.213563 0.184677
0.426499 0.245121 0.209171
0.546844 0.291328 0.245382
0.664497 0.342930 0.284521
0.756015 0.383740 0.316981
0.833024 0.419559 0.350394
0.900501 0.451357 0.379495
0.959383 0.479269 0.404862
0.992211 0.497659 0.419052
0.992236 0.504406 0.419277
0.992338 0.510165 0.419496
0.183916 0.195906 0.179211
0.185728 0.196790 0.179293
0.195288 0.199102 0.179330
0.212856 0.201321 0.181845
0.252090 0.210424 0.184833
0.325470 0.226238 0.185727
0.432677 0.262337 0.211366
0.552919 0.305167 0.247680
0.669122 0.346720 0.286850
0.759453 0.385524 0.318538
0.835902 0.420915 0.351618
0.903019 0.452287 0.380630
0.961485 0.480056 0.405794
0.992211 0.497659 0.419052
0.992237 0.504454 0.419280
0.992338 0.510176 0.419497
0.192539 0.210863 0.185180
0.194453 0.211897 0.185198
0.203002 0.214532 0.185123
0.224591 0.219954 0.185631
0.253335 0.221733 0.187255
0.321456 0.239039 0.187048
0.432378 0.279551 0.212287
0.560654 0.327192 0.250379
0.674398 0.366995 0.288440
0.763543 0.395739 0.320534
0.839602 0.422946 0.353227
0.906042 0.453721 0.381912
0.964103 0.481003 0.406928
0.992213 0.497766 0.419060
0.992237 0.504486 0.419282
0.992338 0.510176 0.419497
0.202563 0.229566 0.191427
0.204601 0.230592 0.191420
0.212072 0.233930 0.191133
0.234238 0.238970 0.190259
0.262552 0.242102 0.190202
0.323164 0.256104 0.190538
0.428394 0.296743 0.213254
0.560279 0.348048 0.251053
0.680752 0.390980 0.290624
0.768032 0.417368 0.323113
0.843428 0.439843 0.355339
0.909616 0.459557 0.383581
0.967148 0.482386 0.408253
0.992215 0.497833 0.419067
0.992238 0.504519 0.419285
0.992338 0.510134 0.419494
0.213745 0.253359 0.196781
0.215998 0.254564 0.196590
0.223405 0.258623 0.195993
0.247160 0.265015 0.194555
0.286954 0.276755 0.192393
0.329258 0.278533 0.195240
0.430319 0.318387 0.216491
0.556784 0.369084 0.251606
0.680176 0.414136 0.291161
0.773341 0.442178 0.326203
0.847614 0.462170 0.357801
0.913012 0.479465 0.385573
0.970167 0.494423 0.409877
0.992233 0.498788 0.419093
0.992239 0.504544 0.419288
0.992337 0.510083 0.419490
0.227359 0.286169 0.200528
0.230032 0.287663 0.200222
0.239063 0.292836 0.199438
0.264498 0.301652 0.198019
0.309510 0.314579 0.196193
0.361172 0.326306 0.203753
0.441953 0.347424 0.222245
0.565695 0.398802 0.256067
0.684671 0.441956 0.293633
0.777739 0.468873 0.329006
0.852423 0.487204 0.360728
0.916950 0.501973 0.388015
0.973378 0.514444 0.411781
0.992300 0.515768 0.419668
0.992290 0.507633 0.419438
0.992337 0.510074 0.419490
0.250820 0.336263 0.208892
0.254252 0.338191 0.208965
0.265843 0.344569 0.209240
0.292655 0.356004 0.209635
0.344799 0.371233 0.209736
0.414309 0.395119 0.216543
0.465729 0.393158 0.230189
0.587555 0.438873 0.264224
0.699822 0.477925 0.298938
0.788663 0.501224 0.334875
0.861127 0.516424 0.365409
0.921362 0.526902 0.390729
0.976884 0.536766 0.414021
0.992437 0.535407 0.420412
0.992433 0.528010 0.420137
0.992279 0.514698 0.419658
0.288289 0.407376 0.226465
0.292428 0.409558 0.226692
0.305975 0.416785 0.227310
0.332612 0.429966 0.228514
0.391088 0.446673 0.229356
0.465627 0.469129 0.230765
0.539906 0.485708 0.249879
0.620499 0.492052 0.275156
0.724032 0.522130 0.309244
0.807790 0.540607 0.344396
0.877077 0.551731 0.373359
0.933899 0.557988 0.397081
0.980849 0.561328 0.416494
0.992644 0.556949 0.421228
0.992624 0.549227 0.420920
0.992452 0.536095 0.420425
0.339319 0.500946 0.251619
0.344058 0.503290 0.251939
0.359453 0.510677 0.252843
0.387526 0.524637 0.254589
0.447879 0.541933 0.256070
0.528398 0.562795 0.257554
0.619527 0.587860 0.271630
0.671620 0.571483 0.290859
0.755710 0.574693 0.324813
0.834084 0.587081 0.357304
0.899393 0.593094 0.384331
0.952842 0.594711 0.406258
0.992069 0.592323 0.422276
0.992923 0.580657 0.422190
0.992805 0.571012 0.421797
0.992683 0.558811 0.421308
0.401237 0.611834 0.284050
0.406238 0.613682 0.284280
0.422147 0.619734 0.284920
0.450537 0.630624 0.286096
0.504421 0.643924 0.286987
0.585216 0.657295 0.289434
0.672244 0.671693 0.297730
0.746822 0.674074 0.327054
0.794709 0.643352 0.344261
0.867532 0.641209 0.373557
0.928071 0.640866 0.398168
0.977000 0.636629 0.417883
0.993477 0.624959 0.424147
0.993219 0.609157 0.423441
0.993035 0.594127 0.422803
0.992945 0.581620 0.422197
0.460487 0.716142 0.317111
0.465324 0.717560 0.317111
0.480709 0.721743 0.316888
0.508028 0.729004 0.320015
0.552069 0.738562 0.324839
0.632856 0.746548 0.329685
0.719514 0.755592 0.335334
0.810316 0.768009 0.358288
0.854355 0.736337 0.373549
0.907723 0.705053 0.393131
0.962238 0.695070 0.414627
0.994134 0.681271 0.426835
0.993910 0.660519 0.425833
0.993598 0.639518 0.424831
0.993504 0.620163 0.423892
0.993249 0.602901 0.423141
0.517376 0.814313 0.358180
0.522010 0.815145 0.358590
0.536842 0.818037 0.360035
0.563154 0.823154 0.362674
0.599358 0.830509 0.366401
0.676826 0.835317 0.369739
0.763496 0.840351 0.373524
0.852422 0.846131 0.380179
0.925816 0.840075 0.408282
0.955747 0.788751 0.416933
0.995208 0.754591 0.430883
0.994683 0.725570 0.429173
0.994421 0.695323 0.427600
0.993955 0.666045 0.426118
0.993701 0.637824 0.424694
0.993446 0.628002 0.424249
0.167548 0.168593 0.169588
0.169905 0.169509 0.169971
0.184042 0.174432 0.173295
0.211335 0.182792 0.179227
0.250336 0.190793 0.182567
0.313718 0.200198 0.182054
0.412349 0.235600 0.204635
0.533098 0.285435 0.240336
0.654657 0.338700 0.280688
0.748992 0.380910 0.314032
0.827553 0.417424 0.348014
0.896135 0.449670 0.377662
0.955928 0.478011 0.403443
0.992209 0.497530 0.419091
0.992235 0.504367 0.419272
0.992338 0.510151 0.419495
0.167546 0.169407 0.169641
0.170457 0.170352 0.170370
0.184509 0.174829 0.173684
0.211679 0.183058 0.179447
0.250720 0.190994 0.182719
0.314245 0.200501 0.182263
0.412807 0.235856 0.204884
0.533626 0.285672 0.240565
0.655026 0.338826 0.280829
0.749374 0.381022 0.314133
0.827821 0.417522 0.348125
0.896324 0.449800 0.377746
0.955899 0.478019 0.403429
0.992209 0.497526 0.419091
0.992235 0.504382 0.419273
0.992338 0.510151 0.419495
0.168959 0.171695 0.169917
0.171977 0.173096 0.171428
0.185420 0.176931 0.174383
0.212853 0.184046 0.180213
0.251900 0.191506 0.183279
0.315636 0.201193 0.182978
0.414476 0.236713 0.205762
0.535278 0.286586 0.241395
0.656207 0.339475 0.281432
0.750238 0.381395 0.314537
0.828632 0.417823 0.348455
0.897008 0.449962 0.378038
0.956592 0.478266 0.403756
0.992209 0.497538 0.419092
0.992235 0.504384 0.419273
0.992338 0.510147 0.419495
0.172365 0.177128 0.172517
0.175239 0.178714 0.173863
0.185116 0.180874 0.175201
0.212984 0.188729 0.181001
0.253910 0.195041 0.184172
0.318620 0.202678 0.184374
0.417893 0.238556 0.207456
0.538566 0.288300 0.243051
0.658659 0.340703 0.282713
0.751971 0.382258 0.315306
0.830122 0.418351 0.349092
0.898121 0.450406 0.378539
0.957637 0.478606 0.404172
0.992209 0.497569 0.419094
0.992235 0.504379 0.419272
0.992338 0.510159 0.419495
0.178408 0.186667 0.177349
0.180445 0.187632 0.177585
0.189770 0.189861 0.177606
0.210786 0.194020 0.182015
0.253922 0.203028 0.185230
0.322717 0.213182 0.185922
0.422927 0.244182 0.209708
0.543609 0.290877 0.245475
0.662305 0.342661 0.284582
0.754718 0.383569 0.316458
0.832204 0.419418 0.350021
0.899920 0.451083 0.379284
0.959132 0.479156 0.404811
0.992210 0.497580 0.419097
0.992236 0.504407 0.419274
0.992338 0.510157 0.419495
0.185503 0.198380 0.182521
0.187364 0.199321 0.182563
0.195730 0.201749 0.182563
0.213729 0.204019 0.184361
0.251489 0.211849 0.187101
0.323198 0.226485 0.187479
0.429516 0.261663 0.212130
0.550123 0.304134 0.247997
0.667362 0.346032 0.287082
0.758423 0.385530 0.318154
0.835127 0.420891 0.351285
0.902512 0.452251 0.380392
0.961103 0.479877 0.405671
0.992211 0.497636 0.419050
0.992236 0.504401 0.419277
0.992337 0.510105 0.419492
0.194023 0.213178 0.188599
0.195937 0.214130 0.188580
0.203232 0.217009 0.188442
0.224676 0.222027 0.188369
0.252972 0.223516 0.189976
0.320238 0.240179 0.189487
0.430315 0.279643 0.213669
0.558318 0.326546 0.250963
0.672724 0.366419 0.288884
0.762703 0.395194 0.320172
0.839097 0.422933 0.353012
0.905715 0.453849 0.381753
0.963790 0.480938 0.406789
0.992212 0.497705 0.419056
0.992237 0.504461 0.419281
0.992338 0.510145 0.419494
0.203667 0.231594 0.194492
0.205617 0.232620 0.194394
0.212466 0.235991 0.194088
0.234110 0.241159 0.193130
0.263974 0.245403 0.192741
0.322446 0.257600 0.193180
0.427207 0.297467 0.215148
0.558683 0.348110 0.252164
0.679265 0.390765 0.291335
0.767147 0.417068 0.322715
0.842862 0.439518 0.355081
0.909337 0.459267 0.383460
0.966853 0.482520 0.408151
0.992214 0.497814 0.419064
0.992238 0.504510 0.419284
0.992337 0.510096 0.419491
0.214387 0.255303 0.199530
0.216589 0.256567 0.199350
0.224029 0.260619 0.198684
0.246540 0.267280 0.197247
0.286728 0.278813 0.194889
0.328853 0.280512 0.197732
0.429744 0.319526 0.218474
0.555834 0.369690 0.253019
0.679149 0.414390 0.292168
0.772606 0.442174 0.325843
0.847113 0.462084 0.357613
0.912706 0.479295 0.385538
0.970148 0.494196 0.409854
0.992234 0.498906 0.419101
0.992238 0.504525 0.419287
0.992337 0.510091 0.419491
0.227583 0.288294 0.203219
0.230308 0.289829 0.202937
0.239410 0.295002 0.202166
0.263444 0.304126 0.200776
0.309083 0.317092 0.199164
0.363174 0.330258 0.206454
0.441559 0.348812 0.224213
0.565157 0.399727 0.257566
0.684040 0.442545 0.294755
0.777098 0.469138 0.328776
0.852116 0.487335 0.360560
0.916568 0.502011 0.387837
0.973134 0.514326 0.411692
0.992298 0.515628 0.419656
0.992305 0.508446 0.419455
0.992337 0.510082 0.419490
0.250864 0.338658 0.212056
0.254350 0.340612 0.212122
0.266028 0.346997 0.212354
0.291063 0.358724 0.212780
0.343988 0.373917 0.212868
0.414029 0.397420 0.218654
0.467321 0.396781 0.232585
0.587169 0.440154 0.265745
0.699454 0.478808 0.300609
0.788423 0.501726 0.334750
0.860881 0.516745 0.365322
0.920987 0.527009 0.390559
0.976588 0.536817 0.413873
0.992436 0.535376 0.420410
0.992448 0.528731 0.420203
0.992292 0.515348 0.419664
0.287769 0.409845 0.229604
0.291994 0.412079 0.229794
0.305741 0.419155 0.230347
0.331255 0.432582 0.231571
0.389480 0.449299 0.232426
0.464840 0.471579 0.233655
0.541857 0.489906 0.252108
0.619973 0.493677 0.276582
0.723696 0.523138 0.309286
0.807457 0.541303 0.344251
0.876616 0.552153 0.373200
0.933627 0.558249 0.396916
0.980584 0.561433 0.416399
0.992647 0.557132 0.421238
0.992622 0.549165 0.420915
0.992465 0.536767 0.420458
0.338135 0.503179 0.254639
0.342971 0.505505 0.254905
0.358578 0.512925 0.255785
0.386878 0.526788 0.257475
0.445284 0.544388 0.258969
0.526661 0.564989 0.260234
0.618787 0.589939 0.272516
0.672433 0.574542 0.291766
0.755536 0.576010 0.324725
0.833696 0.587935 0.357176
0.899128 0.593663 0.384279
0.952712 0.595111 0.406237
0.992303 0.592662 0.422364
0.992929 0.580905 0.422149
0.992814 0.571086 0.421802
0.992695 0.559406 0.421346
0.399398 0.613456 0.286874
0.404391 0.615308 0.287051
0.420414 0.621284 0.287634
0.449101 0.632053 0.288731
0.500570 0.645580 0.289626
0.582594 0.659076 0.290246
0.670411 0.673221 0.298137
0.747506 0.677186 0.327529
0.794179 0.645023 0.344147
0.867172 0.642177 0.373478
0.927661 0.641514 0.398032
0.976956 0.637136 0.417905
0.993487 0.625333 0.424129
0.993227 0.609460 0.423423
0.993039 0.594253 0.422774
0.992958 0.582190 0.422237
0.458105 0.717156 0.319734
0.462940 0.718377 0.319744
0.478525 0.722686 0.319816
0.506092 0.730200 0.320565
0.547993 0.739833 0.325379
0.629289 0.747735 0.330182
0.716792 0.756784 0.335805
0.808412 0.768965 0.357577
0.854649 0.738768 0.373862
0.907167 0.706310 0.392945
0.961974 0.695751 0.414499
0.994153 0.681908 0.426860
0.993813 0.660893 0.425821
0.993606 0.639836 0.424815
0.993507 0.620271 0.423902
0.993261 0.603363 0.423127
0.514564 0.814926 0.358452
0.519304 0.815864 0.358905
0.534300 0.818668 0.360293
0.560731 0.823760 0.362908
0.597325 0.831083 0.366686
0.672550 0.836160 0.370034
0.760249 0.841155 0.373794
0.849872 0.846658 0.379186
0.925655 0.842394 0.408446
0.955021 0.790308 0.416824
0.995225 0.755461 0.430883
0.994710 0.726305 0.429196
0.994435 0.695751 0.427599
0.993962 0.666324 0.426141
0.993713 0.638337 0.424730
0.993458 0.628441 0.424287
0.168195 0.174565 0.180177
0.169485 0.175046 0.179977
0.180096 0.176806 0.180138
0.206716 0.187008 0.184553
0.243622 0.195055 0.188546
0.303194 0.203560 0.188195
0.400950 0.235563 0.207173
0.522979 0.284303 0.241082
0.647389 0.337868 0.281024
0.744582 0.380543 0.313555
0.824860 0.417078 0.346857
0.894562 0.449351 0.377025
0.955020 0.477535 0.403069
0.992206 0.497347 0.419077
0.992233 0.504253 0.419262
0.992337 0.510095 0.419491
0.167984 0.175763 0.180228
0.169909 0.176171 0.180222
0.180897 0.178533 0.180866
0.206638 0.187725 0.185417
0.243295 0.195753 0.189414
0.303428 0.203925 0.188643
0.401623 0.235896 0.207480
0.523616 0.284662 0.241392
0.647869 0.338106 0.281288
0.745034 0.380741 0.313734
0.825222 0.417182 0.346981
0.894661 0.449455 0.377090
0.955070 0.477572 0.403095
0.992206 0.497381 0.419079
0.992233 0.504246 0.419264
0.992337 0.510072 0.419490
0.168109 0.179181 0.180735
0.170978 0.179572 0.180760
0.183600 0.183188 0.183150
0.207180 0.189395 0.187243
0.244016 0.196908 0.190713
0.305170 0.204761 0.189422
0.403648 0.237035 0.208522
0.525713 0.285694 0.242399
0.649368 0.338862 0.282063
0.745897 0.381278 0.314259
0.825985 0.417595 0.347351
0.895447 0.449786 0.377399
0.955682 0.477861 0.403354
0.992206 0.497389 0.419080
0.992233 0.504243 0.419264
0.992337 0.510092 0.419491
0.171277 0.182399 0.179732
0.174406 0.183731 0.180329
0.186872 0.189240 0.185138
0.208855 0.193457 0.188753
0.246455 0.199140 0.192073
0.308579 0.206384 0.190891
0.407560 0.239168 0.210523
0.529438 0.287740 0.244302
0.652196 0.340442 0.283537
0.747829 0.382362 0.315471
0.827468 0.418414 0.348012
0.896786 0.450431 0.377955
0.956941 0.478404 0.403877
0.992207 0.497417 0.419082
0.992233 0.504257 0.419264
0.992337 0.510076 0.419490
0.176744 0.190714 0.181188
0.180136 0.192777 0.182914
0.191733 0.197725 0.188910
0.209700 0.200183 0.190678
0.248340 0.207385 0.193750
0.313263 0.214698 0.192883
0.413382 0.243298 0.213522
0.535182 0.290841 0.247266
0.656206 0.342665 0.285785
0.750874 0.384031 0.317265
0.829830 0.419626 0.349026
0.898652 0.451404 0.378755
0.958364 0.479105 0.404466
0.992208 0.497454 0.419086
0.992234 0.504297 0.419267
0.992337 0.510088 0.419491
0.183794 0.203256 0.186377
0.187765 0.204994 0.188733
0.198064 0.208943 0.193498
0.216200 0.212937 0.193621
0.248461 0.216966 0.195937
0.316090 0.229006 0.195153
0.420583 0.261091 0.216682
0.542415 0.302403 0.250726
0.661767 0.345836 0.288933
0.754689 0.386304 0.319734
0.832990 0.421351 0.350415
0.901205 0.452729 0.379833
0.960543 0.480173 0.405432
0.992210 0.497570 0.419097
0.992235 0.504334 0.419270
0.992337 0.510064 0.419489
0.192999 0.218667 0.193465
0.197485 0.220042 0.196268
0.205790 0.223371 0.198477
0.223475 0.227954 0.197739
0.251522 0.229602 0.198611
0.315995 0.244037 0.197795
0.423970 0.280604 0.219255
0.551061 0.325533 0.254266
0.667641 0.365503 0.291510
0.759295 0.394477 0.322450
0.836994 0.423603 0.352144
0.904405 0.454428 0.381228
0.963057 0.481462 0.406490
0.992215 0.497819 0.419066
0.992235 0.504383 0.419273
0.992337 0.510067 0.419489
0.204258 0.237393 0.201653
0.207741 0.238565 0.203230
0.214890 0.241974 0.203392
0.232537 0.247836 0.202343
0.267519 0.255344 0.200934
0.319666 0.262056 0.201376
0.423217 0.299959 0.221308
0.553496 0.348589 0.256289
0.674514 0.390591 0.294376
0.764150 0.416918 0.324235
0.841120 0.438973 0.354357
0.908144 0.458632 0.382926
0.966349 0.483174 0.407929
0.992223 0.498288 0.419104
0.992236 0.504410 0.419277
0.992337 0.510072 0.419490
0.215448 0.261346 0.208079
0.218027 0.262552 0.208279
0.225567 0.266625 0.207523
0.243430 0.274253 0.205973
0.284190 0.284418 0.203404
0.327569 0.287310 0.205752
0.427136 0.323070 0.224908
0.552564 0.371589 0.257737
0.675852 0.415305 0.295708
0.769840 0.442434 0.326355
0.845508 0.462074 0.356882
0.911685 0.479106 0.385069
0.969534 0.493697 0.409555
0.992239 0.499143 0.419121
0.992238 0.504507 0.419284
0.992337 0.510044 0.419488
0.227773 0.294980 0.212312
0.230565 0.296512 0.212069
0.240053 0.301715 0.211374
0.259605 0.311892 0.210372
0.307069 0.325067 0.209311
0.369043 0.343150 0.215122
0.439596 0.353596 0.230708
0.562896 0.402760 0.262587
0.681739 0.444487 0.298708
0.775329 0.470089 0.328732
0.850414 0.487770 0.359869
0.915778 0.502317 0.387540
0.972639 0.514426 0.411489
0.992291 0.515271 0.419675
0.992333 0.509891 0.419523
0.992336 0.510039 0.419487
0.250425 0.346182 0.222485
0.254091 0.348110 0.222523
0.266162 0.354441 0.222683
0.288811 0.366690 0.223094
0.340061 0.382283 0.223104
0.411787 0.404236 0.225568
0.471973 0.408374 0.240226
0.585315 0.443948 0.270908
0.697724 0.481511 0.304840
0.787108 0.503507 0.334338
0.859514 0.517685 0.364778
0.920088 0.527634 0.390229
0.976048 0.537274 0.413674
0.992439 0.535517 0.420423
0.992444 0.528509 0.420184
0.992334 0.517494 0.419734
0.285605 0.417467 0.239954
0.289998 0.419668 0.240077
0.304201 0.426809 0.240573
0.330358 0.440132 0.241572
0.383087 0.457874 0.242530
0.461580 0.479742 0.243362
0.547758 0.503442 0.259523
0.618102 0.499562 0.281486
0.722149 0.526610 0.313403
0.806411 0.543630 0.343984
0.875664 0.553624 0.372889
0.932784 0.559270 0.396617
0.980220 0.562136 0.416216
0.992659 0.557676 0.421236
0.992621 0.549078 0.420911
0.992514 0.538754 0.420494
0.334002 0.510423 0.264816
0.338941 0.512641 0.265027
0.355024 0.520043 0.265778
0.384302 0.533713 0.267203
0.435538 0.552170 0.268831
0.520068 0.571925 0.269446
0.614399 0.595511 0.277293
0.675791 0.585472 0.297230
0.753973 0.580032 0.324451
0.832664 0.590680 0.356918
0.898303 0.595648 0.383972
0.951917 0.596473 0.405962
0.991915 0.593733 0.422278
0.992948 0.581738 0.422206
0.992822 0.571409 0.421810
0.992735 0.561208 0.421429
0.392612 0.618496 0.296504
0.397872 0.620296 0.296621
0.414407 0.626138 0.297087
0.443928 0.636685 0.297860
0.487902 0.650987 0.298747
0.572544 0.664162 0.297772
0.663997 0.678359 0.300260
0.749584 0.687367 0.329031
0.792967 0.651370 0.344052
0.865793 0.645304 0.373062
0.926747 0.643825 0.397741
0.976131 0.638804 0.417637
0.993522 0.626730 0.424191
0.993251 0.610463 0.423449
0.993056 0.594985 0.422825
0.992984 0.583273 0.422276
0.449961 0.720029 0.328881
0.454991 0.721440 0.328904
0.471010 0.725578 0.328782
0.499425 0.732958 0.328664
0.538535 0.743514 0.327937
0.617156 0.751818 0.331806
0.707806 0.760492 0.337271
0.801553 0.771709 0.355108
0.855317 0.747090 0.374706
0.905370 0.710927 0.392524
0.960887 0.698428 0.414214
0.994212 0.684004 0.426974
0.993856 0.662515 0.425908
0.993636 0.640996 0.424857
0.993523 0.620930 0.423950
0.993280 0.604174 0.423184
0.505507 0.817184 0.360704
0.510253 0.818030 0.360517
0.525533 0.820787 0.361223
0.552971 0.825923 0.363779
0.590527 0.832946 0.367403
0.658635 0.839081 0.371110
0.749351 0.843794 0.374756
0.841390 0.848988 0.378911
0.925259 0.849719 0.408751
0.953955 0.796106 0.416725
0.995287 0.758549 0.431062
0.994781 0.728527 0.429363
0.994485 0.697495 0.427677
0.993988 0.667284 0.426145
0.993602 0.639696 0.424795
0.993498 0.630023 0.424345
0.168945 0.186859 0.201326
0.168955 0.188032 0.200864
0.176474 0.186699 0.199874
0.199253 0.192104 0.199756
0.235106 0.206757 0.203058
0.292100 0.213298 0.201792
0.388190 0.240756 0.216310
0.510030 0.287159 0.247510
0.636853 0.340164 0.286038
0.737603 0.383334 0.318396
0.820803 0.418928 0.345437
0.892000 0.450864 0.375951
0.953658 0.478787 0.402566
0.992220 0.498114 0.419091
0.992232 0.504173 0.419257
0.992336 0.510045 0.419486
0.168585 0.188983 0.201240
0.169760 0.189131 0.200821
0.177732 0.188310 0.199938
0.200071 0.193827 0.200299
0.235049 0.207364 0.203753
0.292023 0.213896 0.202594
0.388092 0.241259 0.216955
0.510189 0.287484 0.247975
0.637378 0.340443 0.286336
0.737978 0.383483 0.318606
0.821119 0.419059 0.345600
0.892209 0.451042 0.376063
0.953713 0.478821 0.402556
0.992220 0.498143 0.419093
0.992232 0.504154 0.419256
0.992336 0.510019 0.419484
0.169132 0.192773 0.201440
0.171577 0.192549 0.200945
0.181101 0.192876 0.200306
0.202600 0.198807 0.202239
0.235689 0.209023 0.205627
0.292186 0.215644 0.204695
0.388692 0.242767 0.218825
0.511744 0.288676 0.249228
0.638964 0.341352 0.287220
0.739069 0.384199 0.319329
0.821963 0.419612 0.346033
0.892874 0.451435 0.376383
0.954272 0.479163 0.402794
0.992222 0.498235 0.419099
0.992233 0.504239 0.419261
0.992336 0.510042 0.419485
0.170280 0.198543 0.202245
0.172719 0.198447 0.201804
0.183529 0.199224 0.201280
0.206806 0.205996 0.205913
0.237776 0.211218 0.207928
0.294745 0.217697 0.206835
0.392530 0.245061 0.221057
0.515891 0.290896 0.251322
0.641997 0.343102 0.288964
0.741143 0.385517 0.320682
0.823621 0.420604 0.346950
0.894126 0.452160 0.376843
0.955406 0.479754 0.403260
0.992225 0.498377 0.419056
0.992234 0.504278 0.419266
0.992336 0.510018 0.419484
0.173830 0.205002 0.201636
0.176863 0.205330 0.201582
0.188705 0.205823 0.201177
0.210331 0.213574 0.207639
0.241006 0.217137 0.209744
0.300012 0.221708 0.208625
0.398929 0.248387 0.224119
0.522025 0.294213 0.254447
0.646598 0.345716 0.291583
0.744430 0.387430 0.322661
0.825943 0.422134 0.348557
0.896174 0.453379 0.377784
0.956930 0.480680 0.403906
0.992230 0.498657 0.419078
0.992236 0.504401 0.419277
0.992335 0.510016 0.419484
0.181071 0.210014 0.198503
0.184571 0.211448 0.199217
0.195687 0.216324 0.202251
0.215874 0.224442 0.211394
0.243568 0.226944 0.211953
0.304816 0.235654 0.210727
0.406779 0.262616 0.227459
0.530028 0.301286 0.258387
0.652561 0.349193 0.295035
0.748467 0.389989 0.325360
0.829267 0.424280 0.350807
0.898791 0.454966 0.378957
0.959213 0.481954 0.404855
0.992237 0.499037 0.419112
0.992240 0.504646 0.419296
0.992335 0.510012 0.419483
0.189395 0.225730 0.201076
0.192493 0.227123 0.202164
0.202685 0.231793 0.206946
0.222864 0.239066 0.215647
0.252689 0.244595 0.214406
0.307569 0.251542 0.213467
0.412729 0.283482 0.230557
0.539261 0.325212 0.262079
0.659096 0.364940 0.298227
0.753679 0.394752 0.328725
0.833301 0.427023 0.353918
0.902265 0.457011 0.380431
0.961790 0.483596 0.406039
0.992246 0.499566 0.419157
0.992245 0.504916 0.419319
0.992336 0.510041 0.419485
0.196737 0.245703 0.206155
0.199684 0.247162 0.207348
0.211127 0.251575 0.212677
0.231581 0.258608 0.219622
0.264520 0.267200 0.217167
0.313067 0.270709 0.217002
0.414961 0.304890 0.233490
0.544380 0.350282 0.265050
