luts/Triangulum.CUBE
LUT_3D_SIZE 16
0.019286 0.041068 0.066197
0.023935 0.041071 0.066196
0.043084 0.041082 0.064183
0.074935 0.041484 0.061426
0.118079 0.043498 0.062569
0.175261 0.043444 0.051404
0.250060 0.049377 0.051852
0.345056 0.064075 0.048125
0.445909 0.090091 0.054256
0.567916 0.131520 0.081371
0.702314 0.175588 0.119324
0.806181 0.207308 0.160083
0.880327 0.221717 0.193731
0.912042 0.223725 0.200427
0.941688 0.224399 0.204730
0.987342 0.235737 0.215404
0.019384 0.046152 0.066213
0.023960 0.042898 0.066209
0.043217 0.052225 0.066270
0.075016 0.060591 0.061566
0.118157 0.073137 0.062897
0.175314 0.086792 0.060949
0.250139 0.103593 0.057076
0.345100 0.120537 0.052394
0.445962 0.143077 0.056541
0.568759 0.173357 0.082951
0.702332 0.208939 0.123264
0.808760 0.236573 0.161035
0.880370 0.246399 0.192252
0.913834 0.249293 0.201174
0.941737 0.250812 0.205237
0.987395 0.260552 0.215897
0.019832 0.063329 0.066311
0.030401 0.063334 0.066316
0.043339 0.064544 0.066333
0.075230 0.080514 0.066728
0.118274 0.100232 0.063180
0.175431 0.123398 0.061478
0.252072 0.142664 0.057492
0.345205 0.166525 0.058452
0.448902 0.188069 0.059965
0.572458 0.212096 0.084566
0.702325 0.243928 0.124205
0.808833 0.267118 0.161767
0.880419 0.274248 0.194812
0.913886 0.274993 0.201730
0.941789 0.275359 0.205793
0.987470 0.283808 0.216421
0.024026 0.102380 0.067294
0.041982 0.100116 0.069779
0.060935 0.100185 0.067106
0.076776 0.097456 0.067071
0.118535 0.127418 0.068606
0.175614 0.157140 0.066594
0.255955 0.182844 0.063001
0.351988 0.207506 0.059327
0.456226 0.231967 0.065585
0.579208 0.256589 0.089799
0.702386 0.280291 0.125346
0.809439 0.299805 0.162775
0.882086 0.304590 0.195794
0.913895 0.306191 0.202521
0.944111 0.305281 0.206872
0.987528 0.312528 0.217172
0.030092 0.146702 0.074038
0.056300 0.146797 0.073881
0.079926 0.146643 0.072919
0.101990 0.146443 0.073184
0.120572 0.147013 0.069460
0.175717 0.180144 0.071776
0.256134 0.219308 0.068072
0.353276 0.249313 0.068496
0.462767 0.270525 0.073793
0.587539 0.291717 0.092379
0.706029 0.313037 0.127028
0.812075 0.334069 0.167362
0.881736 0.334224 0.196590
0.915178 0.335731 0.203530
0.944671 0.333916 0.207773
0.987493 0.339889 0.217967
0.038345 0.210186 0.086332
0.069578 0.210001 0.086187
0.103506 0.209836 0.086445
0.130724 0.209347 0.082126
0.153270 0.208872 0.082520
0.175701 0.208415 0.078446
0.256313 0.254081 0.082015
0.355479 0.288759 0.085894
0.470160 0.316522 0.088171
0.592910 0.332459 0.101068
0.709403 0.350321 0.126072
0.815699 0.364137 0.169670
0.883449 0.361885 0.197686
0.916842 0.365039 0.204703
0.944743 0.363804 0.208745
0.990333 0.368434 0.219323
0.048878 0.288920 0.108749
0.087512 0.288712 0.109377
0.124018 0.288402 0.110476
0.158691 0.288290 0.110741
0.186998 0.287851 0.107482
0.219322 0.288302 0.108262
0.256756 0.290457 0.103770
0.350684 0.334734 0.110746
0.474633 0.361481 0.111372
0.605677 0.382361 0.119862
0.716564 0.392836 0.139327
0.818787 0.398814 0.171495
0.884366 0.394786 0.198965
0.917979 0.400724 0.206140
0.947566 0.401405 0.211064
0.993344 0.405010 0.221089
0.056634 0.365517 0.156266
0.097582 0.365969 0.153913
0.140705 0.365461 0.156688
0.178330 0.365181 0.159466
0.211671 0.368170 0.156942
0.241798 0.369618 0.154189
0.273186 0.369310 0.149218
0.345445 0.377828 0.140417
0.480986 0.416120 0.142885
0.621880 0.433928 0.147760
0.729459 0.445828 0.162530
0.825663 0.443460 0.181599
0.886286 0.428027 0.198220
0.919867 0.436664 0.207847
0.948545 0.439323 0.213587
0.994567 0.436416 0.219238
0.074789 0.455383 0.208620
0.119640 0.456353 0.210357
0.162096 0.458254 0.212369
0.203943 0.457828 0.214001
0.236649 0.457722 0.215781
0.268542 0.462501 0.213042
0.304102 0.461909 0.208139
0.344139 0.467492 0.201455
0.485155 0.487794 0.196675
0.641287 0.509613 0.196356
0.748974 0.520067 0.200002
0.838186 0.517173 0.210888
0.892195 0.490929 0.212575
0.927827 0.511618 0.233560
0.959208 0.520473 0.244150
0.999173 0.515601 0.242051
0.104021 0.548926 0.274399
0.145662 0.549180 0.276810
0.188947 0.549744 0.280850
0.228123 0.553132 0.281221
0.264194 0.552661 0.287234
0.298556 0.556828 0.287863
0.325495 0.561001 0.283062
0.353626 0.566803 0.278378
0.423306 0.582582 0.281308
0.639000 0.605595 0.276824
0.759783 0.615601 0.259006
0.851415 0.607828 0.253067
0.903439 0.587689 0.256956
0.940869 0.615896 0.285330
0.970034 0.629519 0.299635
0.999544 0.621905 0.291543
0.112496 0.655078 0.351655
0.142194 0.655699 0.353312
0.181735 0.659238 0.356125
0.221379 0.659459 0.360745
0.259404 0.659835 0.366106
0.295957 0.663138 0.367860
0.332414 0.662848 0.374675
0.373235 0.667559 0.376064
0.407590 0.679423 0.362104
0.534669 0.693041 0.380342
0.767225 0.701174 0.336393
0.860513 0.694279 0.298973
0.912951 0.694241 0.311536
0.948662 0.722878 0.356077
0.976317 0.735182 0.373497
0.999770 0.731117 0.362376
0.201466 0.764761 0.404819
0.235929 0.765230 0.409509
0.274020 0.765076 0.412613
0.312187 0.765410 0.420024
0.346954 0.765139 0.427445
0.381595 0.765600 0.436005
0.415899 0.767896 0.441061
0.447155 0.768612 0.442098
0.474204 0.771054 0.418930
0.516980 0.779798 0.413771
0.696312 0.797506 0.418203
0.853631 0.785712 0.346394
0.916055 0.797876 0.391490
0.950603 0.833167 0.477042
0.979543 0.848046 0.515997
1.000020 0.841717 0.495084
0.265025 0.847101 0.399080
0.302978 0.847209 0.409984
0.337674 0.847811 0.419671
0.374984 0.847561 0.433114
0.409543 0.847348 0.445570
0.442674 0.848868 0.455200
0.470020 0.849047 0.460389
0.492046 0.850032 0.460510
0.516514 0.852031 0.453725
0.571962 0.861904 0.443670
0.702719 0.875749 0.429397
0.837532 0.881438 0.411533
0.918209 0.883194 0.496757
0.952222 0.900443 0.583893
0.979765 0.901563 0.585016
1.000020 0.898093 0.593385
0.274096 0.883105 0.397367
0.310386 0.882829 0.409156
0.348076 0.884401 0.422582
0.385846 0.884251 0.435366
0.419008 0.885091 0.447293
0.454217 0.884768 0.460570
0.478286 0.886577 0.464753
0.500322 0.886540 0.463728
0.530859 0.891346 0.460723
0.631705 0.908132 0.472642
0.757811 0.918609 0.467948
0.870281 0.921327 0.472536
0.926657 0.935451 0.585243
0.953083 0.931669 0.588397
0.979842 0.932218 0.589470
1.000020 0.927578 0.597698
0.282540 0.913424 0.396858
0.318394 0.913224 0.407963
0.354362 0.912865 0.420583
0.392779 0.914203 0.436296
0.425388 0.914756 0.449726
0.461740 0.914512 0.464333
0.482961 0.915159 0.466256
0.504330 0.915239 0.461930
0.541670 0.924177 0.462681
0.658373 0.939574 0.471390
0.780431 0.946952 0.470163
0.880715 0.951724 0.472827
0.927836 0.963038 0.589232
0.957542 0.963143 0.592465
0.980445 0.958565 0.593095
1.000020 0.956825 0.601306
0.297412 0.957331 0.407586
0.332242 0.957033 0.419350
0.368248 0.956809 0.435295
0.409524 0.959439 0.451304
0.441349 0.959208 0.464380
0.477277 0.959020 0.479680
0.496676 0.959056 0.481405
0.515290 0.960246 0.477530
0.546330 0.966527 0.476310
0.655250 0.985537 0.486000
0.768160 0.992955 0.481989
0.868246 0.997806 0.489792
0.920273 1.000020 0.606194
0.949230 1.000020 0.610057
0.975015 1.000020 0.610233
1.000020 1.000020 0.617679
0.008024 0.008024 0.049673
0.024268 0.041226 0.071772
0.043367 0.041389 0.074486
0.074984 0.041612 0.078133
0.118090 0.043536 0.090149
0.175267 0.047350 0.100890
0.250076 0.052762 0.109035
0.345033 0.069701 0.111601
0.445822 0.098512 0.119151
0.568630 0.145079 0.145221
0.702273 0.191563 0.175108
0.806719 0.225679 0.209201
0.880288 0.244061 0.241348
0.912014 0.246089 0.245144
0.941672 0.246074 0.248856
0.987341 0.260265 0.261397
0.009340 0.009340 0.057848
0.024124 0.046206 0.068216
0.043180 0.043774 0.067332
0.074945 0.044542 0.066184
0.118090 0.047407 0.066500
0.175252 0.052093 0.062402
0.250057 0.055945 0.059746
0.345053 0.072106 0.054960
0.446367 0.097940 0.060722
0.568133 0.135655 0.086261
0.702358 0.178465 0.124240
0.806181 0.213686 0.166775
0.880327 0.224335 0.196823
0.912401 0.227492 0.203783
0.941693 0.229164 0.207827
0.987348 0.241309 0.220902
0.010710 0.010710 0.066570
0.024630 0.063365 0.069132
0.043370 0.064310 0.067436
0.075148 0.076890 0.067477
0.118254 0.094289 0.065604
0.175415 0.117350 0.065858
0.250231 0.136378 0.060909
0.345141 0.156689 0.059022
0.448878 0.178309 0.062161
0.570204 0.206393 0.087334
0.699173 0.236623 0.125321
0.808816 0.263540 0.165565
0.880408 0.268791 0.195132
0.913875 0.270160 0.201618
0.941779 0.271260 0.205684
0.987457 0.278687 0.216302
0.012837 0.035801 0.077614
0.026398 0.099889 0.074732
0.057298 0.100136 0.072562
0.076785 0.098889 0.069885
0.118452 0.122995 0.071495
0.175605 0.151721 0.071001
0.255794 0.179242 0.066728
0.350140 0.205706 0.062928
0.456197 0.226627 0.068054
0.579186 0.251067 0.091880
0.702377 0.275610 0.125881
0.809430 0.299167 0.166647
0.882079 0.303287 0.198034
0.913886 0.302383 0.202403
0.944101 0.301478 0.206808
0.987518 0.309277 0.217106
0.017479 0.091103 0.094298
0.032918 0.146561 0.081912
0.075221 0.146622 0.074752
0.101980 0.146433 0.076269
0.120574 0.147001 0.074753
0.175729 0.180173 0.076797
0.256111 0.217539 0.071436
0.353251 0.245966 0.070479
0.462686 0.269545 0.075412
0.587533 0.290253 0.094988
0.705417 0.312208 0.127599
0.812061 0.330117 0.167953
0.882069 0.332710 0.198850
0.915216 0.332286 0.203412
0.944666 0.332248 0.207710
0.987491 0.339193 0.217924
0.030993 0.170171 0.118195
0.041952 0.209955 0.091981
0.097757 0.209819 0.087434
0.127905 0.209585 0.086920
0.153269 0.208872 0.083525
0.175708 0.208415 0.083060
0.256302 0.254071 0.086369
0.355461 0.288326 0.088667
0.470163 0.312853 0.088464
0.592904 0.331584 0.103798
0.709374 0.345866 0.128871
0.815136 0.363820 0.172589
0.883446 0.361863 0.199931
0.916521 0.362823 0.204585
0.944738 0.362787 0.209430
0.990330 0.367732 0.219293
0.044265 0.256157 0.151723
0.051348 0.288768 0.115051
0.118225 0.288376 0.114142
0.155916 0.288295 0.111717
0.186205 0.287840 0.112304
0.219317 0.288303 0.112239
0.256762 0.290467 0.105563
0.350642 0.330292 0.111358
0.474622 0.361023 0.112911
0.605659 0.378557 0.122545
0.713673 0.389734 0.139524
0.818768 0.394937 0.172017
0.883779 0.392340 0.199229
0.917969 0.399192 0.209772
0.947337 0.399224 0.213987
0.991151 0.401528 0.220675
0.054256 0.343636 0.202694
0.058905 0.365528 0.161887
0.131471 0.365526 0.159174
0.174566 0.365156 0.161686
0.209561 0.368169 0.159153
0.239700 0.369710 0.157524
0.273603 0.369189 0.152156
0.345221 0.377814 0.141908
0.480998 0.414573 0.144487
0.621877 0.434083 0.149507
0.728339 0.442035 0.163744
0.825486 0.443534 0.181581
0.886358 0.428073 0.200795
0.919863 0.436509 0.210277
0.948528 0.435789 0.215561
0.993517 0.436160 0.219037
0.065345 0.434815 0.254822
0.078992 0.455647 0.211769
0.155558 0.458383 0.213285
0.199869 0.457835 0.217952
0.236075 0.457643 0.218443
0.268872 0.462013 0.216425
0.301623 0.462294 0.211567
0.344246 0.467455 0.204038
0.483834 0.487784 0.197328
0.641376 0.509394 0.198695
0.747633 0.517465 0.199720
0.837948 0.516783 0.211357
0.891247 0.490925 0.213182
0.927697 0.509920 0.234375
0.957895 0.519457 0.244242
0.999143 0.511531 0.239963
0.083345 0.526524 0.317729
0.109220 0.548999 0.279256
0.178873 0.549427 0.279830
0.225527 0.552793 0.285017
0.262768 0.552695 0.287153
0.295424 0.556750 0.289711
0.325508 0.560916 0.287423
0.353441 0.568751 0.280951
0.421150 0.582526 0.283418
0.639000 0.605595 0.276824
0.759783 0.615610 0.259233
0.851432 0.604787 0.253050
0.903439 0.587730 0.257335
0.940834 0.614530 0.287292
0.969823 0.625791 0.299441
0.999511 0.617933 0.287085
0.108341 0.638166 0.398709
0.113391 0.655138 0.356922
0.172537 0.656816 0.360246
0.218462 0.659524 0.362670
0.255900 0.659120 0.365785
0.294937 0.663153 0.372024
0.331426 0.662869 0.374597
0.369937 0.667632 0.375259
0.407250 0.679417 0.362673
0.534143 0.693031 0.381240
0.767212 0.701143 0.341073
0.860512 0.694303 0.299927
0.912935 0.692850 0.314442
0.948277 0.720417 0.356055
0.976416 0.734656 0.374145
0.999902 0.726948 0.357225
0.136541 0.749582 0.434306
0.205970 0.764800 0.409386
0.265427 0.765146 0.414580
0.306499 0.765402 0.421170
0.342988 0.765224 0.426609
0.377858 0.765098 0.435027
0.414586 0.767914 0.441228
0.447451 0.768587 0.443838
0.473710 0.771070 0.423490
0.516882 0.779885 0.414479
0.696258 0.797487 0.422572
0.853630 0.785629 0.347153
0.916056 0.798023 0.391611
0.950597 0.832622 0.477025
0.979512 0.845749 0.515905
1.000020 0.838485 0.490739
0.160868 0.836804 0.407446
0.270423 0.847159 0.404409
0.329919 0.847930 0.419556
0.370557 0.847548 0.431913
0.405087 0.847450 0.444118
0.438357 0.848950 0.455347
0.470421 0.848847 0.463991
0.491907 0.850032 0.460509
0.516189 0.852003 0.455117
0.570830 0.861974 0.443813
0.702359 0.875747 0.429784
0.837537 0.881438 0.411651
0.917778 0.883403 0.498920
0.952221 0.900369 0.584524
0.979765 0.901584 0.585375
1.000020 0.898029 0.591023
0.171487 0.872646 0.404364
0.279319 0.884380 0.403171
0.339365 0.884484 0.419731
0.380530 0.884128 0.433996
0.417025 0.885119 0.447150
0.451321 0.884840 0.460029
0.478133 0.886559 0.465352
0.500017 0.886535 0.464818
0.528406 0.891342 0.460732
0.629605 0.907829 0.472325
0.757697 0.917371 0.467883
0.870027 0.921325 0.473184
0.926681 0.935450 0.586051
0.953083 0.931669 0.588397
0.979841 0.932142 0.589822
1.000020 0.927397 0.594471
0.180723 0.903059 0.400798
0.285046 0.913422 0.399139
0.345531 0.913002 0.420204
0.387283 0.913888 0.435092
0.424460 0.914777 0.449390
0.457562 0.914598 0.462655
0.482902 0.915159 0.466255
0.503928 0.915236 0.462057
0.541177 0.922751 0.462966
0.657014 0.939102 0.472721
0.779672 0.947202 0.470168
0.880115 0.951721 0.472692
0.928274 0.963039 0.590461
0.957540 0.963143 0.593214
0.980445 0.958595 0.593838
1.000020 0.956774 0.598276
0.195142 0.949334 0.407364
0.301951 0.957201 0.412630
0.363153 0.956807 0.433423
0.404117 0.958580 0.449130
0.440477 0.959214 0.464406
0.472928 0.959056 0.477766
0.496358 0.959059 0.481389
0.515070 0.960246 0.477546
0.544916 0.966510 0.476665
0.654121 0.984966 0.485987
0.767464 0.992952 0.481978
0.865067 0.997793 0.487424
0.920263 1.000020 0.607294
0.949220 1.000020 0.610057
0.975015 1.000020 0.610233
1.000020 1.000020 0.613942
0.000000 0.000000 0.000000
0.000000 0.000000 0.000000
0.000000 0.000000 0.000000
0.000000 0.000000 0.000000
0.035914 0.006039 0.006039
0.120291 0.019763 0.039143
0.212265 0.033022 0.078662
0.322570 0.042612 0.098861
0.434960 0.048467 0.115231
0.557744 0.066658 0.133355
0.691722 0.090149 0.158866
0.799413 0.112211 0.183941
0.874444 0.129120 0.185368
0.909234 0.137316 0.192808
0.938812 0.144421 0.196811
0.984815 0.155609 0.210818
0.015052 0.038820 0.073892
0.024294 0.043895 0.084570
0.043747 0.046734 0.084602
0.075239 0.043238 0.095095
0.118105 0.044520 0.111462
0.175303 0.048268 0.129510
0.250089 0.053580 0.141647
0.345038 0.070564 0.149994
0.448725 0.100800 0.159046
0.571951 0.146334 0.177617
0.702147 0.200761 0.208801
0.808636 0.241538 0.244151
0.880285 0.247031 0.260872
0.912382 0.247224 0.264419
0.941677 0.249735 0.267391
0.987345 0.260313 0.277505
0.016324 0.049263 0.082435
0.025622 0.064589 0.085916
0.043907 0.063666 0.084670
0.075202 0.065069 0.084753
0.118137 0.066504 0.084081
0.175302 0.070600 0.083320
0.250049 0.077386 0.081696
0.345035 0.091560 0.076510
0.447290 0.114833 0.081548
0.568365 0.151669 0.104355
0.702353 0.193549 0.141804
0.807485 0.225347 0.179528
0.880328 0.237249 0.210070
0.913796 0.239911 0.216617
0.941698 0.240920 0.220455
0.987357 0.251744 0.232222
0.019470 0.079971 0.099790
0.027809 0.099806 0.101607
0.045094 0.099856 0.087104
0.076784 0.099151 0.085092
0.118398 0.119083 0.085850
0.175511 0.141818 0.082738
0.255182 0.164658 0.080468
0.348839 0.187540 0.077274
0.452151 0.208880 0.079405
0.575282 0.233266 0.101899
0.702338 0.261141 0.136863
0.809124 0.284355 0.173287
0.881015 0.290610 0.203558
0.913912 0.291166 0.209946
0.941816 0.291676 0.215257
0.987475 0.299193 0.224380
0.024823 0.126365 0.125249
0.033352 0.145948 0.121187
0.049538 0.146436 0.094802
0.095903 0.146478 0.091242
0.119803 0.147096 0.091590
0.175725 0.177331 0.090733
0.256030 0.210178 0.085389
0.353270 0.237218 0.082616
0.461518 0.258912 0.086014
0.584789 0.281129 0.105372
0.704429 0.303211 0.138390
0.812017 0.321961 0.175985
0.880745 0.324794 0.205631
0.915035 0.325612 0.211203
0.944442 0.325847 0.216619
0.987456 0.331122 0.225218
0.035767 0.193184 0.156102
0.041837 0.208618 0.149697
0.056012 0.209697 0.107521
0.119192 0.209698 0.100569
0.150497 0.208867 0.099149
0.175718 0.208385 0.094729
0.256234 0.248240 0.097397
0.355379 0.282664 0.098748
0.467282 0.306566 0.096933
0.592864 0.323730 0.111988
0.709317 0.340693 0.140332
0.815093 0.357372 0.178307
0.883427 0.358701 0.206973
0.915178 0.357290 0.211919
0.944711 0.357464 0.217579
0.990459 0.361730 0.224351
0.047629 0.277035 0.190298
0.051499 0.287649 0.180299
0.065027 0.288596 0.130435
0.143105 0.288291 0.124342
0.180531 0.288084 0.124064
0.214165 0.287421 0.123699
0.256865 0.289662 0.118287
0.352944 0.329741 0.122107
0.474556 0.356255 0.121799
0.602104 0.374244 0.129867
0.713668 0.383975 0.146770
0.818738 0.391608 0.180017
0.883432 0.389428 0.206537
0.917985 0.394811 0.215136
0.945103 0.395342 0.219257
0.991124 0.395917 0.224186
0.056008 0.356077 0.240062
0.058936 0.364484 0.228662
0.071210 0.365540 0.173747
0.160032 0.365189 0.169828
0.201509 0.367934 0.170032
0.238021 0.369034 0.168106
0.273154 0.369193 0.163089
0.344251 0.377818 0.153088
0.480272 0.411755 0.153023
0.621866 0.429161 0.156401
0.728074 0.438738 0.169873
0.824357 0.438500 0.186907
0.886339 0.426027 0.208731
0.919836 0.432419 0.216756
0.947568 0.432613 0.220640
0.993494 0.431834 0.221456
0.069643 0.446794 0.290617
0.077247 0.453868 0.278692
0.090227 0.455933 0.224511
0.181734 0.458060 0.222786
0.227410 0.457557 0.227114
0.263859 0.461186 0.225352
0.300061 0.462346 0.220606
0.342444 0.466444 0.212892
0.482513 0.487735 0.207514
0.640300 0.505843 0.204356
0.745706 0.514280 0.205625
0.837319 0.512760 0.217874
0.891122 0.484265 0.217608
0.927297 0.502016 0.236588
0.957658 0.511341 0.246759
0.999035 0.502263 0.238454
0.091919 0.540849 0.352476
0.106942 0.548119 0.342040
0.120548 0.548683 0.290396
0.207013 0.550512 0.289452
0.251936 0.552811 0.293841
0.291537 0.555338 0.297188
0.323127 0.560824 0.295070
0.351986 0.566714 0.287219
0.418724 0.582536 0.289279
0.638980 0.605701 0.283626
0.759832 0.613533 0.263867
0.850860 0.602557 0.257664
0.903522 0.583039 0.260742
0.939309 0.608005 0.287930
0.969867 0.619247 0.300819
0.999495 0.608747 0.285438
0.110962 0.647851 0.430025
0.113285 0.654123 0.416431
0.119849 0.655112 0.367638
0.200330 0.659249 0.367311
0.244999 0.659217 0.370263
0.284222 0.663302 0.374171
0.325432 0.662887 0.379273
0.367215 0.667658 0.380515
0.405626 0.679363 0.370515
0.527398 0.693061 0.387169
0.767200 0.701312 0.345590
0.860538 0.694708 0.304309
0.912904 0.690233 0.319048
0.948023 0.716749 0.360188
0.976384 0.729933 0.376848
0.999848 0.721218 0.353556
0.160873 0.756731 0.469508
0.203600 0.763114 0.463358
0.215156 0.764753 0.417109
0.291322 0.763227 0.423716
0.332846 0.765342 0.429890
0.372688 0.765245 0.437577
0.409283 0.767941 0.444532
0.444807 0.767692 0.449628
0.472485 0.770957 0.428860
0.515355 0.778674 0.421832
0.690517 0.797509 0.426992
0.853618 0.785758 0.353103
0.916033 0.796849 0.396430
0.950556 0.829463 0.478390
0.979485 0.843456 0.512673
1.000020 0.834282 0.486310
0.201643 0.842581 0.449766
0.267917 0.846357 0.453664
0.279072 0.846857 0.414202
0.353458 0.847743 0.430799
0.395084 0.847464 0.443989
0.432063 0.849050 0.456968
0.468803 0.848779 0.468959
0.490896 0.849215 0.466495
0.515216 0.851933 0.460803
0.564913 0.861763 0.448386
0.697235 0.875094 0.436475
0.836559 0.881422 0.418030
0.918196 0.883443 0.503970
0.952213 0.900700 0.590111
0.979707 0.899188 0.591250
1.000020 0.898291 0.593985
0.211418 0.879076 0.446243
0.275365 0.882207 0.451574
0.288937 0.882835 0.413407
0.363966 0.884381 0.433339
0.407152 0.885151 0.448933
0.444414 0.884835 0.462456
0.477180 0.885845 0.471613
0.498996 0.886520 0.470163
0.526123 0.889432 0.466773
0.623345 0.907445 0.478103
0.751109 0.917147 0.472644
0.868049 0.921306 0.479858
0.926279 0.935515 0.590819
0.953077 0.931688 0.593722
0.979840 0.932383 0.594797
1.000020 0.927633 0.597680
0.220028 0.908686 0.440425
0.284101 0.912443 0.449053
0.294150 0.913349 0.409910
0.369681 0.912752 0.431864
0.413777 0.914893 0.449180
0.451623 0.915217 0.464265
0.481122 0.915175 0.472013
0.502805 0.915180 0.468353
0.535430 0.921905 0.467071
0.647529 0.939143 0.478919
0.772309 0.946907 0.475928
0.877035 0.951705 0.476771
0.925794 0.963726 0.595276
0.957631 0.963140 0.596895
0.980443 0.958554 0.597513
1.000020 0.956832 0.601953
0.234053 0.953553 0.449930
0.298007 0.956754 0.458303
0.310463 0.957266 0.421805
0.384258 0.958477 0.445302
0.426787 0.959362 0.462019
0.464432 0.959200 0.477572
0.493766 0.959010 0.485058
0.513458 0.961859 0.482670
0.537577 0.965687 0.479590
0.644324 0.983373 0.488951
0.760199 0.993599 0.484801
0.861856 0.996947 0.494743
0.920432 1.000020 0.610437
0.947339 1.000020 0.613643
0.975026 1.000020 0.613780
1.000020 1.000020 0.617739
0.000000 0.000000 0.000000
0.000000 0.000000 0.000000
0.000000 0.000000 0.000000
0.000000 0.000000 0.000000
0.039715 0.008095 0.048404
0.120325 0.019984 0.102061
0.214970 0.033559 0.139836
0.319646 0.042695 0.162971
0.438547 0.049183 0.179723
0.562511 0.067598 0.190390
0.695110 0.090948 0.207201
0.799420 0.112352 0.226537
0.874449 0.129245 0.227028
0.909240 0.137423 0.232053
0.938269 0.144394 0.234554
0.984774 0.155718 0.243850
0.014129 0.036228 0.086215
0.026779 0.046267 0.118119
0.057548 0.044130 0.115874
0.076864 0.044261 0.117226
0.118227 0.045675 0.139007
0.175307 0.048378 0.164757
0.250088 0.053723 0.186749
0.345051 0.070690 0.200942
0.450677 0.101135 0.210943
0.575818 0.147458 0.223757
0.705792 0.201052 0.245569
0.808611 0.239643 0.273692
0.880291 0.247320 0.288934
0.912022 0.247255 0.292748
0.941682 0.246322 0.292400
0.987352 0.260359 0.303278
0.016217 0.061847 0.095200
0.028616 0.081470 0.118236
0.044826 0.066438 0.117612
0.077050 0.064642 0.117279
0.118249 0.065327 0.133564
0.175297 0.067250 0.154612
0.250096 0.070903 0.173488
0.345029 0.084695 0.183624
0.449893 0.112310 0.191669
0.572686 0.157989 0.206865
0.704913 0.210803 0.233500
0.808635 0.248334 0.264134
0.880288 0.254051 0.280576
0.912785 0.253857 0.283442
0.941682 0.255302 0.285126
0.987355 0.266265 0.294823
0.019089 0.070823 0.113251
0.029325 0.101350 0.119605
0.045916 0.101359 0.119081
0.076213 0.098212 0.118319
0.118300 0.098550 0.117987
0.175323 0.102780 0.117077
0.250047 0.107716 0.112585
0.344989 0.121674 0.110768
0.448269 0.140943 0.116430
0.569501 0.173230 0.132792
0.702341 0.211128 0.164602
0.807479 0.242281 0.198634
0.880330 0.254580 0.228260
0.913800 0.255661 0.233648
0.941709 0.257925 0.236951
0.987374 0.266831 0.247012
0.024798 0.107280 0.144660
0.033663 0.145974 0.148331
0.048408 0.145973 0.141347
0.079596 0.146087 0.122925
0.119756 0.146584 0.121686
0.175645 0.167479 0.119667
0.255896 0.191510 0.114582
0.350797 0.213186 0.111451
0.457403 0.233770 0.111587
0.579545 0.255252 0.127841
0.702348 0.283220 0.158660
0.809456 0.305013 0.193039
0.881405 0.310245 0.221278
0.913870 0.311037 0.228758
0.943972 0.311039 0.233069
0.987517 0.317972 0.241617
0.033142 0.175582 0.184385
0.042026 0.208372 0.182073
0.054196 0.208359 0.171183
0.084889 0.209298 0.134486
0.141970 0.209124 0.129311
0.175983 0.208515 0.124432
0.256159 0.242259 0.125742
0.355247 0.268874 0.124440
0.466186 0.290854 0.122056
0.588932 0.308657 0.132242
0.706019 0.329221 0.160289
0.813689 0.346546 0.197082
0.882096 0.347560 0.222296
0.915182 0.348996 0.228858
0.944680 0.347771 0.234075
0.987431 0.352642 0.239799
0.045342 0.261383 0.229449
0.051842 0.286923 0.221064
0.061540 0.287162 0.208083
0.090122 0.288294 0.154289
0.166187 0.287987 0.149643
0.209531 0.287489 0.150306
0.256168 0.289546 0.144710
0.350470 0.323705 0.146137
0.474479 0.348250 0.143372
0.601571 0.362985 0.147996
0.711771 0.373571 0.163190
0.818183 0.384434 0.198728
0.883403 0.382203 0.223414
0.917035 0.385842 0.231235
0.944720 0.384742 0.235141
0.990440 0.386940 0.237259
0.055002 0.346589 0.284192
0.059314 0.363670 0.270878
0.067554 0.364226 0.255821
0.095777 0.365351 0.194317
0.183134 0.364920 0.192151
0.230706 0.367936 0.190975
0.268994 0.369358 0.186115
0.343163 0.377010 0.176709
