luts/Triangulum.CUBE
LUT_3D_SIZE 6
0.019286 0.041068 0.066197
0.074935 0.041484 0.061426
0.250060 0.049377 0.051852
0.567916 0.131520 0.081371
0.880327 0.221717 0.193731
0.987342 0.235737 0.215404
0.024026 0.102380 0.067294
0.076776 0.097456 0.067071
0.255955 0.182844 0.063001
0.579208 0.256589 0.089799
0.882086 0.304590 0.195794
0.987528 0.312528 0.217172
0.048878 0.288920 0.108749
0.158691 0.288290 0.110741
0.256756 0.290457 0.103770
0.605677 0.382361 0.119862
0.884366 0.394786 0.198965
0.993344 0.405010 0.221089
0.104021 0.548926 0.274399
0.228123 0.553132 0.281221
0.325495 0.561001 0.283062
0.639000 0.605595 0.276824
0.903439 0.587689 0.256956
0.999544 0.621905 0.291543
0.265025 0.847101 0.399080
0.374984 0.847561 0.433114
0.470020 0.849047 0.460389
0.571962 0.861904 0.443670
0.918209 0.883194 0.496757
1.000020 0.898093 0.593385
0.297412 0.957331 0.407586
0.409524 0.959439 0.451304
0.496676 0.959056 0.481405
0.655250 0.985537 0.486000
0.920273 1.000020 0.606194
1.000020 1.000020 0.617679
0.000000 0.000000 0.000000
0.000000 0.000000 0.000000
0.214970 0.033559 0.139836
0.562511 0.067598 0.190390
0.874449 0.129245 0.227028
0.984774 0.155718 0.243850
0.019089 0.070823 0.113251
0.076213 0.098212 0.118319
0.250047 0.107716 0.112585
0.569501 0.173230 0.132792
0.880330 0.254580 0.228260
0.987374 0.266831 0.247012
0.045342 0.261383 0.229449
0.090122 0.288294 0.154289
0.256168 0.289546 0.144710
0.601571 0.362985 0.147996
0.883403 0.382203 0.223414
0.990440 0.386940 0.237259
0.084601 0.529758 0.402189
0.137736 0.548602 0.305727
0.317815 0.557079 0.311264
0.638369 0.605272 0.299487
0.902813 0.572303 0.270337
0.999436 0.592666 0.286799
0.161295 0.836831 0.481376
0.293779 0.847183 0.428344
0.457660 0.848853 0.472733
0.554793 0.859589 0.460012
0.917506 0.884464 0.516120
1.000020 0.898127 0.603750
0.195464 0.949364 0.474631
0.321230 0.957078 0.433667
0.488951 0.959000 0.493405
0.627239 0.981489 0.499389
0.917452 1.000020 0.619419
1.000020 1.000020 0.627249
0.032677 0.032677 0.223021
0.144025 0.036024 0.248843
0.222788 0.038086 0.257138
0.581325 0.071411 0.325382
0.874471 0.129713 0.334055
0.981973 0.155407 0.337534
0.042169 0.178362 0.292112
0.084306 0.105584 0.296898
0.249597 0.104831 0.289010
0.584668 0.180764 0.332334
0.879321 0.265429 0.365560
0.984905 0.271518 0.370631
0.049219 0.275254 0.321332
0.086541 0.286542 0.320557
0.251516 0.286586 0.307423
0.589113 0.325095 0.302855
0.880677 0.376122 0.354592
0.987424 0.382683 0.364947
0.086678 0.534228 0.527884
0.128258 0.542396 0.495245
0.268294 0.551082 0.438750
0.649127 0.623037 0.442032
0.894550 0.539970 0.371448
0.999114 0.536494 0.370307
0.162069 0.836913 0.583960
0.288074 0.844681 0.576539
0.396036 0.846736 0.538670
0.550284 0.852167 0.565324
0.917218 0.887109 0.613724
1.000020 0.892557 0.678646
0.195285 0.946728 0.574637
0.312526 0.955262 0.570587
0.416394 0.959479 0.537845
0.573515 0.965223 0.583332
0.912153 1.000020 0.674649
1.000020 1.000020 0.707666
0.043160 0.043160 0.443122
0.195630 0.045684 0.452142
0.335486 0.050709 0.465808
0.574683 0.071705 0.462983
0.871500 0.129851 0.454205
0.979009 0.155454 0.459321
0.054048 0.217495 0.487740
0.106254 0.115599 0.483659
0.317858 0.126192 0.483659
0.570603 0.185160 0.481900
0.874492 0.251557 0.474854
0.982089 0.258449 0.477149
0.071550 0.343409 0.562965
0.091970 0.329716 0.545525
0.261806 0.285420 0.502520
0.581624 0.335077 0.492327
0.876483 0.378747 0.483334
0.982335 0.377763 0.475475
0.095549 0.511142 0.631391
0.123720 0.516979 0.623884
0.262405 0.524512 0.626383
0.548675 0.583665 0.609958
0.891986 0.571127 0.546073
0.998499 0.568071 0.541905
0.163226 0.836958 0.708078
0.289016 0.842070 0.703809
0.395988 0.843703 0.690226
0.565217 0.861505 0.703789
0.918972 0.896256 0.759245
1.000020 0.898623 0.790242
0.196258 0.946725 0.692898
0.307655 0.950491 0.690478
0.405983 0.954139 0.676435
0.573008 0.974349 0.700602
0.915786 1.000020 0.774811
1.000020 1.000020 0.815961
0.075970 0.075970 0.675894
0.327251 0.080796 0.686609
0.494332 0.087085 0.695279
0.714247 0.099835 0.713765
0.849811 0.127322 0.671212
0.956731 0.152214 0.669175
0.083842 0.246209 0.693711
0.235129 0.178840 0.695350
0.454515 0.199215 0.700649
0.685850 0.253456 0.719109
0.855678 0.245522 0.683081
0.962377 0.258247 0.682330
0.093534 0.359988 0.711062
0.203466 0.343131 0.702872
0.370367 0.330777 0.704749
0.647646 0.386263 0.725878
0.857463 0.378526 0.697960
0.965140 0.387222 0.685868
0.130469 0.581067 0.814334
0.149646 0.562346 0.803487
0.279960 0.537095 0.793319
0.588854 0.596444 0.774703
0.869426 0.575273 0.750627
0.978896 0.574713 0.731671
0.167247 0.815127 0.867299
0.281810 0.824664 0.870315
0.389152 0.827675 0.870792
0.546262 0.841748 0.875236
0.911917 0.905953 0.911525
1.000020 0.910986 0.915731
0.196398 0.941097 0.868313
0.287640 0.946737 0.866060
0.383563 0.949511 0.858619
0.536420 0.960387 0.861271
0.915147 1.000020 0.924177
1.000020 1.000020 0.928373
0.092214 0.092214 0.769141
0.351276 0.096649 0.775683
0.510292 0.103037 0.785765
0.720023 0.116221 0.809972
0.863275 0.132335 0.794494
0.956659 0.154034 0.795375
0.099742 0.244551 0.786974
0.255777 0.190595 0.788247
0.469276 0.213508 0.795006
0.687062 0.273458 0.816457
0.864509 0.261622 0.812991
0.959648 0.264644 0.805984
0.109064 0.360743 0.802348
0.227137 0.343454 0.791808
0.390523 0.338394 0.797714
0.645369 0.399177 0.820055
0.859750 0.387750 0.820538
0.965154 0.400312 0.819463
0.147872 0.586561 0.907258
0.160584 0.563507 0.893823
0.289065 0.531738 0.877438
0.603015 0.602095 0.854710
0.868230 0.581229 0.857978
0.976803 0.607087 0.870445
0.179396 0.797297 0.946605
0.288000 0.803996 0.949273
0.392168 0.801387 0.949143
0.540002 0.813970 0.951541
0.911167 0.907141 0.988353
1.000020 0.930415 1.000020
0.200936 0.925824 0.971890
0.305753 0.933931 0.974865
0.414980 0.935513 0.974868
0.569999 0.947255 0.980337
0.932423 1.000020 1.000020
1.000074 1.000072 1.000073
